!!!!SEGMENT: pl-cz--iii-670--001_scigalski-franciszek--duo-offertoria-offertorium-1.krn
!!!cenid: 18xx:1124
!!!COM: Ścigalski, Franciszek
!!!COM-rismid: pe30002948
!!!CDT: 1782/01/29-1846/09/27
!!!CNT: Polish
!!!GTL: Duo Offertoria
!!!OTL: Offertorium 1
!!!PDT:
!!!AGN: Sacred
!!!SMS-siglum: PL-CZ
!!!SMS-shelfmark: III-670
!!!SMS-shelfwork: 001 G
!!!SMS-variant:
!!!SMS-altvar:
!!!NIFC-rismid: 300001317
!!!URL-scan: http://repozytorium.nifc.pl/skany/pl-cz-nut--iii-670
!!!ONB-nifc:
**kern	**kern	**dynam	**kern	**dynam	**kern	**fing	**dynam	**kern	**kern	**kern	**kern	**kern	**kern	**dynam	**kern	**dynam	**kern	**dynam	**kern	**dynam	**kern	**dynam	**kern	**dynam
*	*group4	*group4	*group4	*group4	*group4	*	*group4	*group3	*group3	*group3	*group3	*	*group2	*group2	*group2	*group2	*group2	*group2	*group2	*group2	*group1	*group1	*group1	*group1
*part15	*part14	*part14	*part13	*part13	*part12	*	*part12	*part11	*part10	*part9	*part8	*part7	*part6	*part6	*part5	*part5	*part4	*part4	*part3	*part3	*part2	*part2	*part1	*part1
*staff15	*staff14	*	*staff13	*	*staff12	*	*	*staff11	*staff10	*staff9	*staff8	*staff7	*staff6	*	*staff5	*	*staff4	*	*staff3	*	*staff2	*	*staff1	*
*I"Organo	*I"Viola	*	*I"Violino 2do	*	*I"Violino 1mo	*	*	*I"Baſso	*I"Tenore	*I"Alto	*I"Canto	*I"Tympano	*I"Clarino 2do	*	*I"Clarino 1mo	*	*I"Corno 2do	*	*I"Corno 1mo	*	*I"Clarinetto 2do	*	*I"Clarinetto 1mo	*
*I'org	*I'vla	*	*I'vl 2	*	*I'vl 1	*	*	*I'B	*I'T	*I'A	*I'S	*I'timp	*I'clar 2	*	*I'clar 1	*	*I'cor 2	*	*I'cor 1	*	*I'cl 2	*	*I'cl 1	*
*Iorgan	*Iviola	*	*Ivioln	*	*Ivioln	*	*	*Ibass	*Itenor	*Ialto	*Isoprn	*Itimpa	*Itromp	*	*Itromp	*	*Icor	*	*Icor	*	*Iclars	*	*Iclars	*
*ICklav	*ICstr	*	*ICstr	*	*ICstr	*	*	*ICvox	*ICvox	*ICvox	*ICvox	*ICidio	*ICbras	*	*ICbras	*	*ICbras	*	*ICbras	*	*ICww	*	*ICww	*
*IGcont	*	*	*	*	*	*	*	*IGcoro	*IGcoro	*IGcoro	*IGcoro	*	*	*	*	*	*	*	*	*	*	*	*	*
*clefF4	*clefC3	*	*clefG2	*	*clefG2	*	*	*clefF4	*clefC4	*clefC3	*clefC1	*clefF4	*clefG2	*	*clefG2	*	*clefG2	*	*clefG2	*	*clefG2	*	*clefG2	*
*	*	*	*	*	*	*	*	*	*	*	*	*	*	*	*	*	*Trd0c0	*	*Trd0c0	*	*	*	*	*
*k[]	*k[]	*	*k[]	*	*k[]	*	*	*k[]	*k[]	*k[]	*k[]	*k[]	*k[]	*	*k[]	*	*k[]	*	*k[]	*	*k[]	*	*k[]	*
*C:	*C:	*	*C:	*	*C:	*	*	*C:	*C:	*C:	*C:	*C:	*C:	*	*C:	*	*C:	*	*C:	*	*C:	*	*C:	*
*M4/4	*M4/4	*	*M4/4	*	*M4/4	*	*	*M4/4	*M4/4	*M4/4	*M4/4	*M4/4	*M4/4	*	*M4/4	*	*M4/4	*	*M4/4	*	*M4/4	*	*M4/4	*
*met(c)	*met(c)	*	*met(c)	*	*met(c)	*	*	*met(c)	*met(c)	*met(c)	*met(c)	*met(c)	*met(c)	*	*met(c)	*	*met(c)	*	*met(c)	*	*met(c)	*	*met(c)	*
=1	=1	=1	=1	=1	=1	=1	=1	=1	=1	=1	=1	=1	=1	=1	=1	=1	=1	=1	=1	=1	=1	=1	=1	=1
!	!	!	!	!	!	!	!	!	!	!	!	!	!	!LO:DY:rj:t=fr	!	!LO:DY:rj:t=fr.	!	!LO:DY:rj:t=fr	!	!LO:DY:rj:t=fr.	!	!LO:DY:rj:t=fr	!LO:TX:a:i:t=Offertorium	!
!	!LO:TX:a:i:t=No 1. Allegro.	!LO:DY:rj:t=fr	!LO:TX:a:i:t=Offertorium.	!LO:DY:rj:t=fr.	!LO:TX:a:i:t=Allegro No 1.	!	!LO:DY:rj	!	!	!	!	!	!LO:TX:a:i:t=Offertoria	!	!LO:TX:a:i:t=Offertoria	!	!LO:TX:a:i:t=Offertorium	!	!LO:TX:a:i:t=Offertorium	!	!LO:TX:a:i:t=No 1. Allegro in C.	!	!LO:TX:a:i:t=No 1. Allegro in C.	!
!LO:TX:t=P:problem:partia na karcie tytułowej, brak głosu w źródle	!LO:TX:a:i:t=Offertoria	!	!LO:TX:a:i:t=Allegro No 1.	!	!LO:TX:a:i:t=Offertorium.	!	!	!LO:TX:t=P:problem:partia na karcie tytułowej, brak głosu w źródle	!LO:TX:t=P:problem:partia na karcie tytułowej, brak głosu w źródle	!LO:TX:t=P:problem:partia na karcie tytułowej, brak głosu w źródle	!LO:TX:t=P:problem:partia na karcie tytułowej, brak głosu w źródle	!LO:TX:t=P:problem:partia na karcie tytułowej, brak głosu w źródle	!LO:TX:a:i:t=No 1. Allegro in C.	!	!LO:TX:a:i:t=No 1. Allegro in C.	!	!LO:TX:a:i:t=No 1. Allegro in C.	!	!LO:TX:a:i:t=No 1. Allegro in C.	!	!LO:TX:a:i:t=Offertorium	!	!	!LO:DY:rj:t=f.
1ryy	4c/ 4C/	f	4e/ 4G/	f	4cc/ 4e/ 4G/	.	f	1ryy	1ryy	1ryy	1ryy	1ryy	4c/	f	4cc\	f	4e/	f	4cc\	f	4cc\	f	4cc\	f
.	4r	.	4r	.	4r	.	.	.	.	.	.	.	4r	.	4r	.	4r	.	4r	.	4r	.	4r	.
.	4G/	.	4f/ 4G/	.	4dd/ 4g/ 4B/	.	.	.	.	.	.	.	4G/	.	4g/	.	4g/	.	4dd\	.	4b\	.	4dd\	.
.	4r	.	4r	.	4r	.	.	.	.	.	.	.	4r	.	4r	.	4r	.	4r	.	4r	.	4r	.
=2	=2	=2	=2	=2	=2	=2	=2	=2	=2	=2	=2	=2	=2	=2	=2	=2	=2	=2	=2	=2	=2	=2	=2	=2
1ryy	4c/	.	4g/ 4G/	.	4ee/ 4cc/ 4g/ 4c/	.	.	1ryy	1ryy	1ryy	1ryy	1ryy	4c/	.	4cc\	.	4cc\	.	4ee\	.	4cc\	.	4ee\	.
.	4r	.	4r	.	4r	.	.	.	.	.	.	.	4r	.	4r	.	4r	.	4r	.	4r	.	4r	.
.	4F/	.	4a/ 4f/	.	4ff/ 4cc/ 4f/	.	.	.	.	.	.	.	4c/	.	4cc\	.	4c/	.	4cc\	.	4cc\	.	4ff\	.
.	4F/	.	4cc/ 4f/	.	4aa/ 4cc/ 4f/	.	.	.	.	.	.	.	4c/	.	4cc\	.	4c/	.	4cc\	.	4ff\	.	4aa\	.
=3	=3	=3	=3	=3	=3	=3	=3	=3	=3	=3	=3	=3	=3	=3	=3	=3	=3	=3	=3	=3	=3	=3	=3	=3
1ryy	4G/	.	4ee/ 4cc/ 4g/	.	4gg/ 4cc/ 4e/	.	.	1ryy	1ryy	1ryy	1ryy	1ryy	4e/	.	4cc\	.	4e/	.	4cc\	.	4ee\	.	4gg\	.
.	4r	.	4r	.	4r	.	.	.	.	.	.	.	4r	.	4r	.	4r	.	4r	.	4r	.	4r	.
.	4G/	.	4f/ 4G/	.	4b/ 4d/ 4G/	.	.	.	.	.	.	.	4g/	.	4g/	.	4g/	.	4dd\	.	4f/	.	4b\	.
.	4r	.	4r	.	4r	.	.	.	.	.	.	.	4r	.	4r	.	4r	.	4r	.	4r	.	4r	.
=4	=4	=4	=4	=4	=4	=4	=4	=4	=4	=4	=4	=4	=4	=4	=4	=4	=4	=4	=4	=4	=4	=4	=4	=4
1ryy	4G/	.	4e/ 4G/	.	4cc/ 4e/ 4G/	.	.	1ryy	1ryy	1ryy	1ryy	1ryy	4e/	.	4cc\	.	4e/	.	4cc\	.	4e/	.	4cc\	.
.	4r	.	4r	.	4r	.	.	.	.	.	.	.	4r	.	4r	.	4r	.	4r	.	4r	.	4r	.
!	!	!	!	!	!	!	!	!	!	!	!	!	!LO:TX:t=P:problem:"latarnie" na kresce taktowej 	!	!	!	!LO:TX:t=P:problem:"latarnie" na kresce taktowej 	!	!	!	!LO:TX:t=P:problem:"Vi" wpisane ołówkiem i "latarnie" na kresce taktowej	!	!LO:TX:t=P:problem:"Vi" wpisane ołówkiem i "latarnie" na kresce taktowej	!
!	!	!	!	!	!	!	!	!	!	!	!	!	!	!	!	!	!	!	!	!	!	!	!LO:TX:t=vi:color=grey	!
.	2r	.	2r	.	2r	.	.	.	.	.	.	.	2r	.	2r	.	2r	.	2r	.	2r	.	2r	.
!	!	!	!	!	!LO:LB:g=original	!	!	!	!	!	!	!	!	!	!	!	!	!	!	!	!	!	!	!
=5	=5	=5	=5	=5	=5	=5	=5	=5	=5	=5	=5	=5	=5	=5	=5	=5	=5	=5	=5	=5	=5	=5	=5	=5
1ryy	4r	.	4r	.	4r	.	.	1ryy	1ryy	1ryy	1ryy	1ryy	4r	.	4r	.	4r	.	4r	.	4r	.	4r	.
.	4c/ 4C/	.	4ff/ 4cc/ 4f/	.	4aa/ 4cc/ 4f/	.	.	.	.	.	.	.	4c/	.	4cc\	.	4c/	.	4cc\	.	4ff\	.	4aa\	.
.	4c/ 4C/	.	4ee/ 4cc/ 4g/	.	4gg/ 4cc/ 4e/	.	.	.	.	.	.	.	4c/	.	4cc\	.	4c/	.	4cc\	.	4ee\	.	4gg\	.
.	4c/ 4C/	.	4ff/ 4cc/ 4f/	.	4aa/ 4cc/ 4f/	.	.	.	.	.	.	.	4c/	.	4cc\	.	4c/	.	4cc\	.	4ff\	.	4aa\	.
=6	=6	=6	=6	=6	=6	=6	=6	=6	=6	=6	=6	=6	=6	=6	=6	=6	=6	=6	=6	=6	=6	=6	=6	=6
1ryy	4c/ 4C/	.	4ee/ 4cc/ 4g/	.	4gg/ 4cc/ 4e/	.	.	1ryy	1ryy	1ryy	1ryy	1ryy	4c/	.	4cc\	.	4c/	.	4cc\	.	4ee\	.	4gg\	.
.	4r	.	4r	.	4r	.	.	.	.	.	.	.	4r	.	4r	.	4r	.	4r	.	4r	.	4r	.
.	2r	.	2r	.	2r	.	.	.	.	.	.	.	2r	.	2r	.	2r	.	2r	.	2r	.	2r	.
!	!LO:LB:g=original	!	!LO:LB:g=original	!	!	!	!	!	!	!	!	!	!	!	!	!	!	!	!LO:LB:g=original	!	!	!	!	!
=7	=7	=7	=7	=7	=7	=7	=7	=7	=7	=7	=7	=7	=7	=7	=7	=7	=7	=7	=7	=7	=7	=7	=7	=7
1ryy	4r	.	4r	.	4r	.	.	1ryy	1ryy	1ryy	1ryy	1ryy	4r	.	4r	.	4r	.	4r	.	4r	.	4r	.
.	4c/ 4C/	.	4ff/ 4cc/ 4f/	.	4aa/ 4cc/ 4f/	.	.	.	.	.	.	.	4c/	.	4cc\	.	4c/	.	4cc\	.	4ff\	.	4aa\	.
.	4c/ 4C/	.	4ee/ 4cc/ 4g/	.	4gg/ 4cc/ 4e/	.	.	.	.	.	.	.	4c/	.	4cc\	.	4c/	.	4cc\	.	4ee\	.	4gg\	.
.	4c/ 4C/	.	4ff/ 4cc/ 4f/	.	4aa/ 4cc/ 4f/	.	.	.	.	.	.	.	4c/	.	4cc\	.	4c/	.	4cc\	.	4ff\	.	4aa\	.
=8	=8	=8	=8	=8	=8	=8	=8	=8	=8	=8	=8	=8	=8	=8	=8	=8	=8	=8	=8	=8	=8	=8	=8	=8
1ryy	4c/ 4C/	.	4ee/ 4cc/ 4g/	.	4gg/ 4cc/ 4e/	.	.	1ryy	1ryy	1ryy	1ryy	1ryy	4c/	.	4cc\	.	4c/	.	4cc\	.	4ee\	.	4gg\	.
*	*	*	*	*	*tremolo	*	*	*	*	*	*	*	*	*	*	*	*	*	*	*	*	*	*	*
.	4r	.	4r	.	16g/LL	.	.	.	.	.	.	.	4r	.	4r	.	4r	.	4r	.	4r	.	4r	.
.	.	.	.	.	16g/	.	.	.	.	.	.	.	.	.	.	.	.	.	.	.	.	.	.	.
.	.	.	.	.	16g/	.	.	.	.	.	.	.	.	.	.	.	.	.	.	.	.	.	.	.
.	.	.	.	.	16g/JJ	.	.	.	.	.	.	.	.	.	.	.	.	.	.	.	.	.	.	.
.	2r	.	2r	.	16ee\LL	.	.	.	.	.	.	.	2r	.	2r	.	2r	.	2r	.	2r	.	2r	.
.	.	.	.	.	16ee\	.	.	.	.	.	.	.	.	.	.	.	.	.	.	.	.	.	.	.
.	.	.	.	.	16ee\	.	.	.	.	.	.	.	.	.	.	.	.	.	.	.	.	.	.	.
.	.	.	.	.	16ee\JJ	.	.	.	.	.	.	.	.	.	.	.	.	.	.	.	.	.	.	.
.	.	.	.	.	16cc\LL	.	.	.	.	.	.	.	.	.	.	.	.	.	.	.	.	.	.	.
.	.	.	.	.	16cc\	.	.	.	.	.	.	.	.	.	.	.	.	.	.	.	.	.	.	.
.	.	.	.	.	16cc\	.	.	.	.	.	.	.	.	.	.	.	.	.	.	.	.	.	.	.
.	.	.	.	.	16cc\JJ	.	.	.	.	.	.	.	.	.	.	.	.	.	.	.	.	.	.	.
!	!	!	!	!	!	!	!	!	!	!	!	!	!LO:LB:g=original	!	!LO:LB:g=original	!	!LO:LB:g=original	!	!	!	!LO:LB:g=original	!	!LO:LB:g=original	!
=9	=9	=9	=9	=9	=9	=9	=9	=9	=9	=9	=9	=9	=9	=9	=9	=9	=9	=9	=9	=9	=9	=9	=9	=9
!	!	!	!	!	!	!	!	!	!	!	!	!	!	!	!	!	!	!	!	!	!	!	!	!
1ryy	4r	.	4r	.	16gg\LL	.	.	1ryy	1ryy	1ryy	1ryy	1ryy	4r	.	4r	.	4r	.	4r	.	4r	.	4r	.
.	.	.	.	.	16gg\	.	.	.	.	.	.	.	.	.	.	.	.	.	.	.	.	.	.	.
.	.	.	.	.	16gg\	.	.	.	.	.	.	.	.	.	.	.	.	.	.	.	.	.	.	.
.	.	.	.	.	16gg\	.	.	.	.	.	.	.	.	.	.	.	.	.	.	.	.	.	.	.
*	*	*	*tremolo	*	*	*	*	*	*	*	*	*	*	*	*	*	*	*	*2\right	*	*2\right	*	*2\right	*
!	!	!	!	!	!	!	!	!	!	!	!	!	!	!	!	!	!	!	!	!	!	!	!	!
.	8G/L	.	16b\LL	.	16gg\	.	.	.	.	.	.	.	8G/L	.	8g/L	.	2g/	.	2dd\	.	2b\	.	2gg\	.
.	.	.	16b\	.	16gg\	.	.	.	.	.	.	.	.	.	.	.	.	.	.	.	.	.	.	.
.	8G/J	.	16b\	.	16gg\	.	.	.	.	.	.	.	8G/J	.	8g/J	.	.	.	.	.	.	.	.	.
.	.	.	16b\JJ	.	16gg\JJ	.	.	.	.	.	.	.	.	.	.	.	.	.	.	.	.	.	.	.
*	*tremolo	*	*	*	*	*	*	*	*	*	*	*	*	*	*	*	*	*	*	*	*	*	*	*
.	8G/L	.	16cc\LL	.	16gg\LL	.	.	.	.	.	.	.	4G/	.	4g/	.	.	.	.	.	.	.	.	.
.	.	.	16cc\	.	16gg\	.	.	.	.	.	.	.	.	.	.	.	.	.	.	.	.	.	.	.
.	8G/	.	16cc\	.	16gg\	.	.	.	.	.	.	.	.	.	.	.	.	.	.	.	.	.	.	.
.	.	.	16cc\JJ	.	16gg\JJ	.	.	.	.	.	.	.	.	.	.	.	.	.	.	.	.	.	.	.
.	8G/	.	16dd\LL	.	16ff\LL	.	.	.	.	.	.	.	4G/	.	4g/	.	4g/	.	4dd\	.	4dd\	.	4ff\	.
.	.	.	16dd\	.	16ff\	.	.	.	.	.	.	.	.	.	.	.	.	.	.	.	.	.	.	.
.	8G/J	.	16dd\	.	16ff\	.	.	.	.	.	.	.	.	.	.	.	.	.	.	.	.	.	.	.
.	.	.	16dd\JJ	.	16ff\JJ	.	.	.	.	.	.	.	.	.	.	.	.	.	.	.	.	.	.	.
*	*Xtremolo	*	*	*	*	*	*	*	*	*	*	*	*	*	*	*	*	*	*	*	*	*	*	*
=10	=10	=10	=10	=10	=10	=10	=10	=10	=10	=10	=10	=10	=10	=10	=10	=10	=10	=10	=10	=10	=10	=10	=10	=10
1ryy	4G/	.	16g/LL	.	16ee\LL	.	.	1ryy	1ryy	1ryy	1ryy	1ryy	4c/	.	4cc\	.	4cc\	.	4ee\	.	4g/	.	4ee\	.
.	.	.	16g/	.	16ee\	.	.	.	.	.	.	.	.	.	.	.	.	.	.	.	.	.	.	.
.	.	.	16g/	.	16ee\	.	.	.	.	.	.	.	.	.	.	.	.	.	.	.	.	.	.	.
.	.	.	16g/JJ	.	16ee\JJ	.	.	.	.	.	.	.	.	.	.	.	.	.	.	.	.	.	.	.
.	8f\L	.	16a/LL	.	16dd\LL	.	.	.	.	.	.	.	4r	.	4r	.	4g/	.	4dd\	.	4f/	.	4dd\	.
.	.	.	16a/	.	16dd\	.	.	.	.	.	.	.	.	.	.	.	.	.	.	.	.	.	.	.
.	8f\J	.	16a/	.	16dd\	.	.	.	.	.	.	.	.	.	.	.	.	.	.	.	.	.	.	.
.	.	.	16a/JJ	.	16dd\JJ	.	.	.	.	.	.	.	.	.	.	.	.	.	.	.	.	.	.	.
.	8e\L	.	16g/LL	.	16cc\LL	.	.	.	.	.	.	.	4r	.	4r	.	4e/	.	4cc\	.	4e/	.	4cc\	.
.	.	.	16g/	.	16cc\	.	.	.	.	.	.	.	.	.	.	.	.	.	.	.	.	.	.	.
.	8e\	.	16g/	.	16cc\	.	.	.	.	.	.	.	.	.	.	.	.	.	.	.	.	.	.	.
.	.	.	16g/JJ	.	16cc\JJ	.	.	.	.	.	.	.	.	.	.	.	.	.	.	.	.	.	.	.
.	8d\	.	16f/LL	.	16b\LL	.	.	.	.	.	.	.	4G/	.	4g/	.	4g/	.	4dd\	.	4d/	.	4b\	.
.	.	.	16f/	.	16b\	.	.	.	.	.	.	.	.	.	.	.	.	.	.	.	.	.	.	.
.	8d\J	.	16f/	.	16b\	.	.	.	.	.	.	.	.	.	.	.	.	.	.	.	.	.	.	.
.	.	.	16f/JJ	.	16b\JJ	.	.	.	.	.	.	.	.	.	.	.	.	.	.	.	.	.	.	.
*	*	*	*Xtremolo	*	*Xtremolo	*	*	*	*	*	*	*	*	*	*	*	*	*	*	*	*	*	*	*
=11	=11	=11	=11	=11	=11	=11	=11	=11	=11	=11	=11	=11	=11	=11	=11	=11	=11	=11	=11	=11	=11	=11	=11	=11
1ryy	4c\	.	4e/	.	4cc\	.	.	1ryy	1ryy	1ryy	1ryy	1ryy	4c/	.	4cc\	.	4e/	.	4cc\	.	4c/	.	4cc\	.
.	8.ccT\L	.	8.cc\L	.	8.ccT\L	.	.	.	.	.	.	.	4cc\	.	4cc\	.	4cc\	.	4cc\	.	4cc\	.	4cc\	.
.	(32b\LL	.	32b\LL	.	(32b\LL	.	.	.	.	.	.	.	.	.	.	.	.	.	.	.	.	.	.	.
.	32cc\JJJ)	.	32cc\JJJ	.	32cc\JJJ)	.	.	.	.	.	.	.	.	.	.	.	.	.	.	.	.	.	.	.
!	!	!	!LO:LB:g=original	!	!	!	!	!	!	!	!	!	!	!	!	!	!	!	!	!	!	!	!	!
.	8.gT\L	.	8.g/L	.	8.gT/L	.	.	.	.	.	.	.	4g/	.	4g/	.	4g/	.	4g/	.	4g/	.	4g/	.
.	(32f#X\LL	.	32f#X/LL	.	(32f#X/LL	.	.	.	.	.	.	.	.	.	.	.	.	.	.	.	.	.	.	.
.	32g\JJJ)	.	32g/JJJ	.	32g/JJJ)	.	.	.	.	.	.	.	.	.	.	.	.	.	.	.	.	.	.	.
.	8.eT\L	.	8.e/L	.	8.eT/L	.	.	.	.	.	.	.	4e/	.	4e/	.	4e/	.	4e/	.	4e/	.	4e/	.
.	(32d\LL	.	32d/LL	.	(32d/LL	.	.	.	.	.	.	.	.	.	.	.	.	.	.	.	.	.	.	.
.	32e\JJJ)	.	32e/JJJ	.	32e/JJJ)	.	.	.	.	.	.	.	.	.	.	.	.	.	.	.	.	.	.	.
!	!	!	!	!	!LO:LB:g=original	!	!	!	!	!	!	!	!	!	!	!	!	!	!	!	!	!	!	!
=12	=12	=12	=12	=12	=12	=12	=12	=12	=12	=12	=12	=12	=12	=12	=12	=12	=12	=12	=12	=12	=12	=12	=12	=12
1ryy	8c\	.	8c/	.	8c/	.	.	1ryy	1ryy	1ryy	1ryy	1ryy	4c/	.	4c/	.	4c/	.	4c/	.	4c/	.	4c/	.
.	4G/	.	4g/	.	4ee\	.	.	.	.	.	.	.	.	.	.	.	.	.	.	.	.	.	.	.
*	*	*	*	*	*	*	*	*	*	*	*	*	*	*	*	*	*2\right	*	*	*	*	*	*	*
!	!	!	!	!	!	!	!	!	!	!	!	!	!	!	!	!	!	!	!	!	!	!	!	!
.	.	.	.	.	.	.	.	.	.	.	.	.	8e/L	.	8cc\L	.	2cc\	.	2ee\	.	2cc\	.	2ee\	.
.	4G/	.	4g/	.	4ee\	.	.	.	.	.	.	.	8e/J	.	8cc\J	.	.	.	.	.	.	.	.	.
.	.	.	.	.	.	.	.	.	.	.	.	.	4e/	.	4cc\	.	.	.	.	.	.	.	.	.
.	4G/	.	4g/	.	4ee\	.	.	.	.	.	.	.	.	.	.	.	.	.	.	.	.	.	.	.
.	.	.	.	.	.	.	.	.	.	.	.	.	4e/	.	4cc\	.	4cc\	.	4ee\	.	4cc\	.	4ee\	.
.	8G/	.	8g/	.	8ee\	.	.	.	.	.	.	.	.	.	.	.	.	.	.	.	.	.	.	.
!	!LO:LB:g=original	!	!	!	!	!	!	!	!	!	!	!	!	!	!	!	!	!	!	!	!	!	!	!
=13	=13	=13	=13	=13	=13	=13	=13	=13	=13	=13	=13	=13	=13	=13	=13	=13	=13	=13	=13	=13	=13	=13	=13	=13
1ryy	8G/	.	8b\	.	8dd\	.	.	1ryy	1ryy	1ryy	1ryy	1ryy	4g/	.	4dd\	.	1g/	.	1dd\	.	1b\	.	1dd\	.
.	4G/	.	4b\	.	4gg\	.	.	.	.	.	.	.	.	.	.	.	.	.	.	.	.	.	.	.
.	.	.	.	.	.	.	.	.	.	.	.	.	8g/L	.	8dd\L	.	.	.	.	.	.	.	.	.
.	4G/	.	4dd\	.	4bb\	.	.	.	.	.	.	.	8g/J	.	8dd\J	.	.	.	.	.	.	.	.	.
.	.	.	.	.	.	.	.	.	.	.	.	.	4g/	.	4dd\	.	.	.	.	.	.	.	.	.
.	4G/	.	4b\	.	4gg\	.	.	.	.	.	.	.	.	.	.	.	.	.	.	.	.	.	.	.
.	.	.	.	.	.	.	.	.	.	.	.	.	4g/	.	4dd\	.	.	.	.	.	.	.	.	.
.	8G/	.	8b\	.	8dd\	.	.	.	.	.	.	.	.	.	.	.	.	.	.	.	.	.	.	.
=14	=14	=14	=14	=14	=14	=14	=14	=14	=14	=14	=14	=14	=14	=14	=14	=14	=14	=14	=14	=14	=14	=14	=14	=14
1ryy	8d\	.	8a/	.	8cc\	.	.	1ryy	1ryy	1ryy	1ryy	1ryy	4dd\	.	4dd\	.	1dd\	.	1dd\	.	1a/	.	1cc\	.
.	4d\	.	4a/	.	4ff#X\	.	.	.	.	.	.	.	.	.	.	.	.	.	.	.	.	.	.	.
.	.	.	.	.	.	.	.	.	.	.	.	.	8dd\L	.	8dd\L	.	.	.	.	.	.	.	.	.
.	4d\	.	4cc\	.	4aa\	.	.	.	.	.	.	.	8dd\J	.	8dd\J	.	.	.	.	.	.	.	.	.
.	.	.	.	.	.	.	.	.	.	.	.	.	4dd\	.	4dd\	.	.	.	.	.	.	.	.	.
.	4d\	.	4a/	.	4ff#\	.	.	.	.	.	.	.	.	.	.	.	.	.	.	.	.	.	.	.
.	.	.	.	.	.	.	.	.	.	.	.	.	4dd\	.	4dd\	.	.	.	.	.	.	.	.	.
.	8d\	.	8a/	.	8cc\	.	.	.	.	.	.	.	.	.	.	.	.	.	.	.	.	.	.	.
!	!	!	!LO:LB:g=original	!	!	!	!	!	!	!	!	!	!	!	!	!	!	!	!	!	!	!	!	!
=15	=15	=15	=15	=15	=15	=15	=15	=15	=15	=15	=15	=15	=15	=15	=15	=15	=15	=15	=15	=15	=15	=15	=15	=15
1ryy	4G/	.	4a/	.	4cc\	.	.	1ryy	1ryy	1ryy	1ryy	1ryy	4dd\	.	4dd\	.	4g/	.	4dd\	.	4a/	.	4cc\	.
.	4G/	.	4g/	.	4b\	.	.	.	.	.	.	.	4g/	.	4dd\	.	4g/	.	4dd\	.	4g/	.	4b\	.
.	2r	.	8G/L	.	8g/L	.	.	.	.	.	.	.	2r	.	2r	.	2r	.	2r	.	2r	.	2r	.
.	.	.	16A/L	.	16a/L	.	.	.	.	.	.	.	.	.	.	.	.	.	.	.	.	.	.	.
.	.	.	16B/JJ	.	16b/JJ	.	.	.	.	.	.	.	.	.	.	.	.	.	.	.	.	.	.	.
.	.	.	16c/LL	.	16cc\LL	.	.	.	.	.	.	.	.	.	.	.	.	.	.	.	.	.	.	.
.	.	.	16d/	.	16dd\	.	.	.	.	.	.	.	.	.	.	.	.	.	.	.	.	.	.	.
.	.	.	16e/	.	16ee\	.	.	.	.	.	.	.	.	.	.	.	.	.	.	.	.	.	.	.
.	.	.	16f#X/JJ	.	16ff#X\JJ	.	.	.	.	.	.	.	.	.	.	.	.	.	.	.	.	.	.	.
=16	=16	=16	=16	=16	=16	=16	=16	=16	=16	=16	=16	=16	=16	=16	=16	=16	=16	=16	=16	=16	=16	=16	=16	=16
*	*tremolo	*	*	*	*tremolo	*	*	*	*	*	*	*	*	*	*	*	*	*	*	*	*	*	*	*
1ryy	8B/L	.	16g/LL	.	16gg\LL	.	.	1ryy	1ryy	1ryy	1ryy	1ryy	4G/	.	4g/	.	4g/	.	4gg\	.	1b\	.	1gg\	.
.	.	.	16d/	.	16gg\	.	.	.	.	.	.	.	.	.	.	.	.	.	.	.	.	.	.	.
.	8B/	.	16d/	.	16gg\	.	.	.	.	.	.	.	.	.	.	.	.	.	.	.	.	.	.	.
.	.	.	16d/JJ	.	16gg\JJ	.	.	.	.	.	.	.	.	.	.	.	.	.	.	.	.	.	.	.
*	*	*	*tremolo	*	*Xtremolo	*	*	*	*	*	*	*	*	*	*	*	*	*	*	*	*	*	*	*
.	8B/	.	16d/LL	.	16gg\LL	.	.	.	.	.	.	.	4r	.	4r	.	4r	.	4r	.	.	.	.	.
.	.	.	16d/	.	16aa\	.	.	.	.	.	.	.	.	.	.	.	.	.	.	.	.	.	.	.
.	8B/J	.	16d/	.	16gg\	.	.	.	.	.	.	.	.	.	.	.	.	.	.	.	.	.	.	.
.	.	.	16d/JJ	.	16ff#X\JJ	.	.	.	.	.	.	.	.	.	.	.	.	.	.	.	.	.	.	.
!	!	!	!	!	!LO:LB:g=original	!	!	!	!	!	!	!	!	!	!	!	!	!	!	!	!	!	!	!
*	*	*	*	*	*tremolo	*	*	*	*	*	*	*	*	*	*	*	*	*	*	*	*	*	*	*
.	8B/L	.	16d/LL	.	16gg\LL	.	.	.	.	.	.	.	2r	.	2r	.	2r	.	2r	.	.	.	.	.
.	.	.	16d/	.	16gg\	.	.	.	.	.	.	.	.	.	.	.	.	.	.	.	.	.	.	.
.	8B/	.	16d/	.	16gg\	.	.	.	.	.	.	.	.	.	.	.	.	.	.	.	.	.	.	.
.	.	.	16d/	.	16gg\	.	.	.	.	.	.	.	.	.	.	.	.	.	.	.	.	.	.	.
.	8B/	.	16d/	.	16gg\	.	.	.	.	.	.	.	.	.	.	.	.	.	.	.	.	.	.	.
.	.	.	16d/	.	16gg\	.	.	.	.	.	.	.	.	.	.	.	.	.	.	.	.	.	.	.
.	8B/J	.	16d/	.	16gg\	.	.	.	.	.	.	.	.	.	.	.	.	.	.	.	.	.	.	.
.	.	.	16d/JJ	.	16gg\JJ	.	.	.	.	.	.	.	.	.	.	.	.	.	.	.	.	.	.	.
!	!	!	!	!	!	!	!	!	!	!	!	!	!	!	!LO:LB:g=original	!	!	!	!	!	!	!	!	!
=17	=17	=17	=17	=17	=17	=17	=17	=17	=17	=17	=17	=17	=17	=17	=17	=17	=17	=17	=17	=17	=17	=17	=17	=17
*	*2\right	*	*	*	*	*	*	*	*	*	*	*	*	*	*	*	*	*	*	*	*	*	*	*
!	!	!	!	!	!	!	!	!	!	!	!	!	!	!	!	!	!	!	!	!	!	!	!	!
1ryy	8c\L	.	16e/LL	.	16gg\LL	.	.	1ryy	1ryy	1ryy	1ryy	1ryy	4G/	.	4g/	.	4g/	.	4gg\	.	1cc\	.	1gg\	.
.	.	.	16e/	.	16gg\	.	.	.	.	.	.	.	.	.	.	.	.	.	.	.	.	.	.	.
.	8c\	.	16e/	.	16gg\	.	.	.	.	.	.	.	.	.	.	.	.	.	.	.	.	.	.	.
.	.	.	16e/	.	16gg\JJ	.	.	.	.	.	.	.	.	.	.	.	.	.	.	.	.	.	.	.
*	*	*	*	*	*Xtremolo	*	*	*	*	*	*	*	*	*	*	*	*	*	*	*	*	*	*	*
.	8c\	.	16e/	.	16gg\LL	.	.	.	.	.	.	.	4r	.	4r	.	4r	.	4r	.	.	.	.	.
.	.	.	16e/	.	16aa\	.	.	.	.	.	.	.	.	.	.	.	.	.	.	.	.	.	.	.
.	8c\J	.	16e/	.	16gg\	.	.	.	.	.	.	.	.	.	.	.	.	.	.	.	.	.	.	.
.	.	.	16e/JJ	.	16ff#X\JJ	.	.	.	.	.	.	.	.	.	.	.	.	.	.	.	.	.	.	.
*	*	*	*	*	*tremolo	*	*	*	*	*	*	*	*	*	*	*	*	*	*	*	*	*	*	*
.	8c\L	.	16e/LL	.	16gg\LL	.	.	.	.	.	.	.	2r	.	2r	.	2r	.	2r	.	.	.	.	.
.	.	.	16e/	.	16gg\	.	.	.	.	.	.	.	.	.	.	.	.	.	.	.	.	.	.	.
.	8c\	.	16e/	.	16gg\	.	.	.	.	.	.	.	.	.	.	.	.	.	.	.	.	.	.	.
.	.	.	16e/	.	16gg\	.	.	.	.	.	.	.	.	.	.	.	.	.	.	.	.	.	.	.
.	8c\	.	16e/	.	16gg\	.	.	.	.	.	.	.	.	.	.	.	.	.	.	.	.	.	.	.
.	.	.	16e/	.	16gg\	.	.	.	.	.	.	.	.	.	.	.	.	.	.	.	.	.	.	.
.	8c\J	.	16e/	.	16gg\	.	.	.	.	.	.	.	.	.	.	.	.	.	.	.	.	.	.	.
.	.	.	16e/JJ	.	16gg\JJ	.	.	.	.	.	.	.	.	.	.	.	.	.	.	.	.	.	.	.
!	!	!	!	!	!	!	!	!	!	!	!	!	!LO:LB:g=original	!	!	!	!	!	!LO:LB:g=original	!	!	!	!	!
=18	=18	=18	=18	=18	=18	=18	=18	=18	=18	=18	=18	=18	=18	=18	=18	=18	=18	=18	=18	=18	=18	=18	=18	=18
1ryy	8c#X\L	.	16e/LL	.	16gg\LL	.	.	1ryy	1ryy	1ryy	1ryy	1ryy	4G/	.	4g/	.	4ee\	.	4gg\	.	1cc#X\	.	1gg\	.
.	.	.	16e/	.	16gg\	.	.	.	.	.	.	.	.	.	.	.	.	.	.	.	.	.	.	.
.	8c#X\	.	16e/	.	16gg\	.	.	.	.	.	.	.	.	.	.	.	.	.	.	.	.	.	.	.
.	.	.	16e/	.	16gg\JJ	.	.	.	.	.	.	.	.	.	.	.	.	.	.	.	.	.	.	.
*	*	*	*	*	*Xtremolo	*	*	*	*	*	*	*	*	*	*	*	*	*	*	*	*	*	*	*
.	8c#X\	.	16e/	.	16gg\LL	.	.	.	.	.	.	.	8g/L	.	8g/L	.	8.ee\L	.	8.gg\L	.	.	.	.	.
.	.	.	16e/	.	16aa\	.	.	.	.	.	.	.	.	.	.	.	.	.	.	.	.	.	.	.
.	8c#X\J	.	16e/	.	16gg\	.	.	.	.	.	.	.	8g/J	.	8g/J	.	.	.	.	.	.	.	.	.
.	.	.	16e/JJ	.	16ff#X\JJ	.	.	.	.	.	.	.	.	.	.	.	16ee\Jk	.	16gg\Jk	.	.	.	.	.
*	*	*	*	*	*tremolo	*below	*	*	*	*	*	*	*	*	*	*	*	*	*	*	*	*	*	*
.	8c#\L	.	16e/LL	.	16gg\LL	.	.	.	.	.	.	.	4g/	.	4g/	.	4ee\	.	4gg\	.	.	.	.	.
.	.	.	16e/	.	16gg\	.	.	.	.	.	.	.	.	.	.	.	.	.	.	.	.	.	.	.
.	8c#\	.	16e/	.	16gg\	.	.	.	.	.	.	.	.	.	.	.	.	.	.	.	.	.	.	.
.	.	.	16e/	.	16gg\	.	.	.	.	.	.	.	.	.	.	.	.	.	.	.	.	.	.	.
.	8c#\	.	16e/	.	16gg\	.	.	.	.	.	.	.	4g/	.	4g/	.	4ee\	.	4gg\	.	.	.	.	.
.	.	.	16e/	.	16gg\	.	.	.	.	.	.	.	.	.	.	.	.	.	.	.	.	.	.	.
.	8c#\J	.	16e/	.	16gg\	.	.	.	.	.	.	.	.	.	.	.	.	.	.	.	.	.	.	.
.	.	.	16e/JJ	.	16gg\JJ	.	.	.	.	.	.	.	.	.	.	.	.	.	.	.	.	.	.	.
*	*Xtremolo	*	*Xtremolo	*	*	*	*	*	*	*	*	*	*	*	*	*	*	*	*	*	*	*	*	*
=19	=19	=19	=19	=19	=19	=19	=19	=19	=19	=19	=19	=19	=19	=19	=19	=19	=19	=19	=19	=19	=19	=19	=19	=19
1ryy	4d\	.	4a/ 4d/	.	8.ff#Xt\L	.	.	1ryy	1ryy	1ryy	1ryy	1ryy	4dd\	.	4dd\	.	4dd\	.	4dd\	.	4dd\	.	4ff#X\	.
.	.	.	.	.	(32ee\LL	.	.	.	.	.	.	.	.	.	.	.	.	.	.	.	.	.	.	.
.	.	.	.	.	32ff#\JJJ)	.	.	.	.	.	.	.	.	.	.	.	.	.	.	.	.	.	.	.
.	4cn\	.	4a/ 4d/	.	4dd\	.	.	.	.	.	.	.	4r	.	4r	.	4r	.	4r	.	4ccn\	.	4dd\	.
.	4B/	.	4b/ 4d/	.	4gg\	.	.	.	.	.	.	.	4r	.	4r	.	4r	.	4r	.	4b\	.	4gg\	.
.	4G/	.	4dd/ 4d/	.	4bb\	2	.	.	.	.	.	.	4g/	.	4g/	.	4g/	.	4dd\	.	4gg\	.	4bb\	.
!	!LO:LB:g=original	!	!LO:LB:g=original	!	!	!	!	!	!	!	!	!	!	!	!	!	!LO:LB:g=original	!	!	!	!	!	!	!
=20	=20	=20	=20	=20	=20	=20	=20	=20	=20	=20	=20	=20	=20	=20	=20	=20	=20	=20	=20	=20	=20	=20	=20	=20
1ryy	4d\	.	4ff#X/ 4a/ 4d/	.	4ddd\	4	.	1ryy	1ryy	1ryy	1ryy	1ryy	4dd\	.	4dd\	.	4dd\	.	4dd\	.	4ff#X\	.	4ddd\	.
.	4c\	.	4a/ 4d/	.	8.ff#Xt\L	.	.	.	.	.	.	.	4r	.	4r	.	4r	.	4r	.	4cc\	.	4ff#X\	.
.	.	.	.	.	(32ee\LL	.	.	.	.	.	.	.	.	.	.	.	.	.	.	.	.	.	.	.
.	.	.	.	.	32ff#\JJJ)	.	.	.	.	.	.	.	.	.	.	.	.	.	.	.	.	.	.	.
!	!	!	!	!	!LO:LB:g=original	!	!	!	!	!	!	!	!	!	!	!	!	!	!	!	!	!	!	!
.	4B/	.	4b/ 4d/	.	4gg\	.	.	.	.	.	.	.	4r	.	4r	.	4r	.	4r	.	4b\	.	4gg\	.
.	4G/	.	4dd/ 4d/	.	4bb\	2	.	.	.	.	.	.	4g/	.	4g/	.	4g/	.	4dd\	.	4gg\	.	4bb\	.
!	!	!	!	!	!	!	!	!	!	!	!	!	!	!	!	!	!	!	!	!	!LO:LB:g=original	!	!	!
=21	=21	=21	=21	=21	=21	=21	=21	=21	=21	=21	=21	=21	=21	=21	=21	=21	=21	=21	=21	=21	=21	=21	=21	=21
!	!LO:TX:a:t=d	!	!	!	!	!	!	!	!	!	!	!	!	!	!	!	!	!	!	!	!	!	!	!
1ryy	4d\	.	4ff#X/ 4a/ 4d/	.	4ddd\	4	.	1ryy	1ryy	1ryy	1ryy	1ryy	4dd\	.	4dd\	.	4dd\	.	4dd\	.	4ff#X\	.	4ddd\	.
.	4r	.	4r	.	4r	.	.	.	.	.	.	.	4r	.	4r	.	4dd'\	>	(4dd'\	>	(4ff#\	.	(4aa\	.
.	2r	.	2r	p	2r	.	.	.	.	.	.	.	2r	.	2r	.	4dd'\	.	4dd'\	.	4gg\	.	4bb\	.
.	.	.	.	.	.	.	.	.	.	.	.	.	.	.	.	.	4dd'\	]]	4dd'\)	]]	4aa\)	.	4ccc\)	.
!	!	!	!	!	!	!	!	!	!	!	!	!	!	!	!	!	!	!	!	!	!	!	!LO:LB:g=original	!
=22	=22	=22	=22	=22	=22	=22	=22	=22	=22	=22	=22	=22	=22	=22	=22	=22	=22	=22	=22	=22	=22	=22	=22	=22
!	!	!LO:DY:rj	!	!	!LO:TX:b:i:t=dolc&colon;	!	!	!	!	!	!	!	!LO:TX:a:t=15.	!	!LO:TX:a:t=15.	!	!	!LO:DY:rj	!	!LO:DY:t=p.	!	!	!	!
1ryy	(8G/L	p	(8B/L	.	2dd\	.	.	1ryy	1ryy	1ryy	1ryy	1ryy	00r	.	00r	.	4g/	p	4dd\	p	4gg\	.	4bb\	.
.	8B/	.	8d/	.	.	.	.	.	.	.	.	.	.	.	.	.	.	.	.	.	.	.	.	.
.	8d/	.	8g/	.	.	.	.	.	.	.	.	.	.	.	.	.	4r	.	4r	.	4r	.	4r	.
.	8B/J)	.	8d/J)	.	.	.	.	.	.	.	.	.	.	.	.	.	.	.	.	.	.	.	.	.
*	*rep	*	*rep	*	*	*	*	*	*	*	*	*	*	*	*	*	*	*	*	*	*	*	*	*
.	(8G/L	.	(8B/L	.	(4gg\	.	.	.	.	.	.	.	.	.	.	.	2r	.	2r	.	2r	.	2r	.
.	8B/	.	8d/	.	.	.	.	.	.	.	.	.	.	.	.	.	.	.	.	.	.	.	.	.
.	8d/	.	8g/	.	4b\)	.	.	.	.	.	.	.	.	.	.	.	.	.	.	.	.	.	.	.
.	8B/J)	.	8d/J)	.	.	.	.	.	.	.	.	.	.	.	.	.	.	.	.	.	.	.	.	.
*	*Xrep	*	*Xrep	*	*	*	*	*	*	*	*	*	*	*	*	*	*	*	*	*	*	*	*	*
=23	=23	=23	=23	=23	=23	=23	=23	=23	=23	=23	=23	=23	=23	=23	=23	=23	=23	=23	=23	=23	=23	=23	=23	=23
*	*rep	*	*	*	*	*	*	*	*	*	*	*	*	*	*	*	*	*	*	*	*	*	*	*
!	!	!	!	!	!	!	!	!	!	!	!	!	!	!	!	!	!LO:TX:a:t=7.	!	!LO:TX:a:t=7.	!	!LO:TX:a:t=7.	!	!LO:TX:a:t=7.	!
1ryy	(8G/L	.	(8B/L	.	2b\	.	.	1ryy	1ryy	1ryy	1ryy	1ryy	.	.	.	.	00r	.	00r	.	00r	.	00r	.
.	8B/	.	8d/	.	.	.	.	.	.	.	.	.	.	.	.	.	.	.	.	.	.	.	.	.
.	8d/	.	8g/	.	.	.	.	.	.	.	.	.	.	.	.	.	.	.	.	.	.	.	.	.
.	8B/J)	.	8d/J)	.	.	.	.	.	.	.	.	.	.	.	.	.	.	.	.	.	.	.	.	.
*	*Xrep	*	*rep	*	*	*	*	*	*	*	*	*	*	*	*	*	*	*	*	*	*	*	*	*
.	(8G/L	.	(8B/L	.	(4dd\	.	.	.	.	.	.	.	.	.	.	.	.	.	.	.	.	.	.	.
.	8B/)	.	8d/	.	.	.	.	.	.	.	.	.	.	.	.	.	.	.	.	.	.	.	.	.
.	(8B/	.	8g/	.	4g\)	.	.	.	.	.	.	.	.	.	.	.	.	.	.	.	.	.	.	.
.	8G/J)	.	8d/J)	.	.	.	.	.	.	.	.	.	.	.	.	.	.	.	.	.	.	.	.	.
*	*	*	*Xrep	*	*	*	*	*	*	*	*	*	*	*	*	*	*	*	*	*	*	*	*	*
=24	=24	=24	=24	=24	=24	=24	=24	=24	=24	=24	=24	=24	=24	=24	=24	=24	=24	=24	=24	=24	=24	=24	=24	=24
!	!	!	!LO:ACC:color=grey	!	!	!	!	!	!	!	!	!	!	!	!	!	!	!	!	!	!	!	!	!
1ryy	4d\	.	(8f#X/L	.	4a\	.	.	1ryy	1ryy	1ryy	1ryy	1ryy	.	.	.	.	.	.	.	.	.	.	.	.
.	.	.	8d/)	.	.	.	.	.	.	.	.	.	.	.	.	.	.	.	.	.	.	.	.	.
.	4d\	.	(8g/	.	4b\	.	.	.	.	.	.	.	.	.	.	.	.	.	.	.	.	.	.	.
.	.	.	8d/J)	.	.	.	.	.	.	.	.	.	.	.	.	.	.	.	.	.	.	.	.	.
.	4d\	.	(8a/L	.	4cc\	.	.	.	.	.	.	.	.	.	.	.	.	.	.	.	.	.	.	.
.	.	.	8d/)	.	.	.	.	.	.	.	.	.	.	.	.	.	.	.	.	.	.	.	.	.
.	4d\	.	(8b/	.	4dd\	.	.	.	.	.	.	.	.	.	.	.	.	.	.	.	.	.	.	.
.	.	.	8d/J)	.	.	.	.	.	.	.	.	.	.	.	.	.	.	.	.	.	.	.	.	.
!	!	!	!LO:LB:g=original	!	!	!	!	!	!	!	!	!	!	!	!	!	!	!	!	!	!	!	!	!
=25	=25	=25	=25	=25	=25	=25	=25	=25	=25	=25	=25	=25	=25	=25	=25	=25	=25	=25	=25	=25	=25	=25	=25	=25
1ryy	2d\	.	(8a/L	.	(2cc\	.	.	1ryy	1ryy	1ryy	1ryy	1ryy	.	.	.	.	.	.	.	.	.	.	.	.
.	.	.	8d/)	.	.	.	.	.	.	.	.	.	.	.	.	.	.	.	.	.	.	.	.	.
.	.	.	(8f#X/	.	.	.	.	.	.	.	.	.	.	.	.	.	.	.	.	.	.	.	.	.
.	.	.	8d/J)	.	.	.	.	.	.	.	.	.	.	.	.	.	.	.	.	.	.	.	.	.
.	4d\	.	(8g/L	.	4b\)	.	.	.	.	.	.	.	.	.	.	.	.	.	.	.	.	.	.	.
.	.	.	8d/)	.	.	.	.	.	.	.	.	.	.	.	.	.	.	.	.	.	.	.	.	.
.	4r	.	(8B/	.	4r	.	.	.	.	.	.	.	.	.	.	.	.	.	.	.	.	.	.	.
.	.	.	8d/J)	.	.	.	.	.	.	.	.	.	.	.	.	.	.	.	.	.	.	.	.	.
=26	=26	=26	=26	=26	=26	=26	=26	=26	=26	=26	=26	=26	=26	=26	=26	=26	=26	=26	=26	=26	=26	=26	=26	=26
1ryy	(8G/L	.	(8c/L	.	2ee\	.	.	1ryy	1ryy	1ryy	1ryy	1ryy	00r	.	00r	.	.	.	.	.	.	.	.	.
.	8c/	.	8e/	.	.	.	.	.	.	.	.	.	.	.	.	.	.	.	.	.	.	.	.	.
.	8e/	.	8g/	.	.	.	.	.	.	.	.	.	.	.	.	.	.	.	.	.	.	.	.	.
.	8c/J)	.	8e/J)	.	.	.	.	.	.	.	.	.	.	.	.	.	.	.	.	.	.	.	.	.
*	*rep	*	*	*	*	*	*	*	*	*	*	*	*	*	*	*	*	*	*	*	*	*	*	*
.	(8G/L	.	(8c/L	.	(4gg\	.	.	.	.	.	.	.	.	.	.	.	.	.	.	.	.	.	.	.
.	8c/	.	8e/	.	.	.	.	.	.	.	.	.	.	.	.	.	.	.	.	.	.	.	.	.
.	8e/	.	8g/	.	4ee\)	.	.	.	.	.	.	.	.	.	.	.	.	.	.	.	.	.	.	.
.	8c/J)	.	8e/J)	.	.	.	.	.	.	.	.	.	.	.	.	.	.	.	.	.	.	.	.	.
*	*Xrep	*	*	*	*	*	*	*	*	*	*	*	*	*	*	*	*	*	*	*	*	*	*	*
!	!LO:LB:g=original	!	!	!	!LO:LB:g=original	!	!	!	!	!	!	!	!	!	!	!	!	!	!	!	!	!	!	!
=27	=27	=27	=27	=27	=27	=27	=27	=27	=27	=27	=27	=27	=27	=27	=27	=27	=27	=27	=27	=27	=27	=27	=27	=27
1ryy	(8G/L	.	8B/L	.	2dd\	.	.	1ryy	1ryy	1ryy	1ryy	1ryy	.	.	.	.	0r	.	0r	.	0r	.	0r	.
.	8B/	.	(8d/	.	.	.	.	.	.	.	.	.	.	.	.	.	.	.	.	.	.	.	.	.
.	8d/	.	8g/	.	.	.	.	.	.	.	.	.	.	.	.	.	.	.	.	.	.	.	.	.
.	8B/J)	.	8d/J)	.	.	.	.	.	.	.	.	.	.	.	.	.	.	.	.	.	.	.	.	.
*	*rep	*	*	*	*	*	*	*	*	*	*	*	*	*	*	*	*	*	*	*	*	*	*	*
.	(8G/L	.	(8B/L	.	(4gg\	.	.	.	.	.	.	.	.	.	.	.	.	.	.	.	.	.	.	.
.	8B/	.	8d/)	.	.	.	.	.	.	.	.	.	.	.	.	.	.	.	.	.	.	.	.	.
.	8d/	.	8g'/	.	4dd\)	.	.	.	.	.	.	.	.	.	.	.	.	.	.	.	.	.	.	.
.	8B/J)	.	8b'/J	.	.	.	.	.	.	.	.	.	.	.	.	.	.	.	.	.	.	.	.	.
*	*Xrep	*	*	*	*	*	*	*	*	*	*	*	*	*	*	*	*	*	*	*	*	*	*	*
=28	=28	=28	=28	=28	=28	=28	=28	=28	=28	=28	=28	=28	=28	=28	=28	=28	=28	=28	=28	=28	=28	=28	=28	=28
1ryy	4d\	.	(8b/L	.	(4dd\	.	.	1ryy	1ryy	1ryy	1ryy	1ryy	.	.	.	.	.	.	.	.	.	.	.	.
.	.	.	8d/)	.	.	.	.	.	.	.	.	.	.	.	.	.	.	.	.	.	.	.	.	.
.	4d\	.	(8a/	.	4cc\)	.	.	.	.	.	.	.	.	.	.	.	.	.	.	.	.	.	.	.
.	.	.	8d/J)	.	.	.	.	.	.	.	.	.	.	.	.	.	.	.	.	.	.	.	.	.
.	4d\	.	(8a/L	.	(4cc\	.	.	.	.	.	.	.	.	.	.	.	.	.	.	.	.	.	.	.
.	.	.	8d/)	.	.	.	.	.	.	.	.	.	.	.	.	.	.	.	.	.	.	.	.	.
.	4d\	.	(8g/	.	4b\)	.	.	.	.	.	.	.	.	.	.	.	.	.	.	.	.	.	.	.
.	.	.	8d/J)	.	.	.	.	.	.	.	.	.	.	.	.	.	.	.	.	.	.	.	.	.
=29	=29	=29	=29	=29	=29	=29	=29	=29	=29	=29	=29	=29	=29	=29	=29	=29	=29	=29	=29	=29	=29	=29	=29	=29
1ryy	4d\	.	4f#X/	.	8a'\L	.	.	1ryy	1ryy	1ryy	1ryy	1ryy	.	.	.	.	1r	.	1r	.	1r	.	1r	.
.	.	.	.	.	8dd'\	.	.	.	.	.	.	.	.	.	.	.	.	.	.	.	.	.	.	.
.	4r	.	4r	.	(8cc#X\	.	.	.	.	.	.	.	.	.	.	.	.	.	.	.	.	.	.	.
.	.	.	.	.	8dd\J)	.	.	.	.	.	.	.	.	.	.	.	.	.	.	.	.	.	.	.
.	2r	.	2r	.	(8cc#\L	.	.	.	.	.	.	.	.	.	.	.	.	.	.	.	.	.	.	.
.	.	.	.	.	8dd\)	.	.	.	.	.	.	.	.	.	.	.	.	.	.	.	.	.	.	.
.	.	.	.	.	8qff#X/	.	.	.	.	.	.	.	.	.	.	.	.	.	.	.	.	.	.	.
.	.	.	.	.	8ee'\	.	.	.	.	.	.	.	.	.	.	.	.	.	.	.	.	.	.	.
.	.	.	.	.	8dd'\J	.	.	.	.	.	.	.	.	.	.	.	.	.	.	.	.	.	.	.
!	!	!	!LO:LB:g=original	!	!	!	!	!	!	!	!	!	!	!	!	!	!	!	!	!	!	!	!	!
=30	=30	=30	=30	=30	=30	=30	=30	=30	=30	=30	=30	=30	=30	=30	=30	=30	=30	=30	=30	=30	=30	=30	=30	=30
!	!	!	!	!	!	!	!	!	!	!	!	!	!	!	!	!	!	!LO:DY:t=p.	!	!	!	!	!	!
1ryy	(8G/L	.	(8B/L	.	2dd\	.	.	1ryy	1ryy	1ryy	1ryy	1ryy	00r	.	00r	.	4r	p	4r	p	4r	p	4r	p
.	8B/	.	8d/	.	.	.	.	.	.	.	.	.	.	.	.	.	.	.	.	.	.	.	.	.
.	8d/	.	8g/	.	.	.	.	.	.	.	.	.	.	.	.	.	4g/	.	4dd\	.	4g/	.	4b\	.
.	8B/J)	.	8d/J)	.	.	.	.	.	.	.	.	.	.	.	.	.	.	.	.	.	.	.	.	.
*	*rep	*	*rep	*	*	*	*	*	*	*	*	*	*	*	*	*	*	*	*	*	*	*	*	*
.	(8G/L	.	(8B/L	.	(4gg\	.	.	.	.	.	.	.	.	.	.	.	4g/	.	4dd\	.	4g/	.	4b\	.
.	8B/	.	8d/	.	.	.	.	.	.	.	.	.	.	.	.	.	.	.	.	.	.	.	.	.
.	8d/	.	8g/	.	4b\)	.	.	.	.	.	.	.	.	.	.	.	4g/	.	4dd\	.	4g/	.	4b\	.
.	8B/J)	.	8d/J)	.	.	.	.	.	.	.	.	.	.	.	.	.	.	.	.	.	.	.	.	.
*	*Xrep	*	*Xrep	*	*	*	*	*	*	*	*	*	*	*	*	*	*	*	*	*	*	*	*	*
=31	=31	=31	=31	=31	=31	=31	=31	=31	=31	=31	=31	=31	=31	=31	=31	=31	=31	=31	=31	=31	=31	=31	=31	=31
*	*rep	*	*	*	*	*	*	*	*	*	*	*	*	*	*	*	*	*	*	*	*	*	*	*
1ryy	(8G/L	.	(8B/L	.	2b\	.	.	1ryy	1ryy	1ryy	1ryy	1ryy	.	.	.	.	4r	.	4r	.	4r	.	4r	.
.	8B/	.	8d/	.	.	.	.	.	.	.	.	.	.	.	.	.	.	.	.	.	.	.	.	.
.	8d/	.	8g/	.	.	.	.	.	.	.	.	.	.	.	.	.	4g/	.	4dd\	.	4g/	.	4b\	.
.	8B/J)	.	8d/J)	.	.	.	.	.	.	.	.	.	.	.	.	.	.	.	.	.	.	.	.	.
*	*Xrep	*	*	*	*	*	*	*	*	*	*	*	*	*	*	*	*	*	*	*	*	*	*	*
.	8G/L	.	(8B/L	.	(4dd\	.	.	.	.	.	.	.	.	.	.	.	4g/	.	4dd\	.	4g/	.	4b\	.
.	8B/	.	8d/	.	.	.	.	.	.	.	.	.	.	.	.	.	.	.	.	.	.	.	.	.
.	8B/	.	8g/	.	4g\)	.	.	.	.	.	.	.	.	.	.	.	4g/	.	4dd\	.	4g/	.	4b\	.
.	8G/J	.	8d/J)	.	.	.	.	.	.	.	.	.	.	.	.	.	.	.	.	.	.	.	.	.
!	!	!	!	!	!LO:LB:g=original	!	!	!	!	!	!	!	!	!	!	!	!	!	!	!	!	!	!	!
=32	=32	=32	=32	=32	=32	=32	=32	=32	=32	=32	=32	=32	=32	=32	=32	=32	=32	=32	=32	=32	=32	=32	=32	=32
1ryy	4d\	.	(8f#X/L	.	4a/	.	.	1ryy	1ryy	1ryy	1ryy	1ryy	.	.	.	.	4r	.	4r	.	4f#X/	.	4a\	.
.	.	.	8d/)	.	.	.	.	.	.	.	.	.	.	.	.	.	.	.	.	.	.	.	.	.
.	4d\	.	(8g/	.	4b\	.	.	.	.	.	.	.	.	.	.	.	4dd\	.	4dd\	.	4g/	.	4b\	.
.	.	.	8d/J)	.	.	.	.	.	.	.	.	.	.	.	.	.	.	.	.	.	.	.	.	.
.	4d\	.	(8a/L	.	4cc\	.	.	.	.	.	.	.	.	.	.	.	4dd\	.	4dd\	.	4a/	.	4cc\	.
.	.	.	8d/)	.	.	.	.	.	.	.	.	.	.	.	.	.	.	.	.	.	.	.	.	.
.	4d\	.	(8b/	.	4dd\	.	.	.	.	.	.	.	.	.	.	.	4dd\	.	4dd\	.	4b/	.	4dd\	.
.	.	.	8d/J)	.	.	.	.	.	.	.	.	.	.	.	.	.	.	.	.	.	.	.	.	.
!	!	!	!	!	!	!	!	!	!	!	!	!	!	!	!	!	!	!	!LO:LB:g=original	!	!	!	!	!
=33	=33	=33	=33	=33	=33	=33	=33	=33	=33	=33	=33	=33	=33	=33	=33	=33	=33	=33	=33	=33	=33	=33	=33	=33
1ryy	2d\	.	(8a/L	.	2cc\	.	.	1ryy	1ryy	1ryy	1ryy	1ryy	.	.	.	.	4r	.	4r	.	2a/	.	2cc\	.
.	.	.	8d/)	.	.	.	.	.	.	.	.	.	.	.	.	.	.	.	.	.	.	.	.	.
.	.	.	(8f#X/	.	.	.	.	.	.	.	.	.	.	.	.	.	4dd\	.	4dd\	.	.	.	.	.
.	.	.	8d/J)	.	.	.	.	.	.	.	.	.	.	.	.	.	.	.	.	.	.	.	.	.
.	4d\	.	4g/	.	8b'\L	.	.	.	.	.	.	.	.	.	.	.	4g/	.	4dd\	.	4g/	.	4b\	.
.	.	.	.	.	8cc'\	.	.	.	.	.	.	.	.	.	.	.	.	.	.	.	.	.	.	.
.	4r	.	4r	.	(8dd\	.	.	.	.	.	.	.	.	.	.	.	4r	.	4r	.	4r	.	4r	.
.	.	.	.	.	8dd#X\J)	.	.	.	.	.	.	.	.	.	.	.	.	.	.	.	.	.	.	.
!	!LO:LB:g=original	!	!	!	!	!	!	!	!	!	!	!	!	!	!	!	!	!	!	!	!	!	!	!
=34	=34	=34	=34	=34	=34	=34	=34	=34	=34	=34	=34	=34	=34	=34	=34	=34	=34	=34	=34	=34	=34	=34	=34	=34
1ryy	(8G/L	.	(8c/L	.	2ee\	.	.	1ryy	1ryy	1ryy	1ryy	1ryy	0r	.	0r	.	4r	.	4r	.	4r	.	4r	.
.	8c/	.	8e/	.	.	.	.	.	.	.	.	.	.	.	.	.	.	.	.	.	.	.	.	.
.	8e/	.	8g/	.	.	.	.	.	.	.	.	.	.	.	.	.	4cc\	.	4ee\	.	4cc\	.	4ee\	.
.	8c/J)	.	8e/J)	.	.	.	.	.	.	.	.	.	.	.	.	.	.	.	.	.	.	.	.	.
*	*rep	*	*	*	*	*	*	*	*	*	*	*	*	*	*	*	*	*	*	*	*	*	*	*
!	!	!	!LO:LB:g=original	!	!	!	!	!	!	!	!	!	!	!	!	!	!	!	!	!	!	!	!	!
.	(8G/L	.	(8c/L	.	(4gg\	.	.	.	.	.	.	.	.	.	.	.	4cc\	.	4ee\	.	4cc\	.	4ee\	.
.	8c/	.	8e/	.	.	.	.	.	.	.	.	.	.	.	.	.	.	.	.	.	.	.	.	.
.	8e/	.	8g/	.	4ee\)	.	.	.	.	.	.	.	.	.	.	.	4cc\	.	4ee\	.	4cc\	.	4ee\	.
.	8c/J)	.	8c/J)	.	.	.	.	.	.	.	.	.	.	.	.	.	.	.	.	.	.	.	.	.
*	*Xrep	*	*	*	*	*	*	*	*	*	*	*	*	*	*	*	*	*	*	*	*	*	*	*
=35	=35	=35	=35	=35	=35	=35	=35	=35	=35	=35	=35	=35	=35	=35	=35	=35	=35	=35	=35	=35	=35	=35	=35	=35
1ryy	(8G/L	.	(8B/L	.	8dd'\L	.	.	1ryy	1ryy	1ryy	1ryy	1ryy	.	.	.	.	4g/	.	4dd\	.	4b\	.	4dd\	.
.	8B/)	.	8d/	.	8bb'\	.	.	.	.	.	.	.	.	.	.	.	.	.	.	.	.	.	.	.
.	8d'/	.	8g/	.	(8ff#X\	.	.	.	.	.	.	.	.	.	.	.	4r	.	4r	.	4r	.	4r	.
.	8B'/J	.	8d/J)	.	8gg\J)	.	.	.	.	.	.	.	.	.	.	.	.	.	.	.	.	.	.	.
.	4c/	.	(8c/L	.	(8dd#X\L	.	.	.	.	.	.	.	.	.	.	.	4cc\	.	4ee\	.	4cc\	.	4ee\	.
.	.	.	8e/	.	8ee\)	.	.	.	.	.	.	.	.	.	.	.	.	.	.	.	.	.	.	.
.	4c/	.	8a/	.	8cc'\	.	.	.	.	.	.	.	.	.	.	.	4r	.	4r	.	4r	.	4r	.
.	.	.	8c/J)	.	8a'\J	.	.	.	.	.	.	.	.	.	.	.	.	.	.	.	.	.	.	.
!	!	!	!	!	!	!	!	!	!	!	!	!	!	!	!	!	!LO:LB:g=original	!	!	!	!	!	!	!
=36	=36	=36	=36	=36	=36	=36	=36	=36	=36	=36	=36	=36	=36	=36	=36	=36	=36	=36	=36	=36	=36	=36	=36	=36
1ryy	4d\	.	(8B/L	.	(8cc#X\L	.	.	1ryy	1ryy	1ryy	1ryy	1ryy	1r	.	1r	.	4g/	.	4dd\	.	4b\	.	4gg\	.
.	.	.	8d/	.	8dd\)	.	.	.	.	.	.	.	.	.	.	.	.	.	.	.	.	.	.	.
.	4d\	.	8g/	.	8b'\	.	.	.	.	.	.	.	.	.	.	.	4r	.	4r	.	4r	.	4r	.
.	.	.	8d/J)	.	8g\J	.	.	.	.	.	.	.	.	.	.	.	.	.	.	.	.	.	.	.
!	!	!	!	!	!LO:LB:g=original	!	!	!	!	!	!	!	!	!	!	!	!	!	!	!	!	!	!	!
.	4c\	.	(8A/L	.	(8b\L	.	.	.	.	.	.	.	.	.	.	.	4dd\	.	4dd\	.	4a/	.	4ff#X\	.
!	!	!	!	!	!LO:SIC:v:s=8ccn	!	!	!	!	!	!	!	!	!	!	!	!	!	!	!	!	!	!	!
.	.	.	8d/	.	8cc#\)	.	.	.	.	.	.	.	.	.	.	.	.	.	.	.	.	.	.	.
.	4c\	.	8f#X/	.	8a'\	.	.	.	.	.	.	.	.	.	.	.	4r	.	4r	.	4r	.	4r	.
.	.	.	8d/J)	.	8f#X\J	.	.	.	.	.	.	.	.	.	.	.	.	.	.	.	.	.	.	.
!	!	!	!	!	!	!	!	!	!	!	!	!	!	!	!	!	!	!	!	!	!LO:LB:g=original	!	!	!
=37	=37	=37	=37	=37	=37	=37	=37	=37	=37	=37	=37	=37	=37	=37	=37	=37	=37	=37	=37	=37	=37	=37	=37	=37
!	!	!	!	!	!LO:TX:t=P:problem:mixed beam	!	!LO:DY:rj	!	!	!	!	!	!	!LO:DY:rj:t=fr.	!	!LO:DY:rj:t=fr	!	!LO:DY:rj:t=fr	!	!LO:DY:rj:t=fr.	!	!	!	!
1ryy	4B/	.	4d/ 4B/	.	16g/LL	.	f	1ryy	1ryy	1ryy	1ryy	1ryy	4G/	f	4g/	f	4g/	f	4gg\	f	4b\	.	4gg\	.
.	.	.	.	.	16gg\	.	.	.	.	.	.	.	.	.	.	.	.	.	.	.	.	.	.	.
.	.	.	.	.	16gg\	.	.	.	.	.	.	.	.	.	.	.	.	.	.	.	.	.	.	.
.	.	.	.	.	16gg\JJ	.	.	.	.	.	.	.	.	.	.	.	.	.	.	.	.	.	.	.
*	*	*	*	*	*tremolo	*	*	*	*	*	*	*	*	*	*	*	*	*	*	*	*	*	*	*
.	4r	.	4r	.	16gg\LL	.	.	.	.	.	.	.	8.G/L	.	8.g/L	.	8.g/L	.	8.gg\L	.	4r	.	4r	.
.	.	.	.	.	16gg\	.	.	.	.	.	.	.	.	.	.	.	.	.	.	.	.	.	.	.
.	.	.	.	.	16gg\	.	.	.	.	.	.	.	.	.	.	.	.	.	.	.	.	.	.	.
.	.	.	.	.	16gg\JJ	.	.	.	.	.	.	.	16G/Jk	.	16g/Jk	.	16g/Jk	.	16gg\Jk	.	.	.	.	.
!	!	!	!	!LO:DY:t=fr	!	!	!	!	!	!	!	!	!	!	!	!	!	!	!	!	!	!LO:DY:t=fr.	!	!LO:DY:t=fr
.	4r	.	4r	f	16gg\LL	.	.	.	.	.	.	.	2G/	.	2g/	.	2g/	.	2gg\	.	4r	f	4r	f
.	.	.	.	.	16gg\	.	.	.	.	.	.	.	.	.	.	.	.	.	.	.	.	.	.	.
.	.	.	.	.	16gg\	.	.	.	.	.	.	.	.	.	.	.	.	.	.	.	.	.	.	.
.	.	.	.	.	16gg\	.	.	.	.	.	.	.	.	.	.	.	.	.	.	.	.	.	.	.
*	*	*	*tremolo	*	*	*	*	*	*	*	*	*	*	*	*	*	*	*	*	*	*	*	*	*
!	!	!LO:DY:rj:t=fr	!	!	!	!	!	!	!	!	!	!	!	!	!	!	!	!	!	!	!	!	!	!
.	4g/ 4G/	f	16ee\LL	.	16gg\	.	.	.	.	.	.	.	.	.	.	.	.	.	.	.	4cc\	.	4ee\	.
.	.	.	16ee\	.	16gg\	.	.	.	.	.	.	.	.	.	.	.	.	.	.	.	.	.	.	.
.	.	.	16ee\	.	16gg\	.	.	.	.	.	.	.	.	.	.	.	.	.	.	.	.	.	.	.
.	.	.	16ee\JJ	.	16gg\JJ	.	.	.	.	.	.	.	.	.	.	.	.	.	.	.	.	.	.	.
=38	=38	=38	=38	=38	=38	=38	=38	=38	=38	=38	=38	=38	=38	=38	=38	=38	=38	=38	=38	=38	=38	=38	=38	=38
1ryy	4g/ 4G/	.	16dd\LL	.	16gg\LL	.	.	1ryy	1ryy	1ryy	1ryy	1ryy	4G/	.	4g/	.	4g/	.	4gg\	.	4b\	.	4dd\	.
.	.	.	16dd\	.	16gg\	.	.	.	.	.	.	.	.	.	.	.	.	.	.	.	.	.	.	.
.	.	.	16dd\	.	16gg\	.	.	.	.	.	.	.	.	.	.	.	.	.	.	.	.	.	.	.
.	.	.	16dd\JJ	.	16gg\	.	.	.	.	.	.	.	.	.	.	.	.	.	.	.	.	.	.	.
.	4g/ 4G/	.	16ee\LL	.	16gg\	.	.	.	.	.	.	.	4G/	.	4g/	.	4g/	.	4gg\	.	4cc\	.	4ee\	.
.	.	.	16ee\	.	16gg\	.	.	.	.	.	.	.	.	.	.	.	.	.	.	.	.	.	.	.
.	.	.	16ee\	.	16gg\	.	.	.	.	.	.	.	.	.	.	.	.	.	.	.	.	.	.	.
.	.	.	16ee\JJ	.	16gg\JJ	.	.	.	.	.	.	.	.	.	.	.	.	.	.	.	.	.	.	.
.	4g/ 4G/	.	16dd\LL	.	16gg\LL	.	.	.	.	.	.	.	4G/	.	4g/	.	4g/	.	4gg\	.	4b\	.	4dd\	.
.	.	.	16dd\	.	16gg\	.	.	.	.	.	.	.	.	.	.	.	.	.	.	.	.	.	.	.
.	.	.	16dd\	.	16gg\	.	.	.	.	.	.	.	.	.	.	.	.	.	.	.	.	.	.	.
.	.	.	16dd\JJ	.	16gg\	.	.	.	.	.	.	.	.	.	.	.	.	.	.	.	.	.	.	.
.	4g/ 4G/	.	16cc\LL	.	16gg\	.	.	.	.	.	.	.	4G/	.	4g/	.	4g/	.	4gg\	.	4a/	.	4cc\	.
.	.	.	16cc\	.	16gg\	.	.	.	.	.	.	.	.	.	.	.	.	.	.	.	.	.	.	.
.	.	.	16cc\	.	16gg\	.	.	.	.	.	.	.	.	.	.	.	.	.	.	.	.	.	.	.
.	.	.	16cc\JJ	.	16gg\JJ	.	.	.	.	.	.	.	.	.	.	.	.	.	.	.	.	.	.	.
!	!	!	!LO:LB:g=original	!	!	!	!	!	!	!	!	!	!	!	!	!	!	!	!	!	!	!	!LO:LB:g=original	!
=39	=39	=39	=39	=39	=39	=39	=39	=39	=39	=39	=39	=39	=39	=39	=39	=39	=39	=39	=39	=39	=39	=39	=39	=39
1ryy	4g/ 4G/	.	4b\	.	16gg\LL	.	.	1ryy	1ryy	1ryy	1ryy	1ryy	4G/	.	4g/	.	4g/	.	4gg\	.	4g/	.	4b\	.
.	.	.	.	.	16gg\	.	.	.	.	.	.	.	.	.	.	.	.	.	.	.	.	.	.	.
.	.	.	.	.	16gg\	.	.	.	.	.	.	.	.	.	.	.	.	.	.	.	.	.	.	.
.	.	.	.	.	16gg\	.	.	.	.	.	.	.	.	.	.	.	.	.	.	.	.	.	.	.
.	4r	.	4r	.	16gg\	.	.	.	.	.	.	.	8.G/L	.	8.g/L	.	8.g/L	.	8.gg\L	.	4r	.	4r	.
.	.	.	.	.	16gg\	.	.	.	.	.	.	.	.	.	.	.	.	.	.	.	.	.	.	.
.	.	.	.	.	16gg\	.	.	.	.	.	.	.	.	.	.	.	.	.	.	.	.	.	.	.
.	.	.	.	.	16gg\JJ	.	.	.	.	.	.	.	16G/Jk	.	16g/Jk	.	16g/Jk	.	16gg\Jk	.	.	.	.	.
.	4r	.	4r	.	16gg\LL	.	.	.	.	.	.	.	2G/	.	2g/	.	4g/	.	4gg\	.	4r	.	4r	.
.	.	.	.	.	16gg\	.	.	.	.	.	.	.	.	.	.	.	.	.	.	.	.	.	.	.
.	.	.	.	.	16gg\	.	.	.	.	.	.	.	.	.	.	.	.	.	.	.	.	.	.	.
.	.	.	.	.	16gg\	.	.	.	.	.	.	.	.	.	.	.	.	.	.	.	.	.	.	.
.	4g/ 4G/	.	16ee\LL	.	16gg\	.	.	.	.	.	.	.	.	.	.	.	4g/	.	4gg\	.	4cc\	.	4ee\	.
.	.	.	16ee\	.	16gg\	.	.	.	.	.	.	.	.	.	.	.	.	.	.	.	.	.	.	.
.	.	.	16ee\	.	16gg\	.	.	.	.	.	.	.	.	.	.	.	.	.	.	.	.	.	.	.
.	.	.	16ee\JJ	.	16gg\JJ	.	.	.	.	.	.	.	.	.	.	.	.	.	.	.	.	.	.	.
!	!	!	!	!	!	!	!	!	!	!	!	!	!LO:LB:g=original	!	!LO:LB:g=original	!	!	!	!	!	!	!	!	!
=40	=40	=40	=40	=40	=40	=40	=40	=40	=40	=40	=40	=40	=40	=40	=40	=40	=40	=40	=40	=40	=40	=40	=40	=40
1ryy	4g/ 4G/	.	16dd\LL	.	16gg\LL	.	.	1ryy	1ryy	1ryy	1ryy	1ryy	4G/	.	4g/	.	4g/	.	4gg\	.	4b\	.	4dd\	.
.	.	.	16dd\	.	16gg\	.	.	.	.	.	.	.	.	.	.	.	.	.	.	.	.	.	.	.
.	.	.	16dd\	.	16gg\	.	.	.	.	.	.	.	.	.	.	.	.	.	.	.	.	.	.	.
.	.	.	16dd\JJ	.	16gg\	.	.	.	.	.	.	.	.	.	.	.	.	.	.	.	.	.	.	.
.	4g/ 4G/	.	16ee\LL	.	16gg\	.	.	.	.	.	.	.	4G/	.	4g/	.	4g/	.	4gg\	.	4cc\	.	4ee\	.
.	.	.	16ee\	.	16gg\	.	.	.	.	.	.	.	.	.	.	.	.	.	.	.	.	.	.	.
.	.	.	16ee\	.	16gg\	.	.	.	.	.	.	.	.	.	.	.	.	.	.	.	.	.	.	.
.	.	.	16ee\JJ	.	16gg\JJ	.	.	.	.	.	.	.	.	.	.	.	.	.	.	.	.	.	.	.
.	4g/ 4G/	.	16dd\LL	.	16gg\LL	.	.	.	.	.	.	.	4G/	.	4g/	.	4g/	.	4gg\	.	4b\	.	4dd\	.
.	.	.	16dd\	.	16gg\	.	.	.	.	.	.	.	.	.	.	.	.	.	.	.	.	.	.	.
.	.	.	16dd\	.	16gg\	.	.	.	.	.	.	.	.	.	.	.	.	.	.	.	.	.	.	.
.	.	.	16dd\JJ	.	16gg\	.	.	.	.	.	.	.	.	.	.	.	.	.	.	.	.	.	.	.
.	4g/ 4G/	.	16cc\LL	.	16gg\	.	.	.	.	.	.	.	4G/	.	4g/	.	4g/	.	4gg\	.	4a/	.	4cc\	.
.	.	.	16cc\	.	16gg\	.	.	.	.	.	.	.	.	.	.	.	.	.	.	.	.	.	.	.
.	.	.	16cc\	.	16gg\	.	.	.	.	.	.	.	.	.	.	.	.	.	.	.	.	.	.	.
.	.	.	16cc\JJ	.	16gg\JJ	.	.	.	.	.	.	.	.	.	.	.	.	.	.	.	.	.	.	.
*	*	*	*Xtremolo	*	*	*	*	*	*	*	*	*	*	*	*	*	*	*	*	*	*	*	*	*
!	!LO:LB:g=original	!	!	!	!	!	!	!	!	!	!	!	!	!	!	!	!	!	!	!	!	!	!	!
=41	=41	=41	=41	=41	=41	=41	=41	=41	=41	=41	=41	=41	=41	=41	=41	=41	=41	=41	=41	=41	=41	=41	=41	=41
1ryy	4g\ 4G\	.	16b/LL	.	16gg\LL	.	.	1ryy	1ryy	1ryy	1ryy	1ryy	4G/	.	4g/	.	4g/	.	4gg\	.	4g/	.	4b\	.
.	.	.	16g/	.	16gg\	.	.	.	.	.	.	.	.	.	.	.	.	.	.	.	.	.	.	.
.	.	.	16g/	.	16gg\	.	.	.	.	.	.	.	.	.	.	.	.	.	.	.	.	.	.	.
.	.	.	16g/JJ	.	16gg\	.	.	.	.	.	.	.	.	.	.	.	.	.	.	.	.	.	.	.
*	*	*	*tremolo	*	*	*	*	*	*	*	*	*	*	*	*	*	*	*	*	*	*	*	*	*
.	8g\L	.	16g/LL	.	16gg\	.	.	.	.	.	.	.	8G/L	.	8g/L	.	2g/	.	2gg\	.	2g/	.	2gg\	.
.	.	.	16g/	.	16gg\	.	.	.	.	.	.	.	.	.	.	.	.	.	.	.	.	.	.	.
.	8g\J	.	16g/	.	16gg\	.	.	.	.	.	.	.	8G/J	.	8g/J	.	.	.	.	.	.	.	.	.
.	.	.	16g/JJ	.	16gg\JJ	.	.	.	.	.	.	.	.	.	.	.	.	.	.	.	.	.	.	.
*	*tremolo	*	*	*	*	*	*	*	*	*	*	*	*	*	*	*	*	*	*	*	*	*	*	*
.	8g\L	.	16g/LL	.	16gg\LL	.	.	.	.	.	.	.	4G/	.	4g/	.	.	.	.	.	.	.	.	.
.	.	.	16g/	.	16gg\	.	.	.	.	.	.	.	.	.	.	.	.	.	.	.	.	.	.	.
.	8g\	.	16g/	.	16gg\	.	.	.	.	.	.	.	.	.	.	.	.	.	.	.	.	.	.	.
.	.	.	16g/	.	16gg\	.	.	.	.	.	.	.	.	.	.	.	.	.	.	.	.	.	.	.
.	8g\	.	16g/	.	16gg\	.	.	.	.	.	.	.	4G/	.	4g/	.	4g/	.	4gg\	.	4g/	.	4gg\	.
.	.	.	16g/	.	16gg\	.	.	.	.	.	.	.	.	.	.	.	.	.	.	.	.	.	.	.
.	8g\J	.	16g/	.	16gg\	.	.	.	.	.	.	.	.	.	.	.	.	.	.	.	.	.	.	.
.	.	.	16g/JJ	.	16gg\JJ	.	.	.	.	.	.	.	.	.	.	.	.	.	.	.	.	.	.	.
!	!	!	!	!	!	!	!	!	!	!	!	!	!	!	!	!	!	!	!LO:LB:g=original	!	!	!	!	!
=42	=42	=42	=42	=42	=42	=42	=42	=42	=42	=42	=42	=42	=42	=42	=42	=42	=42	=42	=42	=42	=42	=42	=42	=42
1ryy	8e-X\L	.	16g/LL	.	16bb-X\LL	.	.	1ryy	1ryy	1ryy	1ryy	1ryy	2G/	.	2g/	.	2g/	.	2gg\	.	2g/	.	2bb-X\	.
.	.	.	16g/	.	16bb-X\	.	.	.	.	.	.	.	.	.	.	.	.	.	.	.	.	.	.	.
.	8e-X\	.	16g/	.	16bb-X\	.	.	.	.	.	.	.	.	.	.	.	.	.	.	.	.	.	.	.
.	.	.	16g/	.	16bb-X\	.	.	.	.	.	.	.	.	.	.	.	.	.	.	.	.	.	.	.
.	8e-X\	.	16g/	.	16bb-X\	.	.	.	.	.	.	.	.	.	.	.	.	.	.	.	.	.	.	.
.	.	.	16g/	.	16bb-X\	.	.	.	.	.	.	.	.	.	.	.	.	.	.	.	.	.	.	.
.	8e-X\J	.	16g/	.	16bb-X\	.	.	.	.	.	.	.	.	.	.	.	.	.	.	.	.	.	.	.
.	.	.	16g/JJ	.	16bb-X\JJ	.	.	.	.	.	.	.	.	.	.	.	.	.	.	.	.	.	.	.
!	!	!	!	!	!	!	!	!	!	!	!	!	!	!	!	!	!	!	!	!	!	!	!	!
.	8e-\L	.	16b-X\LL	.	16cc#X\LL	.	.	.	.	.	.	.	2r	.	2r	.	2r	.	2r	.	2b-X\	.	2cc#X\	.
.	.	.	16b-X\	.	16cc#X\	.	.	.	.	.	.	.	.	.	.	.	.	.	.	.	.	.	.	.
.	8e-\	.	16b-X\	.	16cc#X\	.	.	.	.	.	.	.	.	.	.	.	.	.	.	.	.	.	.	.
.	.	.	16b-X\	.	16cc#X\	.	.	.	.	.	.	.	.	.	.	.	.	.	.	.	.	.	.	.
.	8e-\	.	16b-X\	.	16cc#X\	.	.	.	.	.	.	.	.	.	.	.	.	.	.	.	.	.	.	.
.	.	.	16b-X\	.	16cc#X\	.	.	.	.	.	.	.	.	.	.	.	.	.	.	.	.	.	.	.
.	8e-\J	.	16b-X\	.	16cc#X\	.	.	.	.	.	.	.	.	.	.	.	.	.	.	.	.	.	.	.
.	.	.	16b-X\JJ	.	16cc#X\JJ	.	.	.	.	.	.	.	.	.	.	.	.	.	.	.	.	.	.	.
*	*	*	*	*	*Xtremolo	*	*	*	*	*	*	*	*	*	*	*	*	*	*	*	*	*	*	*
!	!	!	!	!	!LO:LB:g=original	!	!	!	!	!	!	!	!	!	!	!	!	!	!	!	!	!	!	!
=43	=43	=43	=43	=43	=43	=43	=43	=43	=43	=43	=43	=43	=43	=43	=43	=43	=43	=43	=43	=43	=43	=43	=43	=43
1ryy	8d\L	.	16bn/ 16d/LL	.	8dd\	.	.	1ryy	1ryy	1ryy	1ryy	1ryy	4g/	.	4g/	.	4g/	.	4dd\	.	1bn\	.	2dd\	.
.	.	.	16bn/ 16d/	.	.	.	.	.	.	.	.	.	.	.	.	.	.	.	.	.	.	.	.	.
.	8d\	.	16bn/ 16d/	.	4ddd\	4	.	.	.	.	.	.	.	.	.	.	.	.	.	.	.	.	.	.
.	.	.	16bn/ 16d/	.	.	.	.	.	.	.	.	.	.	.	.	.	.	.	.	.	.	.	.	.
.	8d\	.	16bn/ 16d/	.	.	.	.	.	.	.	.	.	8.g/L	.	8.g/L	.	8.g/L	.	8.dd\L	.	.	.	.	.
.	.	.	16bn/ 16d/	.	.	.	.	.	.	.	.	.	.	.	.	.	.	.	.	.	.	.	.	.
.	8d\J	.	16bn/ 16d/	.	8bbn\	2	.	.	.	.	.	.	.	.	.	.	.	.	.	.	.	.	.	.
.	.	.	16bn/ 16d/JJ	.	.	.	.	.	.	.	.	.	16g/Jk	.	16g/Jk	.	16g/Jk	.	16dd\Jk	.	.	.	.	.
.	8d\L	.	16b/ 16d/LL	.	8gg\L	2	.	.	.	.	.	.	4g/	.	4g/	.	4g/	.	4dd\	.	.	.	2gg\	.
.	.	.	16b/ 16d/	.	.	.	.	.	.	.	.	.	.	.	.	.	.	.	.	.	.	.	.	.
.	8d\	.	16b/ 16d/	.	8dd\	.	.	.	.	.	.	.	.	.	.	.	.	.	.	.	.	.	.	.
.	.	.	16b/ 16d/	.	.	.	.	.	.	.	.	.	.	.	.	.	.	.	.	.	.	.	.	.
.	8d\	.	16b/ 16d/	.	8b\	.	.	.	.	.	.	.	4g/	.	4g/	.	4g/	.	4dd\	.	.	.	.	.
.	.	.	16b/ 16d/	.	.	.	.	.	.	.	.	.	.	.	.	.	.	.	.	.	.	.	.	.
.	8d\J	.	16b/ 16d/	.	8g\J	.	.	.	.	.	.	.	.	.	.	.	.	.	.	.	.	.	.	.
.	.	.	16b/ 16d/JJ	.	.	.	.	.	.	.	.	.	.	.	.	.	.	.	.	.	.	.	.	.
!	!	!	!	!	!	!	!	!	!	!	!	!	!	!	!	!	!LO:LB:g=original	!	!	!	!	!	!	!
=44	=44	=44	=44	=44	=44	=44	=44	=44	=44	=44	=44	=44	=44	=44	=44	=44	=44	=44	=44	=44	=44	=44	=44	=44
1ryy	8d\L	.	16a/ 16d/LL	.	8d/	.	.	1ryy	1ryy	1ryy	1ryy	1ryy	4dd\	.	4dd\	.	4dd\	.	4dd\	.	2a/	.	2ff#X\	.
.	.	.	16a/ 16d/	.	.	.	.	.	.	.	.	.	.	.	.	.	.	.	.	.	.	.	.	.
.	8d\	.	16a/ 16d/	.	4ccc\	.	.	.	.	.	.	.	.	.	.	.	.	.	.	.	.	.	.	.
.	.	.	16a/ 16d/	.	.	.	.	.	.	.	.	.	.	.	.	.	.	.	.	.	.	.	.	.
.	8d\	.	16a/ 16d/	.	.	.	.	.	.	.	.	.	8.dd\L	.	8.dd\L	.	8.dd\L	.	8.dd\L	.	.	.	.	.
.	.	.	16a/ 16d/	.	.	.	.	.	.	.	.	.	.	.	.	.	.	.	.	.	.	.	.	.
.	8d\J	.	16a/ 16d/	.	8aa\	.	.	.	.	.	.	.	.	.	.	.	.	.	.	.	.	.	.	.
.	.	.	16a/ 16d/JJ	.	.	.	.	.	.	.	.	.	16dd\Jk	.	16dd\Jk	.	16dd\Jk	.	16dd\Jk	.	.	.	.	.
.	8d\L	.	16cc/ 16d/LL	.	8ff#X\L	.	.	.	.	.	.	.	4dd\	.	4dd\	.	4dd\	.	4dd\	.	2cc\	.	2aa\	.
.	.	.	16cc/ 16d/	.	.	.	.	.	.	.	.	.	.	.	.	.	.	.	.	.	.	.	.	.
.	8d\	.	16cc/ 16d/	.	8dd\	.	.	.	.	.	.	.	.	.	.	.	.	.	.	.	.	.	.	.
.	.	.	16cc/ 16d/	.	.	.	.	.	.	.	.	.	.	.	.	.	.	.	.	.	.	.	.	.
.	8d\	.	16cc/ 16d/	.	8cc\	.	.	.	.	.	.	.	4dd\	.	4dd\	.	4dd\	.	4dd\	.	.	.	.	.
.	.	.	16cc/ 16d/	.	.	.	.	.	.	.	.	.	.	.	.	.	.	.	.	.	.	.	.	.
.	8d\J	.	16cc/ 16d/	.	8a\J	.	.	.	.	.	.	.	.	.	.	.	.	.	.	.	.	.	.	.
.	.	.	16cc/ 16d/JJ	.	.	.	.	.	.	.	.	.	.	.	.	.	.	.	.	.	.	.	.	.
*	*Xtremolo	*	*Xtremolo	*	*	*	*	*	*	*	*	*	*	*	*	*	*	*	*	*	*	*	*	*
!	!	!	!LO:LB:g=original	!	!	!	!	!	!	!	!	!	!	!	!	!	!	!	!	!	!	!	!	!
=45	=45	=45	=45	=45	=45	=45	=45	=45	=45	=45	=45	=45	=45	=45	=45	=45	=45	=45	=45	=45	=45	=45	=45	=45
1ryy	8g\L	.	8G/L	.	8g\L	.	.	1ryy	1ryy	1ryy	1ryy	1ryy	4g/	.	4g/	.	4g/	.	4dd\	.	4b\	.	4gg\	.
.	16f#X\L	.	16A/L	.	16a\L	.	.	.	.	.	.	.	.	.	.	.	.	.	.	.	.	.	.	.
.	16e\JJ	.	16B/JJ	.	16b\JJ	.	.	.	.	.	.	.	.	.	.	.	.	.	.	.	.	.	.	.
.	16d/LL	.	16c/LL	.	16cc\LL	.	.	.	.	.	.	.	4r	.	4r	.	4r	.	4r	.	4r	.	4r	.
.	16c/	.	16d/	.	16dd\	.	.	.	.	.	.	.	.	.	.	.	.	.	.	.	.	.	.	.
.	16B/	.	16e/	.	16ee\	.	.	.	.	.	.	.	.	.	.	.	.	.	.	.	.	.	.	.
.	16A/JJ	.	16f#X/JJ	.	16ff#X\JJ	.	.	.	.	.	.	.	.	.	.	.	.	.	.	.	.	.	.	.
*	*	*	*tremolo	*	*tremolo	*	*	*	*	*	*	*	*	*	*	*	*	*	*	*	*	*	*	*
.	8G/L	.	16g/LL	.	(16gg\LL	.	.	.	.	.	.	.	2r	.	2r	.	2r	.	2r	.	2r	.	2r	.
.	.	.	16f#X/	.	16ff#\	.	.	.	.	.	.	.	.	.	.	.	.	.	.	.	.	.	.	.
.	8G/	.	16g/	.	16gg\	.	.	.	.	.	.	.	.	.	.	.	.	.	.	.	.	.	.	.
.	.	.	16f#X/	.	16ff#\	.	.	.	.	.	.	.	.	.	.	.	.	.	.	.	.	.	.	.
.	8B/	.	16g/	.	16gg\	.	.	.	.	.	.	.	.	.	.	.	.	.	.	.	.	.	.	.
.	.	.	16f#X/	.	16ff#\	.	.	.	.	.	.	.	.	.	.	.	.	.	.	.	.	.	.	.
.	8d/J	.	16g/	.	16gg\	.	.	.	.	.	.	.	.	.	.	.	.	.	.	.	.	.	.	.
.	.	.	16f#X/JJ	.	16ff#\)JJ	.	.	.	.	.	.	.	.	.	.	.	.	.	.	.	.	.	.	.
*	*	*	*Xtremolo	*	*Xtremolo	*	*	*	*	*	*	*	*	*	*	*	*	*	*	*	*	*	*	*
=46	=46	=46	=46	=46	=46	=46	=46	=46	=46	=46	=46	=46	=46	=46	=46	=46	=46	=46	=46	=46	=46	=46	=46	=46
1ryy	4g\	.	4g/	.	4gg\	.	.	1ryy	1ryy	1ryy	1ryy	1ryy	4r	.	4r	.	4r	.	4r	.	4r	.	4r	.
.	4r	.	4r	.	4r	.	.	.	.	.	.	.	2G/	.	2g/	.	2g/	.	2dd\	.	2b\	.	2dd\	.
.	2r	.	2r	.	2r	.	.	.	.	.	.	.	.	.	.	.	.	.	.	.	.	.	.	.
.	.	.	.	.	.	.	.	.	.	.	.	.	4G/	.	4g/	.	4g/	.	4dd\	.	4b\	.	4dd\	.
!	!LO:LB:g=original	!	!	!	!LO:LB:g=original	!	!	!	!	!	!	!	!	!	!	!	!	!	!	!	!LO:LB:g=original	!	!	!
=47	=47	=47	=47	=47	=47	=47	=47	=47	=47	=47	=47	=47	=47	=47	=47	=47	=47	=47	=47	=47	=47	=47	=47	=47
1ryy	8g\L	.	8G/L	.	8g\L	.	.	1ryy	1ryy	1ryy	1ryy	1ryy	4c/	.	4cc\	.	4cc\	.	4ee\	.	4cc\	.	4ee\	.
.	16fn\L	.	16A/L	.	16a\L	.	.	.	.	.	.	.	.	.	.	.	.	.	.	.	.	.	.	.
.	16e\JJ	.	16B/JJ	.	16b\JJ	.	.	.	.	.	.	.	.	.	.	.	.	.	.	.	.	.	.	.
.	16d/LL	.	16c/LL	.	16cc\LL	.	.	.	.	.	.	.	4c/	.	4cc\	.	4cc\	.	4ee\	.	4cc\	.	4ee\	.
.	16c/	.	16d/	.	16dd\	.	.	.	.	.	.	.	.	.	.	.	.	.	.	.	.	.	.	.
.	16B/	.	16e/	.	16ee\	.	.	.	.	.	.	.	.	.	.	.	.	.	.	.	.	.	.	.
.	16A/JJ	.	16fn/JJ	.	16ffn\JJ	.	.	.	.	.	.	.	.	.	.	.	.	.	.	.	.	.	.	.
*	*	*	*tremolo	*	*tremolo	*	*	*	*	*	*	*	*	*	*	*	*	*	*	*	*	*	*	*
.	8G/L	.	16g/LL	.	(16gg\LL	.	.	.	.	.	.	.	2r	.	2r	.	2r	.	2r	.	2r	.	2r	.
.	.	.	16f#X/	.	16ff#X\	.	.	.	.	.	.	.	.	.	.	.	.	.	.	.	.	.	.	.
.	8G/	.	16g/	.	16gg\	.	.	.	.	.	.	.	.	.	.	.	.	.	.	.	.	.	.	.
.	.	.	16f#X/	.	16ff#X\	.	.	.	.	.	.	.	.	.	.	.	.	.	.	.	.	.	.	.
.	8c/	.	16g/	.	16gg\	.	.	.	.	.	.	.	.	.	.	.	.	.	.	.	.	.	.	.
.	.	.	16f#X/	.	16ff#X\	.	.	.	.	.	.	.	.	.	.	.	.	.	.	.	.	.	.	.
.	8e/J	.	16g/	.	16gg\	.	.	.	.	.	.	.	.	.	.	.	.	.	.	.	.	.	.	.
.	.	.	16f#X/JJ	.	16ff#X\)JJ	.	.	.	.	.	.	.	.	.	.	.	.	.	.	.	.	.	.	.
*	*	*	*Xtremolo	*	*Xtremolo	*	*	*	*	*	*	*	*	*	*	*	*	*	*	*	*	*	*	*
!	!	!	!	!	!	!	!	!	!	!	!	!	!	!	!LO:LB:g=original	!	!	!	!	!	!	!	!	!
=48	=48	=48	=48	=48	=48	=48	=48	=48	=48	=48	=48	=48	=48	=48	=48	=48	=48	=48	=48	=48	=48	=48	=48	=48
1ryy	4g\	.	4g/	.	4gg\	.	.	1ryy	1ryy	1ryy	1ryy	1ryy	4r	.	4r	.	4r	.	4r	.	4r	.	4r	.
*	*	*	*	*	*	*	*	*	*	*	*	*	*	*	*2\right	*	*	*	*	*	*	*	*	*
!	!	!	!	!	!	!	!	!	!	!	!	!	!	!	!	!	!	!	!	!	!	!	!	!
.	4r	.	4r	.	4r	.	.	.	.	.	.	.	2c/	.	2cc\	.	2cc\	.	2ee\	.	2cc\	.	2ee\	.
.	2r	.	2r	.	2r	.	.	.	.	.	.	.	.	.	.	.	.	.	.	.	.	.	.	.
.	.	.	.	.	.	.	.	.	.	.	.	.	4c/	.	4cc\	.	4cc\	.	4ee\	.	4cc\	.	4ee\	.
!	!	!	!LO:LB:g=original	!	!	!	!	!	!	!	!	!	!LO:LB:g=original	!	!	!	!	!	!	!	!	!	!	!
=49	=49	=49	=49	=49	=49	=49	=49	=49	=49	=49	=49	=49	=49	=49	=49	=49	=49	=49	=49	=49	=49	=49	=49	=49
1ryy	8g\L	.	8G/L	.	8g\L	.	.	1ryy	1ryy	1ryy	1ryy	1ryy	4G/	.	4g/	.	4dd\	.	4ff\	.	4dd\	.	4ffn\	.
.	16f\L	.	16A/L	.	16a\L	.	.	.	.	.	.	.	.	.	.	.	.	.	.	.	.	.	.	.
.	16e\JJ	.	16B/JJ	.	16b\JJ	.	.	.	.	.	.	.	.	.	.	.	.	.	.	.	.	.	.	.
.	16d/LL	.	16c/LL	.	16cc\LL	.	.	.	.	.	.	.	4G/	.	4g/	.	4dd\	.	4ff\	.	4dd\	.	4ff\	.
.	16c/	.	16d/	.	16dd\	.	.	.	.	.	.	.	.	.	.	.	.	.	.	.	.	.	.	.
.	16B/	.	16e/	.	16ee\	.	.	.	.	.	.	.	.	.	.	.	.	.	.	.	.	.	.	.
.	16A/JJ	.	16fn/JJ	.	16ffn\JJ	.	.	.	.	.	.	.	.	.	.	.	.	.	.	.	.	.	.	.
*	*	*	*tremolo	*	*tremolo	*	*	*	*	*	*	*	*	*	*	*	*	*	*	*	*	*	*	*
.	8G/L	.	16g/LL	.	(16gg\LL	.	.	.	.	.	.	.	2r	.	2r	.	2r	.	2r	.	2r	.	2r	.
.	.	.	16f#X/	.	16ff#X\	.	.	.	.	.	.	.	.	.	.	.	.	.	.	.	.	.	.	.
.	8G/	.	16g/	.	16gg\	.	.	.	.	.	.	.	.	.	.	.	.	.	.	.	.	.	.	.
.	.	.	16f#X/	.	16ff#X\	.	.	.	.	.	.	.	.	.	.	.	.	.	.	.	.	.	.	.
.	8B/	.	16g/	.	16gg\	.	.	.	.	.	.	.	.	.	.	.	.	.	.	.	.	.	.	.
.	.	.	16f#X/	.	16ff#X\	.	.	.	.	.	.	.	.	.	.	.	.	.	.	.	.	.	.	.
.	8d/J	.	16g/	.	16gg\	.	.	.	.	.	.	.	.	.	.	.	.	.	.	.	.	.	.	.
.	.	.	16f#X/JJ	.	16ff#X\)JJ	.	.	.	.	.	.	.	.	.	.	.	.	.	.	.	.	.	.	.
*	*	*	*Xtremolo	*	*Xtremolo	*	*	*	*	*	*	*	*	*	*	*	*	*	*	*	*	*	*	*
!	!	!	!	!	!	!	!	!	!	!	!	!	!	!	!	!	!	!	!	!	!	!	!LO:LB:g=original	!
=50	=50	=50	=50	=50	=50	=50	=50	=50	=50	=50	=50	=50	=50	=50	=50	=50	=50	=50	=50	=50	=50	=50	=50	=50
1ryy	4g\	.	4g/	.	4gg\	.	.	1ryy	1ryy	1ryy	1ryy	1ryy	4r	.	4r	.	4r	.	4r	.	4r	.	4r	.
.	4r	.	4r	.	4r	.	.	.	.	.	.	.	2G/	.	2g/	.	2dd\	.	2ff\	.	2dd\	.	2ff\	.
.	2r	.	2r	.	2r	.	.	.	.	.	.	.	.	.	.	.	.	.	.	.	.	.	.	.
.	.	.	.	.	.	.	.	.	.	.	.	.	4G/	.	4g/	.	4dd\	.	4ff\	.	4dd\	.	4ff\	.
!	!	!	!	!	!LO:LB:g=original	!	!	!	!	!	!	!	!	!	!	!	!	!	!LO:LB:g=original	!	!	!	!	!
=51	=51	=51	=51	=51	=51	=51	=51	=51	=51	=51	=51	=51	=51	=51	=51	=51	=51	=51	=51	=51	=51	=51	=51	=51
*	*tremolo	*	*	*	*	*	*	*	*	*	*	*	*	*	*	*	*	*	*	*	*	*	*	*
1ryy	8g\L	.	16dd\LL	.	16ffn\LL	.	.	1ryy	1ryy	1ryy	1ryy	1ryy	4G/	.	4g/	.	4dd\	.	4ff\	.	8dd'\L	.	8ff\L	.
.	.	.	16dd\	.	16ff\	.	.	.	.	.	.	.	.	.	.	.	.	.	.	.	.	.	.	.
.	8g\	.	16cc#X\	.	16ee\	.	.	.	.	.	.	.	.	.	.	.	.	.	.	.	8cc#X'\	.	8ee\	.
.	.	.	16cc#\JJ	.	16ee\JJ	.	.	.	.	.	.	.	.	.	.	.	.	.	.	.	.	.	.	.
.	8g\	.	16dd\LL	.	16ff\LL	.	.	.	.	.	.	.	4r	.	4r	.	4r	.	4r	.	8dd'\	.	8ff\	.
.	.	.	16dd\	.	16ff\	.	.	.	.	.	.	.	.	.	.	.	.	.	.	.	.	.	.	.
.	8g\J	.	16ccn\	.	16ee\	.	.	.	.	.	.	.	.	.	.	.	.	.	.	.	8ccn'\J	.	8ee\J	.
.	.	.	16cc\JJ	.	16ee\JJ	.	.	.	.	.	.	.	.	.	.	.	.	.	.	.	.	.	.	.
.	8g\L	.	16b/LL	.	16dd\LL	.	.	.	.	.	.	.	2r	.	2r	.	4dd\	.	4dd\	.	8b'/L	.	8dd\L	.
.	.	.	16b/	.	16dd\	.	.	.	.	.	.	.	.	.	.	.	.	.	.	.	.	.	.	.
.	8g\	.	16a#X/	.	16cc#X\	.	.	.	.	.	.	.	.	.	.	.	.	.	.	.	8a#X'/	.	8cc#X\	.
.	.	.	16a#/JJ	.	16cc#\JJ	.	.	.	.	.	.	.	.	.	.	.	.	.	.	.	.	.	.	.
.	8g\	.	16b/LL	.	16dd\LL	.	.	.	.	.	.	.	.	.	.	.	4r	.	4r	.	8b'/	.	8dd\	.
.	.	.	16b/	.	16dd\	.	.	.	.	.	.	.	.	.	.	.	.	.	.	.	.	.	.	.
.	8g\J	.	16an/	.	16ccn\	.	.	.	.	.	.	.	.	.	.	.	.	.	.	.	8an'/J	.	8ccn\J	.
.	.	.	16a/JJ	.	16cc\JJ	.	.	.	.	.	.	.	.	.	.	.	.	.	.	.	.	.	.	.
*	*Xtremolo	*	*	*	*	*	*	*	*	*	*	*	*	*	*	*	*	*	*	*	*	*	*	*
!	!LO:LB:g=original	!	!LO:LB:g=original	!	!	!	!	!	!	!	!	!	!	!	!	!	!	!	!	!	!	!	!	!
=52	=52	=52	=52	=52	=52	=52	=52	=52	=52	=52	=52	=52	=52	=52	=52	=52	=52	=52	=52	=52	=52	=52	=52	=52
!	!	!	!	!	!	!	!	!	!	!	!	!	!	!	!	!	!	!	!	!	!LO:TX:t=P:problem:mixed beam	!	!	!
1ryy	8g\L	.	16g/LL	.	16b/LL	.	.	1ryy	1ryy	1ryy	1ryy	1ryy	4g/	.	4dd\	.	4g/	.	4dd\	.	8g'/L	.	8b\L	.
.	.	.	16g/	.	16b/	.	.	.	.	.	.	.	.	.	.	.	.	.	.	.	.	.	.	.
.	8f#X\	.	16f#X/	.	16a#X/	.	.	.	.	.	.	.	.	.	.	.	.	.	.	.	8f#X'/	.	8a#X\	.
.	.	.	16f#/JJ	.	16a#/JJ	.	.	.	.	.	.	.	.	.	.	.	.	.	.	.	.	.	.	.
.	8g\	.	16g/LL	.	16b/LL	.	.	.	.	.	.	.	4r	.	4r	.	4r	.	4r	.	8g'/	.	8b\	.
.	.	.	16g/	.	16b/	.	.	.	.	.	.	.	.	.	.	.	.	.	.	.	.	.	.	.
.	8a\J	.	16a/	.	16an/	.	.	.	.	.	.	.	.	.	.	.	.	.	.	.	8aa'\J	.	8aan\J	.
.	.	.	16a/JJ	.	16a/JJ	.	.	.	.	.	.	.	.	.	.	.	.	.	.	.	.	.	.	.
.	8g\L	.	16g/LL	.	16g/LL	.	.	.	.	.	.	.	2r	.	2r	.	2r	.	2r	.	8gg'\L	.	8gg\L	.
.	.	.	16g/	.	16g/	.	.	.	.	.	.	.	.	.	.	.	.	.	.	.	.	.	.	.
.	8fn\	.	16fn/	.	16f/	.	.	.	.	.	.	.	.	.	.	.	.	.	.	.	8ffn'\	.	8ff\	.
.	.	.	16f/JJ	.	16f/JJ	.	.	.	.	.	.	.	.	.	.	.	.	.	.	.	.	.	.	.
.	8e\	.	16e/LL	.	16e/LL	.	.	.	.	.	.	.	.	.	.	.	.	.	.	.	8ee'\	.	8ee\	.
.	.	.	16e/	.	16e/	.	.	.	.	.	.	.	.	.	.	.	.	.	.	.	.	.	.	.
.	8d\J	.	16d/	.	16d/	.	.	.	.	.	.	.	.	.	.	.	.	.	.	.	8dd'\J	.	8dd\J	.
.	.	.	16d/JJ	.	16d/JJ	.	.	.	.	.	.	.	.	.	.	.	.	.	.	.	.	.	.	.
!	!	!	!	!	!LO:LB:g=original	!	!	!	!	!	!	!	!	!	!	!	!LO:LB:g=original	!	!	!	!	!	!	!
=53	=53	=53	=53	=53	=53	=53	=53	=53	=53	=53	=53	=53	=53	=53	=53	=53	=53	=53	=53	=53	=53	=53	=53	=53
1ryy	4c\	.	4c/	.	4c/	.	.	1ryy	1ryy	1ryy	1ryy	1ryy	4e/	.	4cc\	.	4c/	.	4cc\	.	4cc\	.	4cc\	.
.	4r	.	4r	.	4r	.	.	.	.	.	.	.	4r	.	4r	.	4r	.	4r	.	4r	.	4r	.
!	!	!	!LO:TX:t=P:problem:uszkodzony papier	!	!	!	!	!	!	!	!	!	!LO:TX:t=P:problem:"latarnie" na kresce taktowej 	!	!LO:TX:t=P:problem:"latarnia" na kresce taktowej 	!	!LO:TX:t=P:problem:"latarnie" na kresce taktowej 	!	!	!	!LO:TX:t=P:problem:"de" wpisane ołówkiem i "latarnie" na kresce taktowej	!	!LO:TX:t=P:problem:"de" wpisane ołówkiem i "latarnie" na kresce taktowej	!
!	!	!	!	!	!	!	!	!	!	!	!	!	!	!	!	!	!	!	!	!	!LO:TX:t=de:color=grey	!	!LO:TX:t=de:color=grey	!
.	2r	.	2ryy	.	2r	.	.	.	.	.	.	.	2r	.	2r	.	2r	.	2r	.	2r	.	2r	.
=54	=54	=54	=54	=54	=54	=54	=54	=54	=54	=54	=54	=54	=54	=54	=54	=54	=54	=54	=54	=54	=54	=54	=54	=54
1ryy	4r	.	4r	.	4r	.	.	1ryy	1ryy	1ryy	1ryy	1ryy	4r	.	4r	.	4r	.	4r	.	4r	.	4r	.
.	4c/ 4C/	.	4ff/ 4cc/ 4f/	.	4aa/ 4cc/ 4f/	.	.	.	.	.	.	.	4c/	.	4cc\	.	4c/	.	4cc\	.	4ff\	.	4aa\	.
.	4c/ 4C/	.	4ee/ 4cc/ 4g/	.	4gg/ 4cc/ 4e/	.	.	.	.	.	.	.	4c/	.	4cc\	.	4c/	.	4cc\	.	4ee\	.	4gg\	.
.	4c/ 4C/	.	4ff/ 4cc/ 4f/	.	4aa/ 4cc/ 4f/	.	.	.	.	.	.	.	4c/	.	4cc\	.	4c/	.	4cc\	.	4ff\	.	4aa\	.
!	!	!	!	!	!	!	!	!	!	!	!	!	!	!	!	!	!	!	!	!	!LO:LB:g=original	!	!	!
=55	=55	=55	=55	=55	=55	=55	=55	=55	=55	=55	=55	=55	=55	=55	=55	=55	=55	=55	=55	=55	=55	=55	=55	=55
1ryy	4c/ 4C/	.	4ee/ 4cc/ 4g/	.	4gg/ 4cc/ 4e/	.	.	1ryy	1ryy	1ryy	1ryy	1ryy	4c/	.	4cc\	.	4c/	.	4cc\	.	4ee\	.	4gg\	.
.	4r	.	4r	.	4r	.	.	.	.	.	.	.	4r	.	4r	.	4r	.	4r	.	4r	.	4r	.
!	!	!	!	!	!LO:TX:b:i:t=Volti Cito	!	!	!	!	!	!	!	!	!	!	!	!	!	!	!	!	!	!	!
.	2r	.	2r	.	2r	.	.	.	.	.	.	.	2r	.	2r	.	2r	.	2r	.	2r	.	2r	.
!	!	!	!LO:PB:g=original	!	!LO:PB:g=original	!	!	!	!	!	!	!	!	!	!	!	!	!	!	!	!	!	!	!
=56	=56	=56	=56	=56	=56	=56	=56	=56	=56	=56	=56	=56	=56	=56	=56	=56	=56	=56	=56	=56	=56	=56	=56	=56
1ryy	4r	.	4r	.	4r	.	.	1ryy	1ryy	1ryy	1ryy	1ryy	4r	.	4r	.	4r	.	4r	.	4r	.	4r	.
!	!	!	!	!	!	!	!LO:DY:rj	!	!	!	!	!	!	!	!	!	!	!	!	!	!	!	!	!
.	4c/ 4C/	.	4ff/ 4cc/ 4f/	.	4aa/ 4cc/ 4f/	.	f	.	.	.	.	.	4c/	.	4cc\	.	4c/	.	4cc\	.	4ff\	.	4aa\	.
.	4c/ 4C/	.	4ee/ 4cc/ 4g/	.	4gg/ 4cc/ 4e/	.	.	.	.	.	.	.	4c/	.	4cc\	.	4c/	.	4cc\	.	4ee\	.	4gg\	.
.	4c/ 4C/	.	4ff/ 4cc/ 4f/	.	4aa/ 4cc/ 4f/	.	.	.	.	.	.	.	4c/	.	4cc\	.	4c/	.	4cc\	.	4ff\	.	4aa\	.
=57	=57	=57	=57	=57	=57	=57	=57	=57	=57	=57	=57	=57	=57	=57	=57	=57	=57	=57	=57	=57	=57	=57	=57	=57
1ryy	4c/ 4C/	.	4ee/ 4cc/ 4g/	.	4gg/ 4cc/ 4e/	.	.	1ryy	1ryy	1ryy	1ryy	1ryy	4c/	.	4cc\	.	4c/	.	4cc\	.	4ee\	.	4gg\	.
*	*	*	*	*	*tremolo	*	*	*	*	*	*	*	*	*	*	*	*	*	*	*	*	*	*	*
.	4r	.	4r	.	16g/LL	.	.	.	.	.	.	.	4r	.	4r	.	4r	.	4r	.	4r	.	4r	.
.	.	.	.	.	16g/	.	.	.	.	.	.	.	.	.	.	.	.	.	.	.	.	.	.	.
.	.	.	.	.	16g/	.	.	.	.	.	.	.	.	.	.	.	.	.	.	.	.	.	.	.
.	.	.	.	.	16g/JJ	.	.	.	.	.	.	.	.	.	.	.	.	.	.	.	.	.	.	.
.	2r	.	2r	.	16ee\LL	.	.	.	.	.	.	.	2r	.	2r	.	2r	.	2r	.	2r	.	2r	.
.	.	.	.	.	16ee\	.	.	.	.	.	.	.	.	.	.	.	.	.	.	.	.	.	.	.
.	.	.	.	.	16ee\	.	.	.	.	.	.	.	.	.	.	.	.	.	.	.	.	.	.	.
.	.	.	.	.	16ee\JJ	.	.	.	.	.	.	.	.	.	.	.	.	.	.	.	.	.	.	.
.	.	.	.	.	16cc\LL	.	.	.	.	.	.	.	.	.	.	.	.	.	.	.	.	.	.	.
.	.	.	.	.	16cc\	.	.	.	.	.	.	.	.	.	.	.	.	.	.	.	.	.	.	.
.	.	.	.	.	16cc\	.	.	.	.	.	.	.	.	.	.	.	.	.	.	.	.	.	.	.
.	.	.	.	.	16cc\JJ	.	.	.	.	.	.	.	.	.	.	.	.	.	.	.	.	.	.	.
!	!	!	!	!	!	!	!	!	!	!	!	!	!	!	!LO:LB:g=original	!	!	!	!	!	!	!	!	!
=58	=58	=58	=58	=58	=58	=58	=58	=58	=58	=58	=58	=58	=58	=58	=58	=58	=58	=58	=58	=58	=58	=58	=58	=58
1ryy	4r	.	4r	.	16gg\LL	.	.	1ryy	1ryy	1ryy	1ryy	1ryy	4r	.	4r	.	4r	.	4r	.	4r	.	4r	.
.	.	.	.	.	16gg\	.	.	.	.	.	.	.	.	.	.	.	.	.	.	.	.	.	.	.
.	.	.	.	.	16gg\	.	.	.	.	.	.	.	.	.	.	.	.	.	.	.	.	.	.	.
.	.	.	.	.	16gg\	.	.	.	.	.	.	.	.	.	.	.	.	.	.	.	.	.	.	.
*	*	*	*tremolo	*	*	*	*	*	*	*	*	*	*	*	*	*	*	*	*	*	*	*	*	*
.	8G/L	.	16b\LL	.	16gg\	.	.	.	.	.	.	.	8G/L	.	8g/L	.	2g/	.	2dd\	.	2b\	.	2gg\	.
.	.	.	16b\	.	16gg\	.	.	.	.	.	.	.	.	.	.	.	.	.	.	.	.	.	.	.
.	8G/J	.	16b\	.	16gg\	.	.	.	.	.	.	.	8G/J	.	8g/J	.	.	.	.	.	.	.	.	.
.	.	.	16b\JJ	.	16gg\JJ	.	.	.	.	.	.	.	.	.	.	.	.	.	.	.	.	.	.	.
*	*tremolo	*	*	*	*	*	*	*	*	*	*	*	*	*	*	*	*	*	*	*	*	*	*	*
.	8G/L	.	16cc\LL	.	16gg\LL	.	.	.	.	.	.	.	4G/	.	4g/	.	.	.	.	.	.	.	.	.
.	.	.	16cc\	.	16gg\	.	.	.	.	.	.	.	.	.	.	.	.	.	.	.	.	.	.	.
.	8G/	.	16cc\	.	16gg\	.	.	.	.	.	.	.	.	.	.	.	.	.	.	.	.	.	.	.
.	.	.	16cc\JJ	.	16gg\JJ	.	.	.	.	.	.	.	.	.	.	.	.	.	.	.	.	.	.	.
.	8G/	.	16dd\LL	.	16ff\LL	.	.	.	.	.	.	.	4G/	.	4g/	.	4g/	.	4dd\	.	4dd\	.	4ff\	.
.	.	.	16dd\	.	16ff\	.	.	.	.	.	.	.	.	.	.	.	.	.	.	.	.	.	.	.
.	8G/J	.	16dd\	.	16ff\	.	.	.	.	.	.	.	.	.	.	.	.	.	.	.	.	.	.	.
.	.	.	16dd\JJ	.	16ff\JJ	.	.	.	.	.	.	.	.	.	.	.	.	.	.	.	.	.	.	.
*	*Xtremolo	*	*	*	*	*	*	*	*	*	*	*	*	*	*	*	*	*	*	*	*	*	*	*
!	!LO:LB:g=original	!	!	!	!	!	!	!	!	!	!	!	!LO:LB:g=original	!	!	!	!	!	!	!	!	!	!LO:LB:g=original	!
=59	=59	=59	=59	=59	=59	=59	=59	=59	=59	=59	=59	=59	=59	=59	=59	=59	=59	=59	=59	=59	=59	=59	=59	=59
1ryy	4G/	.	16g/LL	.	16ee\LL	.	.	1ryy	1ryy	1ryy	1ryy	1ryy	4c/	.	4cc\	.	4cc\	.	4ee\	.	4g/	.	4ee\	.
.	.	.	16g/	.	16ee\	.	.	.	.	.	.	.	.	.	.	.	.	.	.	.	.	.	.	.
.	.	.	16g/	.	16ee\	.	.	.	.	.	.	.	.	.	.	.	.	.	.	.	.	.	.	.
.	.	.	16g/JJ	.	16ee\JJ	.	.	.	.	.	.	.	.	.	.	.	.	.	.	.	.	.	.	.
.	8f\L	.	16a/LL	.	16dd\LL	.	.	.	.	.	.	.	4r	.	4r	.	4g/	.	4dd\	.	4f/	.	4dd\	.
.	.	.	16a/	.	16dd\	.	.	.	.	.	.	.	.	.	.	.	.	.	.	.	.	.	.	.
.	8f\J	.	16a/	.	16dd\	.	.	.	.	.	.	.	.	.	.	.	.	.	.	.	.	.	.	.
.	.	.	16a/JJ	.	16dd\JJ	.	.	.	.	.	.	.	.	.	.	.	.	.	.	.	.	.	.	.
.	8e\L	.	16g/LL	.	16cc\LL	.	.	.	.	.	.	.	4r	.	4r	.	4e/	.	4cc\	.	4e/	.	4cc\	.
.	.	.	16g/	.	16cc\	.	.	.	.	.	.	.	.	.	.	.	.	.	.	.	.	.	.	.
.	8e\	.	16g/	.	16cc\	.	.	.	.	.	.	.	.	.	.	.	.	.	.	.	.	.	.	.
.	.	.	16g/JJ	.	16cc\JJ	.	.	.	.	.	.	.	.	.	.	.	.	.	.	.	.	.	.	.
.	8d\	.	16f/LL	.	16b\LL	.	.	.	.	.	.	.	4G/	.	4g/	.	4g/	.	4dd\	.	4d/	.	4b\	.
.	.	.	16f/	.	16b\	.	.	.	.	.	.	.	.	.	.	.	.	.	.	.	.	.	.	.
.	8d\J	.	16f/	.	16b\	.	.	.	.	.	.	.	.	.	.	.	.	.	.	.	.	.	.	.
.	.	.	16f/JJ	.	16b\JJ	.	.	.	.	.	.	.	.	.	.	.	.	.	.	.	.	.	.	.
*	*	*	*Xtremolo	*	*Xtremolo	*	*	*	*	*	*	*	*	*	*	*	*	*	*	*	*	*	*	*
=60	=60	=60	=60	=60	=60	=60	=60	=60	=60	=60	=60	=60	=60	=60	=60	=60	=60	=60	=60	=60	=60	=60	=60	=60
1ryy	4c\	.	4e/	.	4cc\	.	.	1ryy	1ryy	1ryy	1ryy	1ryy	4c/	.	4cc\	.	4cc\	.	4cc\	.	4c/	.	4cc\	.
.	8.ccT\L	.	8.ccT\L	.	8.ccT\L	.	.	.	.	.	.	.	4cc\	.	4cc\	.	4cc\	.	4cc\	.	4cc\	.	4cc\	.
.	(32b\LL	.	(32b\LL	.	(32b\LL	.	.	.	.	.	.	.	.	.	.	.	.	.	.	.	.	.	.	.
.	32cc\JJJ)	.	32cc\JJJ)	.	32cc\JJJ)	.	.	.	.	.	.	.	.	.	.	.	.	.	.	.	.	.	.	.
!	!	!	!LO:LB:g=original	!	!	!	!	!	!	!	!	!	!	!	!	!	!	!	!	!	!	!	!	!
.	8.gT\L	.	8.gT/L	.	8.gT/L	.	.	.	.	.	.	.	4g/	.	4g/	.	4g/	.	4g/	.	4g/	.	4g/	.
.	(32f#X\LL	.	(32f#X/LL	.	(32f#X/LL	.	.	.	.	.	.	.	.	.	.	.	.	.	.	.	.	.	.	.
.	32g\JJJ)	.	32g/JJJ)	.	32g/JJJ)	.	.	.	.	.	.	.	.	.	.	.	.	.	.	.	.	.	.	.
.	8.eT\L	.	8.eT/L	.	(8.eT/L	.	.	.	.	.	.	.	4e/	.	4e/	.	4e/	.	4e/	.	4e/	.	4e/	.
.	(32d\LL	.	(32d/LL	.	32d/LL	.	.	.	.	.	.	.	.	.	.	.	.	.	.	.	.	.	.	.
.	32e\JJJ)	.	32e/JJJ)	.	32e/JJJ)	.	.	.	.	.	.	.	.	.	.	.	.	.	.	.	.	.	.	.
!	!	!	!	!	!LO:LB:g=original	!	!	!	!	!	!	!	!	!	!	!	!	!	!LO:LB:g=original	!	!	!	!	!
=61	=61	=61	=61	=61	=61	=61	=61	=61	=61	=61	=61	=61	=61	=61	=61	=61	=61	=61	=61	=61	=61	=61	=61	=61
1ryy	8c\	.	8c/	.	8c/	.	.	1ryy	1ryy	1ryy	1ryy	1ryy	4c/	.	4c/	.	4c/	.	4c/	.	4c/	.	4c/	.
.	4c\	.	4g/	.	4ee\	.	.	.	.	.	.	.	.	.	.	.	.	.	.	.	.	.	.	.
.	.	.	.	.	.	.	.	.	.	.	.	.	8.c/L	.	8.cc\L	.	8.c/L	.	8.cc\L	.	2g/	.	2ee\	.
.	4c\	.	4g/	.	4ee\	.	.	.	.	.	.	.	.	.	.	.	.	.	.	.	.	.	.	.
.	.	.	.	.	.	.	.	.	.	.	.	.	16c/Jk	.	16cc\Jk	.	16c/Jk	.	16cc\Jk	.	.	.	.	.
.	.	.	.	.	.	.	.	.	.	.	.	.	4c/	.	4cc\	.	4c/	.	4cc\	.	.	.	.	.
.	4c\	.	4g/	.	4ee\	.	.	.	.	.	.	.	.	.	.	.	.	.	.	.	.	.	.	.
.	.	.	.	.	.	.	.	.	.	.	.	.	4c/	.	4cc\	.	4c/	.	4cc\	.	4g/	.	4ee\	.
.	8c\	.	8g/	.	8ee\	.	.	.	.	.	.	.	.	.	.	.	.	.	.	.	.	.	.	.
!	!	!	!	!	!	!	!	!	!	!	!	!	!	!	!	!	!LO:LB:g=original	!	!	!	!	!	!	!
=62	=62	=62	=62	=62	=62	=62	=62	=62	=62	=62	=62	=62	=62	=62	=62	=62	=62	=62	=62	=62	=62	=62	=62	=62
!	!	!	!	!	!	!	!	!	!	!	!	!	!	!	!	!	!	!	!LO:TX:t=P:problem:uszkodzony papier	!	!	!	!	!
1ryy	8c\	.	8cc\	.	8ff\	.	.	1ryy	1ryy	1ryy	1ryy	1ryy	4c/	.	4cc\	.	4c/	.	4cc\yy	.	2cc\	.	2ff\	.
.	4c\	.	4cc\	.	4ff\	.	.	.	.	.	.	.	.	.	.	.	.	.	.	.	.	.	.	.
.	.	.	.	.	.	.	.	.	.	.	.	.	8.c/L	.	8.cc\L	.	8.c/L	.	8.cc\L	.	.	.	.	.
.	4c\	.	4cc\	.	4ff\	.	.	.	.	.	.	.	.	.	.	.	.	.	.	.	.	.	.	.
.	.	.	.	.	.	.	.	.	.	.	.	.	16c/Jk	.	16cc\Jk	.	16c/Jk	.	16cc\Jk	.	.	.	.	.
.	.	.	.	.	.	.	.	.	.	.	.	.	4c/	.	4cc\	.	4c/	.	4cc\	.	2cc\	.	2ff\	.
.	4c\	.	4cc\	.	4ff\	.	.	.	.	.	.	.	.	.	.	.	.	.	.	.	.	.	.	.
.	.	.	.	.	.	.	.	.	.	.	.	.	4c/	.	4cc\	.	4c/	.	4cc\	.	.	.	.	.
.	8c\	.	8cc\	.	8ff\	.	.	.	.	.	.	.	.	.	.	.	.	.	.	.	.	.	.	.
!	!LO:LB:g=original	!	!	!	!	!	!	!	!	!	!	!	!	!	!	!	!	!	!	!	!	!	!	!
=63	=63	=63	=63	=63	=63	=63	=63	=63	=63	=63	=63	=63	=63	=63	=63	=63	=63	=63	=63	=63	=63	=63	=63	=63
1ryy	8c\	.	8gg\	.	8bb-X\	.	.	1ryy	1ryy	1ryy	1ryy	1ryy	4c/	.	4cc\	.	4c/	.	4cc\	.	1gg\	.	1bb-X\	.
.	4c\	.	4gg\	.	4bb-\	.	.	.	.	.	.	.	.	.	.	.	.	.	.	.	.	.	.	.
.	.	.	.	.	.	.	.	.	.	.	.	.	8.c/L	.	8.cc\L	.	8.c/L	.	8.cc\L	.	.	.	.	.
.	4c\	.	4gg\	.	4bb-\	.	.	.	.	.	.	.	.	.	.	.	.	.	.	.	.	.	.	.
.	.	.	.	.	.	.	.	.	.	.	.	.	16c/Jk	.	16cc\Jk	.	16c/Jk	.	16cc\Jk	.	.	.	.	.
.	.	.	.	.	.	.	.	.	.	.	.	.	4c/	.	4cc\	.	4c/	.	4cc\	.	.	.	.	.
.	4c\	.	4gg\	.	4bb-\	.	.	.	.	.	.	.	.	.	.	.	.	.	.	.	.	.	.	.
.	.	.	.	.	.	.	.	.	.	.	.	.	4c/	.	4cc\	.	4c/	.	4cc\	.	.	.	.	.
.	8c\	.	8gg\	.	8bb-\	.	.	.	.	.	.	.	.	.	.	.	.	.	.	.	.	.	.	.
!	!	!	!LO:LB:g=original	!	!	!	!	!	!	!	!	!	!	!	!	!	!	!	!	!	!	!	!	!
=64	=64	=64	=64	=64	=64	=64	=64	=64	=64	=64	=64	=64	=64	=64	=64	=64	=64	=64	=64	=64	=64	=64	=64	=64
1ryy	8c\	.	8cc\	.	8aa\	.	.	1ryy	1ryy	1ryy	1ryy	1ryy	4c/	.	4cc\	.	4c/	.	4cc\	.	1ff\	.	1aa\	.
.	4c\	.	4cc\	.	4aa\	.	.	.	.	.	.	.	.	.	.	.	.	.	.	.	.	.	.	.
.	.	.	.	.	.	.	.	.	.	.	.	.	8.c/L	.	8.cc\L	.	8.c/L	.	8.cc\L	.	.	.	.	.
.	4c\	.	4cc\	.	4aa\	.	.	.	.	.	.	.	.	.	.	.	.	.	.	.	.	.	.	.
.	.	.	.	.	.	.	.	.	.	.	.	.	16c/Jk	.	16cc\Jk	.	16c/Jk	.	16cc\Jk	.	.	.	.	.
.	.	.	.	.	.	.	.	.	.	.	.	.	4c/	.	4cc\	.	4c/	.	4cc\	.	.	.	.	.
.	4c\	.	4cc\	.	4aa\	.	.	.	.	.	.	.	.	.	.	.	.	.	.	.	.	.	.	.
.	.	.	.	.	.	.	.	.	.	.	.	.	4c/	.	4cc\	.	4c/	.	4cc\	.	.	.	.	.
.	8c\	.	8cc\	.	8aa\	.	.	.	.	.	.	.	.	.	.	.	.	.	.	.	.	.	.	.
!	!	!	!	!	!	!	!	!	!	!	!	!	!	!	!LO:LB:g=original	!	!	!	!	!	!	!	!	!
=65	=65	=65	=65	=65	=65	=65	=65	=65	=65	=65	=65	=65	=65	=65	=65	=65	=65	=65	=65	=65	=65	=65	=65	=65
!	!	!	!	!	!	!	!	!	!	!	!	!	!	!	!	!	!	!	!	!	!LO:TX:t=P:problem:uszkodzony papier	!	!	!
1ryy	4c\	.	4cc\	.	4aa\	.	.	1ryy	1ryy	1ryy	1ryy	1ryy	4c/	.	4cc\	.	4c/	.	4cc\	.	1ryy	.	4aa\	.
*	*	*	*tremolo	*	*tremolo	*	*	*	*	*	*	*	*	*	*	*	*	*	*	*	*	*	*	*
.	8f\L	.	16a/LL	.	16ff\LL	.	.	.	.	.	.	.	4r	.	4r	.	4r	.	4r	.	.	.	4ff\	.
.	.	.	16a/	.	16ff\	.	.	.	.	.	.	.	.	.	.	.	.	.	.	.	.	.	.	.
.	8f\J	.	16a/	.	16ff\	.	.	.	.	.	.	.	.	.	.	.	.	.	.	.	.	.	.	.
.	.	.	16a/JJ	.	16ff\JJ	.	.	.	.	.	.	.	.	.	.	.	.	.	.	.	.	.	.	.
.	8f\L	.	16a/LL	.	16dd\LL	.	.	.	.	.	.	.	2r	.	2r	.	2r	.	2r	.	.	.	4dd\	.
.	.	.	16a/	.	16dd\	.	.	.	.	.	.	.	.	.	.	.	.	.	.	.	.	.	.	.
.	8f\	.	16a/	.	16dd\	.	.	.	.	.	.	.	.	.	.	.	.	.	.	.	.	.	.	.
.	.	.	16a/	.	16dd\JJ	.	.	.	.	.	.	.	.	.	.	.	.	.	.	.	.	.	.	.
.	8f#X\	.	16a/	.	16cc\LL	.	.	.	.	.	.	.	.	.	.	.	.	.	.	.	.	.	4cc\	.
.	.	.	16a/	.	16cc\	.	.	.	.	.	.	.	.	.	.	.	.	.	.	.	.	.	.	.
.	8f#\J	.	16a/	.	16cc\	.	.	.	.	.	.	.	.	.	.	.	.	.	.	.	.	.	.	.
.	.	.	16a/JJ	.	16cc\JJ	.	.	.	.	.	.	.	.	.	.	.	.	.	.	.	.	.	.	.
*	*	*	*	*	*Xtremolo	*	*	*	*	*	*	*	*	*	*	*	*	*	*	*	*	*	*	*
*	*	*	*Xtremolo	*	*	*	*	*	*	*	*	*	*	*	*	*	*	*	*	*	*	*	*	*
!	!	!	!	!	!LO:LB:g=original	!	!	!	!	!	!	!	!LO:LB:g=original	!	!	!	!	!	!	!	!LO:LB:g=original	!	!	!
=66	=66	=66	=66	=66	=66	=66	=66	=66	=66	=66	=66	=66	=66	=66	=66	=66	=66	=66	=66	=66	=66	=66	=66	=66
1ryy	4g\	.	4d/	.	8.bt\L	.	.	1ryy	1ryy	1ryy	1ryy	1ryy	4G/	.	4g/	.	4g/	.	4dd\	.	4g/	.	4bn\	.
.	.	.	.	.	(32a\LL	.	.	.	.	.	.	.	.	.	.	.	.	.	.	.	.	.	.	.
.	.	.	.	.	32b\JJJ)	.	.	.	.	.	.	.	.	.	.	.	.	.	.	.	.	.	.	.
.	4fn\	.	4f/ 4G/	.	4g/	.	.	.	.	.	.	.	4r	.	4r	.	4r	.	4r	.	4ff\	.	4g/	.
.	4e\	.	4e/ 4G/	.	4cc/ 4e/ 4G/	.	.	.	.	.	.	.	4c/	.	4cc\	.	4cc\	.	4ee\	.	4ee\	.	4cc\	.
.	4c\	.	4cc/ 4e/ 4G/	.	4ee/ 4cc/ 4e/ 4G/	.	.	.	.	.	.	.	4c/	.	4cc\	.	4cc\	.	4ee\	.	4cc\	.	4ee\	.
=67	=67	=67	=67	=67	=67	=67	=67	=67	=67	=67	=67	=67	=67	=67	=67	=67	=67	=67	=67	=67	=67	=67	=67	=67
1ryy	4G/	.	4b/ 4d/ 4G/	.	4gg/ 4b/ 4d/ 4G/	.	.	1ryy	1ryy	1ryy	1ryy	1ryy	4G/	.	4g/	.	4g/	.	4dd\	.	4b'\	.	4gg\	.
.	4f\	.	4d/ 4G/	.	8.bt\L	.	.	.	.	.	.	.	4r	.	4r	.	4r	.	4r	.	4ff'\	.	4b\	.
.	.	.	.	.	(32a\LL	.	.	.	.	.	.	.	.	.	.	.	.	.	.	.	.	.	.	.
.	.	.	.	.	32b\JJJ)	.	.	.	.	.	.	.	.	.	.	.	.	.	.	.	.	.	.	.
.	4e\	.	4e/ 4G/	.	4cc/ 4e/ 4G/	.	.	.	.	.	.	.	4c/	.	4cc\	.	4cc\	.	4ee\	.	4ee\	.	4cc\	.
.	4c\	.	4cc/ 4e/ 4G/	.	4ee/ 4cc/ 4e/ 4G/	.	.	.	.	.	.	.	4c/	.	4cc\	.	4cc\	.	4ee\	.	4cc\	.	4ee\	.
!	!LO:LB:g=original	!	!LO:LB:g=original	!	!	!	!	!	!	!	!	!	!	!	!	!	!	!	!LO:LB:g=original	!	!	!	!	!
=68	=68	=68	=68	=68	=68	=68	=68	=68	=68	=68	=68	=68	=68	=68	=68	=68	=68	=68	=68	=68	=68	=68	=68	=68
!	!	!	!	!	!	!	!	!	!	!	!	!	!	!	!	!	!	!	!	!	!LO:TX:a:i:t=Solo	!	!	!
1ryy	4G/	.	4b/ 4d/ 4G/	.	4gg/ 4b/ 4d/ 4G/	.	.	1ryy	1ryy	1ryy	1ryy	1ryy	4G/	.	4g/	.	4g/	.	4dd\	.	4b\	.	4gg\	.
!	!	!	!	!	!	!	!	!	!	!	!	!	!	!	!	!	!	!	!	!	!	!	!LO:TX:a:i:t=Solo	!
.	4r	.	4r	.	4r	.	.	.	.	.	.	.	(4G'/	>	(4g'/	>	(4g'/	>	(4g'/	.	(4b\	>	(4dd\	>
!	!LO:TX:b:i:t=Volti Cito	!	!	!	!	!	!	!	!	!	!	!	!	!	!	!	!	!	!	!	!	!	!	!
.	2r	.	2r	.	2r	.	.	.	.	.	.	.	4G'/	.	4g'/	.	4g'/	.	4g'/	.	4cc\	.	4ee\	.
.	.	.	.	.	.	.	.	.	.	.	.	.	4G'/)	]]	4g'/)	]]	4g'/)	]]	4g'/)	.	4dd\)	]]	4ff\)	]]
!	!LO:PB:g=original	!	!	!	!	!	!	!	!	!	!	!	!	!	!	!	!	!	!	!	!	!	!LO:LB:g=original	!
=69	=69	=69	=69	=69	=69	=69	=69	=69	=69	=69	=69	=69	=69	=69	=69	=69	=69	=69	=69	=69	=69	=69	=69	=69
!	!LO:TX:t=P:problem:takty 69-76 skreślone kredką, koniec oznaczony "latarniami"	!	!LO:TX:t=P:problem:takty 69-76 skreślone ołówkiem i oznaczone "latarniami"	!	!LO:TX:t=P:problem:takty 69-76 skreślone ołówkiem i oznaczone "latarniami", pna dole wpisany ołówkiem inny fragment - tożsamy z partią klernetu 1.	!	!	!	!	!	!	!	!	!	!	!	!	!	!	!	!	!	!LO:TX:b:i:t=dolce	!
!	!	!LO:DY:rj:t=p.	!	!LO:DY:rj	!	!	!LO:DY:rj	!	!	!	!	!	!	!LO:DY:rj	!	!LO:DY:t=p.	!	!LO:DY:rj:t=p.	!	!	!	!	!	!
1ryy	(8G/L	p	(8c/L	p	(8e/L	.	p	1ryy	1ryy	1ryy	1ryy	1ryy	4c/	p	4cc\	p	4e/	p	4cc\	.	4ee\	.	2gg\	.
.	8c/	.	8e/	.	8g/	.	.	.	.	.	.	.	.	.	.	.	.	.	.	.	.	.	.	.
.	8e/	.	8g/	.	8cc/	.	.	.	.	.	.	.	4r	.	4r	.	4r	.	4r	.	4r	.	.	.
.	8c/J)	.	8e/J)	.	8g/J)	.	.	.	.	.	.	.	.	.	.	.	.	.	.	.	.	.	.	.
*	*rep	*	*rep	*	*rep	*	*	*	*	*	*	*	*	*	*	*	*	*	*	*	*	*	*	*
.	(8G/L	.	(8c/L	.	(8e/L	.	.	.	.	.	.	.	2r	.	2r	.	2r	.	2r	.	2r	.	(4ccc\	.
.	8c/	.	8e/	.	8g/	.	.	.	.	.	.	.	.	.	.	.	.	.	.	.	.	.	.	.
.	8e/	.	8g/	.	8cc/	.	.	.	.	.	.	.	.	.	.	.	.	.	.	.	.	.	4ee\)	.
.	8c/J)	.	8e/J)	.	8g/J)	.	.	.	.	.	.	.	.	.	.	.	.	.	.	.	.	.	.	.
*	*Xrep	*	*Xrep	*	*Xrep	*	*	*	*	*	*	*	*	*	*	*	*	*	*	*	*	*	*	*
!	!	!	!	!	!	!	!	!	!	!	!	!	!	!	!	!	!LO:LB:g=original	!	!	!	!	!	!	!
=70	=70	=70	=70	=70	=70	=70	=70	=70	=70	=70	=70	=70	=70	=70	=70	=70	=70	=70	=70	=70	=70	=70	=70	=70
!	!	!	!	!	!	!	!	!	!	!	!	!	!LO:TX:a:t=14.	!	!LO:TX:a:t=14.	!	!LO:TX:a:t=7.	!	!LO:TX:a:t=7.	!	!LO:TX:a:t=1	!	!	!
1ryy	(8G/L	.	(8c/L	.	(8e/L	.	.	1ryy	1ryy	1ryy	1ryy	1ryy	00r	.	00r	.	00r	.	00r	.	1r	p	2ee\	.
.	8c/	.	8e/	.	8g/	.	.	.	.	.	.	.	.	.	.	.	.	.	.	.	.	.	.	.
.	8e/	.	8g/	.	8cc/	.	.	.	.	.	.	.	.	.	.	.	.	.	.	.	.	.	.	.
.	8c/J)	.	8e/J)	.	8g/J)	.	.	.	.	.	.	.	.	.	.	.	.	.	.	.	.	.	.	.
*	*rep	*	*	*	*	*	*	*	*	*	*	*	*	*	*	*	*	*	*	*	*	*	*	*
.	(8G/L	.	(8c/L	.	(8e/L	.	.	.	.	.	.	.	.	.	.	.	.	.	.	.	.	.	(4gg\	.
.	8c/	.	8e/	.	8g/	.	.	.	.	.	.	.	.	.	.	.	.	.	.	.	.	.	.	.
.	8e/	.	8g/	.	8cc/	.	.	.	.	.	.	.	.	.	.	.	.	.	.	.	.	.	4cc\)	.
.	8c/J)	.	8e/J)	.	8e/J)	.	.	.	.	.	.	.	.	.	.	.	.	.	.	.	.	.	.	.
*	*Xrep	*	*	*	*	*	*	*	*	*	*	*	*	*	*	*	*	*	*	*	*	*	*	*
!	!	!	!	!	!LO:LB:g=original	!	!	!	!	!	!	!	!	!	!	!	!	!	!	!	!	!	!	!
=71	=71	=71	=71	=71	=71	=71	=71	=71	=71	=71	=71	=71	=71	=71	=71	=71	=71	=71	=71	=71	=71	=71	=71	=71
1ryy	4G/	.	(8B/L	.	(>8d/L	.	.	1ryy	1ryy	1ryy	1ryy	1ryy	.	.	.	.	.	.	.	.	4b\	.	4dd\	.
.	.	.	8G/)	.	8G/)	.	.	.	.	.	.	.	.	.	.	.	.	.	.	.	.	.	.	.
.	4G/	.	(8c/	.	(>8e/	.	.	.	.	.	.	.	.	.	.	.	.	.	.	.	4cc\	.	4ee\	.
.	.	.	8G/J)	.	8G/J)	.	.	.	.	.	.	.	.	.	.	.	.	.	.	.	.	.	.	.
.	4G/	.	(8d/L	.	(>8f/L	.	.	.	.	.	.	.	.	.	.	.	.	.	.	.	4dd\	.	4ff\	.
.	.	.	8G/)	.	8G/)	.	.	.	.	.	.	.	.	.	.	.	.	.	.	.	.	.	.	.
.	4G/	.	(8e/	.	(>8g/	.	.	.	.	.	.	.	.	.	.	.	.	.	.	.	4ee\	.	4gg\	.
.	.	.	8G/J)	.	8G/J)	.	.	.	.	.	.	.	.	.	.	.	.	.	.	.	.	.	.	.
!	!	!	!LO:LB:g=original	!	!	!	!	!	!	!	!	!	!	!	!	!	!	!	!	!	!	!	!	!
=72	=72	=72	=72	=72	=72	=72	=72	=72	=72	=72	=72	=72	=72	=72	=72	=72	=72	=72	=72	=72	=72	=72	=72	=72
*	*	*	*	*	*tremolo	*	*	*	*	*	*	*	*	*	*	*	*	*	*	*	*	*	*	*
1ryy	2G/	.	(8d/L	.	(>8f/L	.	.	1ryy	1ryy	1ryy	1ryy	1ryy	.	.	.	.	.	.	.	.	2dd\	.	(2ff\	.
.	.	.	8G/)	.	8G/	.	.	.	.	.	.	.	.	.	.	.	.	.	.	.	.	.	.	.
.	.	.	(8d/	.	8f/	.	.	.	.	.	.	.	.	.	.	.	.	.	.	.	.	.	.	.
.	.	.	8G/J)	.	8G/)J	.	.	.	.	.	.	.	.	.	.	.	.	.	.	.	.	.	.	.
*	*	*	*	*	*Xtremolo	*	*	*	*	*	*	*	*	*	*	*	*	*	*	*	*	*	*	*
.	4G/	.	(8c/L	.	(>8e/L	.	.	.	.	.	.	.	.	.	.	.	.	.	.	.	4cc\	.	4ee\)	.
.	.	.	8G/)	.	8G/)	.	.	.	.	.	.	.	.	.	.	.	.	.	.	.	.	.	.	.
.	4r	.	(8e/	.	(>8g/	.	.	.	.	.	.	.	.	.	.	.	.	.	.	.	4r	.	4r	.
.	.	.	8G/J)	.	8G/J)	.	.	.	.	.	.	.	.	.	.	.	.	.	.	.	.	.	.	.
=73	=73	=73	=73	=73	=73	=73	=73	=73	=73	=73	=73	=73	=73	=73	=73	=73	=73	=73	=73	=73	=73	=73	=73	=73
!	!	!	!	!	!	!	!	!	!	!	!	!	!	!	!	!	!	!	!	!	!LO:TX:a:t=2	!	!	!
1ryy	(8A/L	.	(8c/L	.	(8f/L	.	.	1ryy	1ryy	1ryy	1ryy	1ryy	.	.	.	.	.	.	.	.	0r	.	2aa\	.
.	8c/	.	8f/	.	8a/	.	.	.	.	.	.	.	.	.	.	.	.	.	.	.	.	.	.	.
.	8f/	.	8a/	.	8cc/	.	.	.	.	.	.	.	.	.	.	.	.	.	.	.	.	.	.	.
.	8c/J)	.	8f/J)	.	8a/J)	.	.	.	.	.	.	.	.	.	.	.	.	.	.	.	.	.	.	.
*	*rep	*	*rep	*	*rep	*	*	*	*	*	*	*	*	*	*	*	*	*	*	*	*	*	*	*
.	(8A/L	.	(8c/L	.	(8f/L	.	.	.	.	.	.	.	.	.	.	.	.	.	.	.	.	.	(4ccc\	.
.	8c/	.	8f/	.	8a/	.	.	.	.	.	.	.	.	.	.	.	.	.	.	.	.	.	.	.
.	8f/	.	8a/	.	8cc/	.	.	.	.	.	.	.	.	.	.	.	.	.	.	.	.	.	4aa\)	.
.	8c/J)	.	8f/J)	.	8a/J)	.	.	.	.	.	.	.	.	.	.	.	.	.	.	.	.	.	.	.
*	*Xrep	*	*Xrep	*	*Xrep	*	*	*	*	*	*	*	*	*	*	*	*	*	*	*	*	*	*	*
=74	=74	=74	=74	=74	=74	=74	=74	=74	=74	=74	=74	=74	=74	=74	=74	=74	=74	=74	=74	=74	=74	=74	=74	=74
1ryy	(8G/L	.	(8c/L	.	(8e/L	.	.	1ryy	1ryy	1ryy	1ryy	1ryy	00r	.	00r	.	0r	.	0r	.	.	.	2gg\	.
.	8c/	.	8e/	.	8g/	.	.	.	.	.	.	.	.	.	.	.	.	.	.	.	.	.	.	.
.	8e/	.	8g/	.	8cc/	.	.	.	.	.	.	.	.	.	.	.	.	.	.	.	.	.	.	.
.	8c/J)	.	8e/J)	.	8g/J)	.	.	.	.	.	.	.	.	.	.	.	.	.	.	.	.	.	.	.
*	*rep	*	*rep	*	*rep	*	*	*	*	*	*	*	*	*	*	*	*	*	*	*	*	*	*	*
.	(8G/L	.	(8c/L	.	(8e/L	.	.	.	.	.	.	.	.	.	.	.	.	.	.	.	.	.	(4ccc\	.
.	8c/	.	8e/	.	8g/	.	.	.	.	.	.	.	.	.	.	.	.	.	.	.	.	.	.	.
.	8e/	.	8g/	.	8cc/	.	.	.	.	.	.	.	.	.	.	.	.	.	.	.	.	.	4gg\)	.
.	8c/J)	.	8e/J)	.	8g/J)	.	.	.	.	.	.	.	.	.	.	.	.	.	.	.	.	.	.	.
*	*Xrep	*	*Xrep	*	*Xrep	*	*	*	*	*	*	*	*	*	*	*	*	*	*	*	*	*	*	*
=75	=75	=75	=75	=75	=75	=75	=75	=75	=75	=75	=75	=75	=75	=75	=75	=75	=75	=75	=75	=75	=75	=75	=75	=75
1ryy	4G/	.	(8d/L	.	(>8g/L	.	.	1ryy	1ryy	1ryy	1ryy	1ryy	.	.	.	.	.	.	.	.	(4ee\	.	(4gg\	.
.	.	.	8G/)	.	8G/)	.	.	.	.	.	.	.	.	.	.	.	.	.	.	.	.	.	.	.
.	4r	.	(8d/	.	(>8f/	.	.	.	.	.	.	.	.	.	.	.	.	.	.	.	4dd\)	.	4ff\)	.
.	.	.	8G/J)	.	8G/J)	.	.	.	.	.	.	.	.	.	.	.	.	.	.	.	.	.	.	.
!	!	!	!LO:LB:g=original	!	!	!	!	!	!	!	!	!	!	!	!	!	!	!	!	!	!	!	!	!
.	4G/	.	(8d/L	.	(>8f/L	.	.	.	.	.	.	.	.	.	.	.	.	.	.	.	(4dd\	.	(4ff\	.
.	.	.	8G/)	.	8G/)	.	.	.	.	.	.	.	.	.	.	.	.	.	.	.	.	.	.	.
.	4r	.	(8c/	.	(>8e/	.	.	.	.	.	.	.	.	.	.	.	.	.	.	.	4cc\)	.	4ee\)	.
.	.	.	8G/J)	.	8G/J)	.	.	.	.	.	.	.	.	.	.	.	.	.	.	.	.	.	.	.
!	!	!	!	!	!LO:LB:g=original	!	!	!	!	!	!	!	!	!	!	!	!	!	!	!	!	!	!	!
=76	=76	=76	=76	=76	=76	=76	=76	=76	=76	=76	=76	=76	=76	=76	=76	=76	=76	=76	=76	=76	=76	=76	=76	=76
1ryy	4G/	.	4B/	.	4d/	.	.	1ryy	1ryy	1ryy	1ryy	1ryy	.	.	.	.	1r	.	1r	.	4b\	.	8dd'\L	.
.	.	.	.	.	.	.	.	.	.	.	.	.	.	.	.	.	.	.	.	.	.	.	8gg'\	.
.	4r	.	4r	.	4r	.	.	.	.	.	.	.	.	.	.	.	.	.	.	.	4r	.	(8ff#X\	.
.	.	.	.	.	.	.	.	.	.	.	.	.	.	.	.	.	.	.	.	.	.	.	8gg\J)	.
.	2r	.	2r	.	2r	.	mf	.	.	.	.	.	.	.	.	.	.	.	.	.	2r	.	(8ff#\L	.
.	.	.	.	.	.	.	.	.	.	.	.	.	.	.	.	.	.	.	.	.	.	.	8gg\)	.
.	.	.	.	.	.	.	.	.	.	.	.	.	.	.	.	.	.	.	.	.	.	.	8qbb/	.
.	.	.	.	.	.	.	.	.	.	.	.	.	.	.	.	.	.	.	.	.	.	.	8aa'\	.
.	.	.	.	.	.	.	.	.	.	.	.	.	.	.	.	.	.	.	.	.	.	.	8gg'\J	.
!	!LO:LB:g=original	!	!	!	!	!	!	!	!	!	!	!	!	!	!	!	!	!	!	!	!LO:LB:g=original	!	!LO:LB:g=original	!
=77	=77	=77	=77	=77	=77	=77	=77	=77	=77	=77	=77	=77	=77	=77	=77	=77	=77	=77	=77	=77	=77	=77	=77	=77
!	!	!	!	!	!LO:TX:b:t=dolc&colon;	!	!	!	!	!	!	!	!	!	!	!	!	!	!	!	!	!	!	!
1ryy	(8c\L	.	(8e/L	.	2gg\	.	.	1ryy	1ryy	1ryy	1ryy	1ryy	.	.	.	.	4r	p	4r	p	4r	p	4r	p
.	8e\	.	8g/	.	.	.	.	.	.	.	.	.	.	.	.	.	.	.	.	.	.	.	.	.
.	8g\	.	8cc/	.	.	.	.	.	.	.	.	.	.	.	.	.	4e/	.	4cc\	.	4cc'\	.	4ee'\	.
.	8e\J)	.	8g/J)	.	.	.	.	.	.	.	.	.	.	.	.	.	.	.	.	.	.	.	.	.
*	*rep	*	*rep	*	*	*	*	*	*	*	*	*	*	*	*	*	*	*	*	*	*	*	*	*
.	(8c\L	.	(8e/L	.	(4ccc\	.	.	.	.	.	.	.	.	.	.	.	4e/	.	4cc\	.	4cc'\	.	4ee'\	.
.	8e\	.	8g/	.	.	.	.	.	.	.	.	.	.	.	.	.	.	.	.	.	.	.	.	.
.	8g\	.	8cc/	.	4ee\)	.	.	.	.	.	.	.	.	.	.	.	4e/	.	4cc\	.	4cc'\	.	4ee'\	.
.	8e\J)	.	8g/J)	.	.	.	.	.	.	.	.	.	.	.	.	.	.	.	.	.	.	.	.	.
*	*Xrep	*	*Xrep	*	*	*	*	*	*	*	*	*	*	*	*	*	*	*	*	*	*	*	*	*
=78	=78	=78	=78	=78	=78	=78	=78	=78	=78	=78	=78	=78	=78	=78	=78	=78	=78	=78	=78	=78	=78	=78	=78	=78
1ryy	(8c\L	.	(8e/L	.	2ee\	.	.	1ryy	1ryy	1ryy	1ryy	1ryy	00r	.	00r	.	4r	.	4r	.	4r	.	4r	.
.	8e\	.	8g/	.	.	.	.	.	.	.	.	.	.	.	.	.	.	.	.	.	.	.	.	.
.	8g\	.	8cc/	.	.	.	.	.	.	.	.	.	.	.	.	.	4e/	.	4cc\	.	4cc'\	.	4ee'\	.
.	8e\J)	.	8g/J)	.	.	.	.	.	.	.	.	.	.	.	.	.	.	.	.	.	.	.	.	.
.	(8c\L	.	(8e/L	.	(4gg\	.	.	.	.	.	.	.	.	.	.	.	4e/	.	4cc\	.	4cc'\	.	4ee'\	.
.	8e\	.	8g/	.	.	.	.	.	.	.	.	.	.	.	.	.	.	.	.	.	.	.	.	.
.	8g\	.	8cc/	.	4cc\)	.	.	.	.	.	.	.	.	.	.	.	4e/	.	4cc\	.	4cc'\	.	4ee'\	.
.	8c\J)	.	8e/J)	.	.	.	.	.	.	.	.	.	.	.	.	.	.	.	.	.	.	.	.	.
=79	=79	=79	=79	=79	=79	=79	=79	=79	=79	=79	=79	=79	=79	=79	=79	=79	=79	=79	=79	=79	=79	=79	=79	=79
1ryy	4G/	.	(8b/L	.	4dd\	.	.	1ryy	1ryy	1ryy	1ryy	1ryy	.	.	.	.	4r	.	4r	.	4b\	.	4dd\	.
.	.	.	8g/)	.	.	.	.	.	.	.	.	.	.	.	.	.	.	.	.	.	.	.	.	.
.	4G/	.	(8cc/	.	4ee\	.	.	.	.	.	.	.	.	.	.	.	4g/	.	4dd\	.	4cc\	.	4ee\	.
.	.	.	8g/J)	.	.	.	.	.	.	.	.	.	.	.	.	.	.	.	.	.	.	.	.	.
!	!	!	!LO:LB:g=original	!	!	!	!	!	!	!	!	!	!	!	!	!	!	!	!	!	!	!	!	!
.	4G/	.	(8dd/L	.	4ff\	.	.	.	.	.	.	.	.	.	.	.	4g/	.	4dd\	.	4dd\	.	4ff\	.
.	.	.	8g/)	.	.	.	.	.	.	.	.	.	.	.	.	.	.	.	.	.	.	.	.	.
.	4G/	.	(8ee/	.	4gg\	.	.	.	.	.	.	.	.	.	.	.	4g/	.	4dd\	.	4ee\	.	4gg\	.
.	.	.	8g/J)	.	.	.	.	.	.	.	.	.	.	.	.	.	.	.	.	.	.	.	.	.
=80	=80	=80	=80	=80	=80	=80	=80	=80	=80	=80	=80	=80	=80	=80	=80	=80	=80	=80	=80	=80	=80	=80	=80	=80
1ryy	2G/	.	(8dd/L	.	2ff\	.	.	1ryy	1ryy	1ryy	1ryy	1ryy	.	.	.	.	4r	.	4r	.	2dd\	.	2ff\	.
.	.	.	8g/)	.	.	.	.	.	.	.	.	.	.	.	.	.	.	.	.	.	.	.	.	.
.	.	.	(8b/	.	.	.	.	.	.	.	.	.	.	.	.	.	4g/	.	4dd\	.	.	.	.	.
.	.	.	8g/J)	.	.	.	.	.	.	.	.	.	.	.	.	.	.	.	.	.	.	.	.	.
.	4G/	.	4cc\	.	8ee'\L	.	.	.	.	.	.	.	.	.	.	.	4cc\	.	4ee\	.	4cc\	.	4ee\	.
.	.	.	.	.	8ff'\	.	.	.	.	.	.	.	.	.	.	.	.	.	.	.	.	.	.	.
.	4r	.	4r	.	(8ff#X\	.	.	.	.	.	.	.	.	.	.	.	4r	.	4r	.	4r	.	4r	.
.	.	.	.	.	8gg\J)	.	.	.	.	.	.	.	.	.	.	.	.	.	.	.	.	.	.	.
=81	=81	=81	=81	=81	=81	=81	=81	=81	=81	=81	=81	=81	=81	=81	=81	=81	=81	=81	=81	=81	=81	=81	=81	=81
1ryy	(8A\L	.	(8c/L	.	2aa\	.	.	1ryy	1ryy	1ryy	1ryy	1ryy	.	.	.	.	4r	.	4r	.	4r	.	4r	.
.	8c\	.	8f/	.	.	.	.	.	.	.	.	.	.	.	.	.	.	.	.	.	.	.	.	.
.	8f\	.	8a/	.	.	.	.	.	.	.	.	.	.	.	.	.	4c/	.	4cc\	.	4ff\	.	4aa'\	.
.	8c\J)	.	8f/J)	.	.	.	.	.	.	.	.	.	.	.	.	.	.	.	.	.	.	.	.	.
*	*rep	*	*rep	*	*	*	*	*	*	*	*	*	*	*	*	*	*	*	*	*	*	*	*	*
.	(8A\L	.	(8c/L	.	(4ccc\	.	.	.	.	.	.	.	.	.	.	.	4c/	.	4cc\	.	4ff\	.	4aa'\	.
.	8c\	.	8f/	.	.	.	.	.	.	.	.	.	.	.	.	.	.	.	.	.	.	.	.	.
.	8f\	.	8a/	.	4aa\)	.	.	.	.	.	.	.	.	.	.	.	4c/	.	4cc\	.	4ff\	.	4aa'\	.
.	8c\J)	.	8f/J)	.	.	.	.	.	.	.	.	.	.	.	.	.	.	.	.	.	.	.	.	.
*	*Xrep	*	*Xrep	*	*	*	*	*	*	*	*	*	*	*	*	*	*	*	*	*	*	*	*	*
!	!	!	!	!	!LO:LB:g=original	!	!	!	!	!	!	!	!	!	!	!	!	!	!	!	!	!	!	!
=82	=82	=82	=82	=82	=82	=82	=82	=82	=82	=82	=82	=82	=82	=82	=82	=82	=82	=82	=82	=82	=82	=82	=82	=82
*	*	*	*	*	*	*below	*	*	*	*	*	*	*	*	*	*	*	*	*	*	*	*	*	*
1ryy	(8G/L	.	(8e/L	.	8gg\L	.	.	1ryy	1ryy	1ryy	1ryy	1ryy	0r	.	0r	.	4e/	.	4cc\	.	4ee\	.	4gg\	.
.	8c/	.	8g/	.	8eee\	4	.	.	.	.	.	.	.	.	.	.	.	.	.	.	.	.	.	.
.	8e/	.	8cc/	.	(8bb\	2	.	.	.	.	.	.	.	.	.	.	4r	.	4r	.	4r	.	4r	.
.	8c/J)	.	8g/J)	.	8ccc\J)	3	.	.	.	.	.	.	.	.	.	.	.	.	.	.	.	.	.	.
.	(8A/L	.	(8f/L	.	8gg#X\L	2 o	.	.	.	.	.	.	.	.	.	.	2r	.	2r	.	4ff\	.	4aa\	.
.	8d/	.	8a/	.	8aa\	.	.	.	.	.	.	.	.	.	.	.	.	.	.	.	.	.	.	.
.	8f/	.	8dd/	.	8ff\	.	.	.	.	.	.	.	.	.	.	.	.	.	.	.	4r	.	4r	.
.	8d/J)	.	8a/J)	.	8dd\J	.	.	.	.	.	.	.	.	.	.	.	.	.	.	.	.	.	.	.
!	!LO:LB:g=original	!	!LO:LB:g=original	!	!	!	!	!	!	!	!	!	!	!	!	!	!	!	!LO:LB:g=original	!	!	!	!	!
=83	=83	=83	=83	=83	=83	=83	=83	=83	=83	=83	=83	=83	=83	=83	=83	=83	=83	=83	=83	=83	=83	=83	=83	=83
1ryy	(8G/L	.	(8e/L	.	(8ff#X\L	.	.	1ryy	1ryy	1ryy	1ryy	1ryy	.	.	.	.	4cc\	.	4ee\	.	4ee\	.	4ccc\	.
.	8c/	.	8g/	.	8ggn\)	.	.	.	.	.	.	.	.	.	.	.	.	.	.	.	.	.	.	.
.	8e/	.	8cc/	.	8ee'\	.	.	.	.	.	.	.	.	.	.	.	4r	.	4r	.	4r	.	4r	.
.	8c/J)	.	8g/J)	.	8cc'\J	.	.	.	.	.	.	.	.	.	.	.	.	.	.	.	.	.	.	.
.	(8G/L	.	(8d/L	.	(8ee\L	.	.	.	.	.	.	.	.	.	.	.	4g/	.	4dd\	.	4dd\	.	4bb\	.
.	8B/J)	.	8g/	.	8ffn\)	.	.	.	.	.	.	.	.	.	.	.	.	.	.	.	.	.	.	.
.	4d\	.	8b/	.	8dd'\	.	.	.	.	.	.	.	.	.	.	.	4r	.	4r	.	4r	.	4r	.
.	.	.	8f/J)	.	8b'\J	.	.	.	.	.	.	.	.	.	.	.	.	.	.	.	.	.	.	.
=84	=84	=84	=84	=84	=84	=84	=84	=84	=84	=84	=84	=84	=84	=84	=84	=84	=84	=84	=84	=84	=84	=84	=84	=84
!	!	!	!	!	!	!	!LO:DY:rj	!	!	!	!	!	!	!LO:DY:rj:t=fr.	!	!LO:DY:rj:t=fr	!	!LO:DY:rj:t=fr	!	!LO:DY:rj:t=fr.	!	!	!	!
1ryy	4c\	.	4e/	.	16cc\LL	.	f	1ryy	1ryy	1ryy	1ryy	1ryy	4c/	f	4cc\	f	4c/	f	4cc\	f	4ee\	.	4ccc\	.
*	*	*	*	*	*	*above	*	*	*	*	*	*	*	*	*	*	*	*	*	*	*	*	*	*
.	.	.	.	.	16ccc\	3	.	.	.	.	.	.	.	.	.	.	.	.	.	.	.	.	.	.
.	.	.	.	.	16ccc\	.	.	.	.	.	.	.	.	.	.	.	.	.	.	.	.	.	.	.
.	.	.	.	.	16ccc\JJ	.	.	.	.	.	.	.	.	.	.	.	.	.	.	.	.	.	.	.
*	*	*	*	*	*tremolo	*below	*	*	*	*	*	*	*	*	*	*	*	*	*	*	*	*	*	*
.	4r	.	4r	.	16ccc\LL	.	.	.	.	.	.	.	8.c/L	.	8.cc\L	.	8.c/L	.	8.cc\L	.	4r	.	4r	.
.	.	.	.	.	16ccc\	.	.	.	.	.	.	.	.	.	.	.	.	.	.	.	.	.	.	.
.	.	.	.	.	16ccc\	.	.	.	.	.	.	.	.	.	.	.	.	.	.	.	.	.	.	.
.	.	.	.	.	16ccc\JJ	.	.	.	.	.	.	.	16c/Jk	.	16cc\Jk	.	16c/Jk	.	16cc\Jk	.	.	.	.	.
!	!	!LO:DY:rj:t=fr	!	!	!	!	!	!	!	!	!	!	!	!	!	!	!	!	!	!	!	!	!	!LO:DY:t=fr
.	4r	f	4r	.	16ccc\LL	.	.	.	.	.	.	.	2c/	.	2cc\	.	4c/	.	4cc\	.	4r	.	4r	f
.	.	.	.	.	16ccc\	.	.	.	.	.	.	.	.	.	.	.	.	.	.	.	.	.	.	.
.	.	.	.	.	16ccc\	.	.	.	.	.	.	.	.	.	.	.	.	.	.	.	.	.	.	.
.	.	.	.	.	16ccc\	.	.	.	.	.	.	.	.	.	.	.	.	.	.	.	.	.	.	.
*	*	*	*tremolo	*	*	*	*	*	*	*	*	*	*	*	*	*	*	*	*	*	*	*	*	*
!	!	!	!	!LO:DY:rj:t=fr.	!	!	!	!	!	!	!	!	!	!	!	!	!	!	!	!	!	!LO:DY:rj:t=fr	!	!
.	8f\L	.	16a/LL	f	16ccc\	.	.	.	.	.	.	.	.	.	.	.	4c/	.	4cc\	.	4ff\	f	4aa\	.
.	.	.	16a/	.	16ccc\	.	.	.	.	.	.	.	.	.	.	.	.	.	.	.	.	.	.	.
.	8f\J	.	16a/	.	16ccc\	.	.	.	.	.	.	.	.	.	.	.	.	.	.	.	.	.	.	.
.	.	.	16a/JJ	.	16ccc\JJ	.	.	.	.	.	.	.	.	.	.	.	.	.	.	.	.	.	.	.
!	!	!	!	!	!	!	!	!	!	!	!	!	!	!	!	!	!LO:LB:g=original	!	!	!	!LO:LB:g=original	!	!LO:LB:g=original	!
=85	=85	=85	=85	=85	=85	=85	=85	=85	=85	=85	=85	=85	=85	=85	=85	=85	=85	=85	=85	=85	=85	=85	=85	=85
1ryy	8e\L	.	16g/LL	.	16ccc\LL	.	.	1ryy	1ryy	1ryy	1ryy	1ryy	4c/	.	4cc\	.	4c/	.	4cc\	.	4ee\	.	4gg\	.
.	.	.	16g/	.	16ccc\	.	.	.	.	.	.	.	.	.	.	.	.	.	.	.	.	.	.	.
.	8e\	.	16g/	.	16ccc\	.	.	.	.	.	.	.	.	.	.	.	.	.	.	.	.	.	.	.
.	.	.	16g/JJ	.	16ccc\	.	.	.	.	.	.	.	.	.	.	.	.	.	.	.	.	.	.	.
.	8f\	.	16a/LL	.	16ccc\	.	.	.	.	.	.	.	4c/	.	4cc\	.	4c/	.	4cc\	.	4ff\	.	4aa\	.
.	.	.	16a/	.	16ccc\	.	.	.	.	.	.	.	.	.	.	.	.	.	.	.	.	.	.	.
.	8f\J	.	16a/	.	16ccc\	.	.	.	.	.	.	.	.	.	.	.	.	.	.	.	.	.	.	.
.	.	.	16a/JJ	.	16ccc\JJ	.	.	.	.	.	.	.	.	.	.	.	.	.	.	.	.	.	.	.
.	8e\L	.	16g/LL	.	16ccc\LL	.	.	.	.	.	.	.	4c/	.	4cc\	.	4c/	.	4cc\	.	4ee\	.	4gg\	.
.	.	.	16g/	.	16ccc\	.	.	.	.	.	.	.	.	.	.	.	.	.	.	.	.	.	.	.
.	8e\	.	16g/	.	16ccc\	.	.	.	.	.	.	.	.	.	.	.	.	.	.	.	.	.	.	.
.	.	.	16g/JJ	.	16ccc\	.	.	.	.	.	.	.	.	.	.	.	.	.	.	.	.	.	.	.
.	8d\	.	16f/LL	.	16ccc\	.	.	.	.	.	.	.	4c/	.	4cc\	.	4c/	.	4cc\	.	4dd\	.	4ff\	.
.	.	.	16f/	.	16ccc\	.	.	.	.	.	.	.	.	.	.	.	.	.	.	.	.	.	.	.
.	8d\J	.	16f/	.	16ccc\	.	.	.	.	.	.	.	.	.	.	.	.	.	.	.	.	.	.	.
.	.	.	16f/JJ	.	16ccc\JJ	.	.	.	.	.	.	.	.	.	.	.	.	.	.	.	.	.	.	.
!	!	!	!	!	!LO:LB:g=original	!	!	!	!	!	!	!	!	!	!LO:LB:g=original	!	!	!	!	!	!	!	!	!
=86	=86	=86	=86	=86	=86	=86	=86	=86	=86	=86	=86	=86	=86	=86	=86	=86	=86	=86	=86	=86	=86	=86	=86	=86
1ryy	4c\	.	4e/	.	16ccc\LL	.	.	1ryy	1ryy	1ryy	1ryy	1ryy	4c/	.	4cc\	.	4c/	.	4cc\	.	4cc\	.	4ee\	.
.	.	.	.	.	16ccc\	.	.	.	.	.	.	.	.	.	.	.	.	.	.	.	.	.	.	.
.	.	.	.	.	16ccc\	.	.	.	.	.	.	.	.	.	.	.	.	.	.	.	.	.	.	.
.	.	.	.	.	16ccc\	.	.	.	.	.	.	.	.	.	.	.	.	.	.	.	.	.	.	.
.	4r	.	4r	.	16ccc\	.	.	.	.	.	.	.	8.c/L	.	8.cc\L	.	8.c/L	.	8.cc\L	.	4r	.	4r	.
.	.	.	.	.	16ccc\	.	.	.	.	.	.	.	.	.	.	.	.	.	.	.	.	.	.	.
.	.	.	.	.	16ccc\	.	.	.	.	.	.	.	.	.	.	.	.	.	.	.	.	.	.	.
.	.	.	.	.	16ccc\JJ	.	.	.	.	.	.	.	16c/Jk	.	16cc\Jk	.	16c/Jk	.	16cc\Jk	.	.	.	.	.
.	4r	.	4r	.	16ccc\LL	.	.	.	.	.	.	.	2c/	.	2cc\	.	4c/	.	4cc\	.	4r	.	4r	.
.	.	.	.	.	16ccc\	.	.	.	.	.	.	.	.	.	.	.	.	.	.	.	.	.	.	.
.	.	.	.	.	16ccc\	.	.	.	.	.	.	.	.	.	.	.	.	.	.	.	.	.	.	.
.	.	.	.	.	16ccc\	.	.	.	.	.	.	.	.	.	.	.	.	.	.	.	.	.	.	.
.	8f\L	.	16a/LL	.	16ccc\	.	.	.	.	.	.	.	.	.	.	.	4c/	.	4cc\	.	4ff\	.	4aa\	.
.	.	.	16a/	.	16ccc\	.	.	.	.	.	.	.	.	.	.	.	.	.	.	.	.	.	.	.
.	8f\J	.	16a/	.	16ccc\	.	.	.	.	.	.	.	.	.	.	.	.	.	.	.	.	.	.	.
.	.	.	16a/JJ	.	16ccc\JJ	.	.	.	.	.	.	.	.	.	.	.	.	.	.	.	.	.	.	.
!	!	!	!LO:LB:g=original	!	!	!	!	!	!	!	!	!	!LO:LB:g=original	!	!	!	!	!	!	!	!	!	!	!
=87	=87	=87	=87	=87	=87	=87	=87	=87	=87	=87	=87	=87	=87	=87	=87	=87	=87	=87	=87	=87	=87	=87	=87	=87
1ryy	8e\L	.	16g/LL	.	16ccc\LL	.	.	1ryy	1ryy	1ryy	1ryy	1ryy	4c/	.	4cc\	.	4c/	.	4cc\	.	4ee\	.	4gg\	.
.	.	.	16g/	.	16ccc\	.	.	.	.	.	.	.	.	.	.	.	.	.	.	.	.	.	.	.
.	8e\	.	16g/	.	16ccc\	.	.	.	.	.	.	.	.	.	.	.	.	.	.	.	.	.	.	.
.	.	.	16g/JJ	.	16ccc\	.	.	.	.	.	.	.	.	.	.	.	.	.	.	.	.	.	.	.
.	8f\	.	16a/LL	.	16ccc\	.	.	.	.	.	.	.	4c/	.	4cc\	.	4c/	.	4cc\	.	4ff\	.	4aa\	.
.	.	.	16a/	.	16ccc\	.	.	.	.	.	.	.	.	.	.	.	.	.	.	.	.	.	.	.
.	8f\J	.	16a/	.	16ccc\	.	.	.	.	.	.	.	.	.	.	.	.	.	.	.	.	.	.	.
.	.	.	16a/JJ	.	16ccc\JJ	.	.	.	.	.	.	.	.	.	.	.	.	.	.	.	.	.	.	.
.	8e\L	.	16g/LL	.	16ccc\LL	.	.	.	.	.	.	.	4c/	.	4cc\	.	4c/	.	4cc\	.	4ee\	.	4gg\	.
.	.	.	16g/	.	16ccc\	.	.	.	.	.	.	.	.	.	.	.	.	.	.	.	.	.	.	.
.	8e\	.	16g/	.	16ccc\	.	.	.	.	.	.	.	.	.	.	.	.	.	.	.	.	.	.	.
.	.	.	16g/JJ	.	16ccc\	.	.	.	.	.	.	.	.	.	.	.	.	.	.	.	.	.	.	.
.	8d\	.	16f/LL	.	16ccc\	.	.	.	.	.	.	.	4c/	.	4cc\	.	4c/	.	4cc\	.	4dd\	.	4ff\	.
.	.	.	16f/	.	16ccc\	.	.	.	.	.	.	.	.	.	.	.	.	.	.	.	.	.	.	.
.	8d\J	.	16f/	.	16ccc\	.	.	.	.	.	.	.	.	.	.	.	.	.	.	.	.	.	.	.
.	.	.	16f/JJ	.	16ccc\JJ	.	.	.	.	.	.	.	.	.	.	.	.	.	.	.	.	.	.	.
*	*	*	*Xtremolo	*	*	*	*	*	*	*	*	*	*	*	*	*	*	*	*	*	*	*	*	*
!	!LO:LB:g=original	!	!	!	!	!	!	!	!	!	!	!	!	!	!	!	!	!	!	!	!	!	!	!
=88	=88	=88	=88	=88	=88	=88	=88	=88	=88	=88	=88	=88	=88	=88	=88	=88	=88	=88	=88	=88	=88	=88	=88	=88
1ryy	4c\	.	16e/LL	.	16ccc\LL	.	.	1ryy	1ryy	1ryy	1ryy	1ryy	4c/	.	4cc\	.	4c/	.	4cc\	.	4cc\	.	4ee\	.
.	.	.	16cc/	.	16ccc\	.	.	.	.	.	.	.	.	.	.	.	.	.	.	.	.	.	.	.
.	.	.	16cc/	.	16ccc\	.	.	.	.	.	.	.	.	.	.	.	.	.	.	.	.	.	.	.
.	.	.	16cc/JJ	.	16ccc\	.	.	.	.	.	.	.	.	.	.	.	.	.	.	.	.	.	.	.
*	*	*	*tremolo	*	*	*	*	*	*	*	*	*	*	*	*	*	*	*	*	*	*	*	*	*
.	8c\L	.	16cc\LL	.	16ccc\	.	.	.	.	.	.	.	2c/	.	2cc\	.	2c/	.	2cc\	.	2cc\	.	2cc\	.
.	.	.	16cc\	.	16ccc\	.	.	.	.	.	.	.	.	.	.	.	.	.	.	.	.	.	.	.
.	8c\J	.	16cc\	.	16ccc\	.	.	.	.	.	.	.	.	.	.	.	.	.	.	.	.	.	.	.
.	.	.	16cc\JJ	.	16ccc\JJ	.	.	.	.	.	.	.	.	.	.	.	.	.	.	.	.	.	.	.
*	*tremolo	*	*	*	*	*	*	*	*	*	*	*	*	*	*	*	*	*	*	*	*	*	*	*
.	8c\L	.	16cc\LL	.	16ccc\LL	.	.	.	.	.	.	.	.	.	.	.	.	.	.	.	.	.	.	.
.	.	.	16cc\	.	16ccc\	.	.	.	.	.	.	.	.	.	.	.	.	.	.	.	.	.	.	.
.	8c\	.	16cc\	.	16ccc\	.	.	.	.	.	.	.	.	.	.	.	.	.	.	.	.	.	.	.
.	.	.	16cc\	.	16ccc\	.	.	.	.	.	.	.	.	.	.	.	.	.	.	.	.	.	.	.
.	8c\	.	16cc\	.	16ccc\	.	.	.	.	.	.	.	4c/	.	4cc\	.	4c/	.	4cc\	.	4cc\	.	4cc\	.
.	.	.	16cc\	.	16ccc\	.	.	.	.	.	.	.	.	.	.	.	.	.	.	.	.	.	.	.
.	8c\J	.	16cc\	.	16ccc\	.	.	.	.	.	.	.	.	.	.	.	.	.	.	.	.	.	.	.
.	.	.	16cc\JJ	.	16ccc\JJ	.	.	.	.	.	.	.	.	.	.	.	.	.	.	.	.	.	.	.
=89	=89	=89	=89	=89	=89	=89	=89	=89	=89	=89	=89	=89	=89	=89	=89	=89	=89	=89	=89	=89	=89	=89	=89	=89
1ryy	8A-X/L	.	16cc\LL	.	16eee-X\LL	4	.	1ryy	1ryy	1ryy	1ryy	1ryy	2c/	.	2cc\	.	2c/	.	2cc\	.	2cc\	.	2ee-X\	.
.	.	.	16cc\	.	16eee-X\	.	.	.	.	.	.	.	.	.	.	.	.	.	.	.	.	.	.	.
.	8A-X/	.	16cc\	.	16eee-X\	.	.	.	.	.	.	.	.	.	.	.	.	.	.	.	.	.	.	.
.	.	.	16cc\	.	16eee-X\	.	.	.	.	.	.	.	.	.	.	.	.	.	.	.	.	.	.	.
.	8A-X/	.	16cc\	.	16eee-X\	.	.	.	.	.	.	.	.	.	.	.	.	.	.	.	.	.	.	.
.	.	.	16cc\	.	16eee-X\	.	.	.	.	.	.	.	.	.	.	.	.	.	.	.	.	.	.	.
.	8A-X/J	.	16cc\	.	16eee-X\	.	.	.	.	.	.	.	.	.	.	.	.	.	.	.	.	.	.	.
.	.	.	16cc\JJ	.	16eee-X\JJ	.	.	.	.	.	.	.	.	.	.	.	.	.	.	.	.	.	.	.
.	8A-/L	.	16ee-X\LL	.	16ff#X\LL	1 o	.	.	.	.	.	.	2r	.	2r	.	2r	.	2r	.	2ee-X\	.	2ff#X\	.
.	.	.	16ee-X\	.	16ff#X\	.	.	.	.	.	.	.	.	.	.	.	.	.	.	.	.	.	.	.
.	8A-/	.	16ee-X\	.	16ff#X\	.	.	.	.	.	.	.	.	.	.	.	.	.	.	.	.	.	.	.
.	.	.	16ee-X\	.	16ff#X\	.	.	.	.	.	.	.	.	.	.	.	.	.	.	.	.	.	.	.
.	8A-/	.	16ee-X\	.	16ff#X\	.	.	.	.	.	.	.	.	.	.	.	.	.	.	.	.	.	.	.
.	.	.	16ee-X\	.	16ff#X\	.	.	.	.	.	.	.	.	.	.	.	.	.	.	.	.	.	.	.
.	8A-/J	.	16ee-X\	.	16ff#X\	.	.	.	.	.	.	.	.	.	.	.	.	.	.	.	.	.	.	.
.	.	.	16ee-X\JJ	.	16ff#X\JJ	.	.	.	.	.	.	.	.	.	.	.	.	.	.	.	.	.	.	.
*	*	*	*Xtremolo	*	*Xtremolo	*	*	*	*	*	*	*	*	*	*	*	*	*	*	*	*	*	*	*
=90	=90	=90	=90	=90	=90	=90	=90	=90	=90	=90	=90	=90	=90	=90	=90	=90	=90	=90	=90	=90	=90	=90	=90	=90
!	!	!	!LO:TX:t=P:problem:mixed beam	!	!	!	!	!	!	!	!	!	!	!	!	!	!	!	!	!	!	!	!	!
1ryy	8G/L	.	16een\LL	.	8gg\	.	.	1ryy	1ryy	1ryy	1ryy	1ryy	4e/	.	4cc\	.	1cc\	.	1ee\	.	2een\	.	2gg\	.
.	.	.	16en/ 16G/	.	.	.	.	.	.	.	.	.	.	.	.	.	.	.	.	.	.	.	.	.
.	8G/	.	16e/ 16G/	.	4gg\	.	.	.	.	.	.	.	.	.	.	.	.	.	.	.	.	.	.	.
.	.	.	16e/JJ 16G/	.	.	.	.	.	.	.	.	.	.	.	.	.	.	.	.	.	.	.	.	.
*	*	*	*tremolo	*	*	*	*	*	*	*	*	*	*	*	*	*	*	*	*	*	*	*	*	*
.	8G/	.	16e/ 16G/LL	.	.	.	.	.	.	.	.	.	8e/L	.	8cc\L	.	.	.	.	.	.	.	.	.
.	.	.	16e/ 16G/	.	.	.	.	.	.	.	.	.	.	.	.	.	.	.	.	.	.	.	.	.
.	8G/J	.	16e/ 16G/	.	8een\	.	.	.	.	.	.	.	8e/J	.	8cc\J	.	.	.	.	.	.	.	.	.
.	.	.	16e/ 16G/JJ	.	.	.	.	.	.	.	.	.	.	.	.	.	.	.	.	.	.	.	.	.
!	!	!	!LO:LB:g=original	!	!	!	!	!	!	!	!	!	!	!	!	!	!	!	!	!	!	!	!	!
.	8G/L	.	16e/ 16G/LL	.	8cc/L	.	.	.	.	.	.	.	4e/	.	4cc\	.	.	.	.	.	2cc\	.	2een\	.
.	.	.	16e/ 16G/	.	.	.	.	.	.	.	.	.	.	.	.	.	.	.	.	.	.	.	.	.
.	8G/	.	16e/ 16G/	.	8g/	.	.	.	.	.	.	.	.	.	.	.	.	.	.	.	.	.	.	.
.	.	.	16e/ 16G/	.	.	.	.	.	.	.	.	.	.	.	.	.	.	.	.	.	.	.	.	.
.	8G/	.	16e/ 16G/	.	8e/	.	.	.	.	.	.	.	4e/	.	4cc\	.	.	.	.	.	.	.	.	.
.	.	.	16e/ 16G/	.	.	.	.	.	.	.	.	.	.	.	.	.	.	.	.	.	.	.	.	.
.	8G/J	.	16e/ 16G/	.	8c/J	.	.	.	.	.	.	.	.	.	.	.	.	.	.	.	.	.	.	.
.	.	.	16e/ 16G/JJ	.	.	.	.	.	.	.	.	.	.	.	.	.	.	.	.	.	.	.	.	.
=91	=91	=91	=91	=91	=91	=91	=91	=91	=91	=91	=91	=91	=91	=91	=91	=91	=91	=91	=91	=91	=91	=91	=91	=91
1ryy	8G/L	.	16d/ 16G/LL	.	8B/	.	.	1ryy	1ryy	1ryy	1ryy	1ryy	4g/	.	4dd\	.	1g/	.	1dd\	.	2dd\	.	2ff\	.
.	.	.	16d/ 16G/	.	.	.	.	.	.	.	.	.	.	.	.	.	.	.	.	.	.	.	.	.
.	8G/	.	16d/ 16G/	.	4ff\	.	.	.	.	.	.	.	.	.	.	.	.	.	.	.	.	.	.	.
.	.	.	16d/ 16G/	.	.	.	.	.	.	.	.	.	.	.	.	.	.	.	.	.	.	.	.	.
.	8G/	.	16d/ 16G/	.	.	.	.	.	.	.	.	.	8g/L	.	8dd\L	.	.	.	.	.	.	.	.	.
.	.	.	16d/ 16G/	.	.	.	.	.	.	.	.	.	.	.	.	.	.	.	.	.	.	.	.	.
.	8G/J	.	16d/ 16G/	.	8dd\	.	.	.	.	.	.	.	8g/J	.	8dd\J	.	.	.	.	.	.	.	.	.
.	.	.	16d/ 16G/JJ	.	.	.	.	.	.	.	.	.	.	.	.	.	.	.	.	.	.	.	.	.
.	8G/L	.	16f/ 16G/LL	.	8b/L	.	.	.	.	.	.	.	4g/	.	4dd\	.	.	.	.	.	2b\	.	2dd\	.
.	.	.	16f/ 16G/	.	.	.	.	.	.	.	.	.	.	.	.	.	.	.	.	.	.	.	.	.
.	8G/	.	16f/ 16G/	.	8g/	.	.	.	.	.	.	.	.	.	.	.	.	.	.	.	.	.	.	.
.	.	.	16f/ 16G/	.	.	.	.	.	.	.	.	.	.	.	.	.	.	.	.	.	.	.	.	.
.	8G/	.	16f/ 16G/	.	8f/	.	.	.	.	.	.	.	4g/	.	4dd\	.	.	.	.	.	.	.	.	.
.	.	.	16f/ 16G/	.	.	.	.	.	.	.	.	.	.	.	.	.	.	.	.	.	.	.	.	.
.	8G/J	.	16f/ 16G/	.	8d/J	.	.	.	.	.	.	.	.	.	.	.	.	.	.	.	.	.	.	.
.	.	.	16f/ 16G/JJ	.	.	.	.	.	.	.	.	.	.	.	.	.	.	.	.	.	.	.	.	.
*	*Xtremolo	*	*Xtremolo	*	*	*	*	*	*	*	*	*	*	*	*	*	*	*	*	*	*	*	*	*
!	!	!	!	!	!LO:LB:g=original	!	!	!	!	!	!	!	!	!	!	!	!	!	!LO:LB:g=original	!	!	!	!	!
=92	=92	=92	=92	=92	=92	=92	=92	=92	=92	=92	=92	=92	=92	=92	=92	=92	=92	=92	=92	=92	=92	=92	=92	=92
!	!	!	!	!	!	!	!	!	!	!	!	!	!	!	!	!	!	!	!	!	!	!	!	!LO:DY:rj:t=ffr
1ryy	4c/	.	4e/	.	4c/	.	.	1ryy	1ryy	1ryy	1ryy	1ryy	4c/	.	4cc\	.	4e/	.	4cc\	.	8cc'/L	.	8ee'\L	ff
.	.	.	.	.	.	.	.	.	.	.	.	.	.	.	.	.	.	.	.	.	(8g/	.	(8gg\	.
.	4c/	.	4e/ 4G/	.	4cc/ 4e/ 4G/	.	.	.	.	.	.	.	4r	.	4r	.	4r	.	4r	.	8a/	.	8aa\	.
.	.	.	.	.	.	.	.	.	.	.	.	.	.	.	.	.	.	.	.	.	8g/J)	.	8gg\J)	.
.	4r	.	4r	.	4r	.	.	.	.	.	.	.	4G/	.	4g/	.	4g/	.	4dd\	.	8r	.	8r	.
.	.	.	.	.	.	.	.	.	.	.	.	.	.	.	.	.	.	.	.	.	(8g/L	.	(8gg\L	.
.	4G/	.	4f/ 4G/	.	4dd/ 4g/ 4B/	.	.	.	.	.	.	.	4r	.	4r	.	4r	.	4r	.	8a/	.	8aa\	.
.	.	.	.	.	.	.	.	.	.	.	.	.	.	.	.	.	.	.	.	.	8g/J)	.	8gg\J)	.
!	!	!	!	!	!	!	!	!	!	!	!	!	!	!	!LO:LB:g=original	!	!	!	!	!	!LO:LB:g=original	!	!LO:LB:g=original	!
=93	=93	=93	=93	=93	=93	=93	=93	=93	=93	=93	=93	=93	=93	=93	=93	=93	=93	=93	=93	=93	=93	=93	=93	=93
1ryy	4r	.	4r	.	4r	.	.	1ryy	1ryy	1ryy	1ryy	1ryy	4c/	.	4cc\	.	4cc\	.	4ee\	.	8r	.	8r	.
.	.	.	.	.	.	.	.	.	.	.	.	.	.	.	.	.	.	.	.	.	(8g/L	.	(8gg\L	.
.	4c/	.	4g/ 4G/	.	4ee/ 4g/ 4c/	.	.	.	.	.	.	.	4r	.	4r	.	4r	.	4r	.	8a/	.	8aa\	.
.	.	.	.	.	.	.	.	.	.	.	.	.	.	.	.	.	.	.	.	.	8g/J)	.	8gg\J)	.
.	4r	.	4r	.	4r	.	.	.	.	.	.	.	4G/	.	4g/	.	4g/	.	4dd\	.	8r	.	8r	.
.	.	.	.	.	.	.	.	.	.	.	.	.	.	.	.	.	.	.	.	.	(8g/L	.	(8gg\L	.
.	4G/	.	4f/ 4G/	.	4dd/ 4g/ 4B/	.	.	.	.	.	.	.	4r	.	4r	.	4r	.	4r	.	8a/	.	8aa\	.
.	.	.	.	.	.	.	.	.	.	.	.	.	.	.	.	.	.	.	.	.	8g/J)	.	8gg\J)	.
!	!	!	!	!	!	!	!	!	!	!	!	!	!LO:LB:g=original	!	!	!	!	!	!	!	!	!	!	!
=94	=94	=94	=94	=94	=94	=94	=94	=94	=94	=94	=94	=94	=94	=94	=94	=94	=94	=94	=94	=94	=94	=94	=94	=94
1ryy	4r	.	4r	.	4r	.	.	1ryy	1ryy	1ryy	1ryy	1ryy	4c/	.	4cc\	.	4e/	.	4cc\	.	8r	.	8r	.
.	.	.	.	.	.	.	.	.	.	.	.	.	.	.	.	.	.	.	.	.	(8g/L	.	(8gg\L	.
.	4c/	.	4e/ 4G/	.	4cc/ 4e/ 4G/	.	.	.	.	.	.	.	4r	.	4r	.	4r	.	4r	.	8a/	.	8aa\	.
.	.	.	.	.	.	.	.	.	.	.	.	.	.	.	.	.	.	.	.	.	8g/J)	.	8gg\J)	.
.	4r	.	4r	.	4r	.	.	.	.	.	.	.	4G/	.	4g/	.	4g/	.	4dd\	.	8r	.	8r	.
.	.	.	.	.	.	.	.	.	.	.	.	.	.	.	.	.	.	.	.	.	(8g/L	.	(8gg\L	.
.	4G/	.	4f/ 4G/	.	4dd/ 4g/ 4B/	.	.	.	.	.	.	.	4r	.	4r	.	4r	.	4r	.	8a/	.	8aa\	.
.	.	.	.	.	.	.	.	.	.	.	.	.	.	.	.	.	.	.	.	.	8g/J)	.	8gg\J)	.
!	!	!	!LO:LB:g=original	!	!	!	!	!	!	!	!	!	!	!	!	!	!LO:LB:g=original	!	!	!	!	!	!	!
=95	=95	=95	=95	=95	=95	=95	=95	=95	=95	=95	=95	=95	=95	=95	=95	=95	=95	=95	=95	=95	=95	=95	=95	=95
1ryy	4r	.	4r	.	4r	.	.	1ryy	1ryy	1ryy	1ryy	1ryy	4c/	.	4cc\	.	4cc\	.	4ee\	.	8r	.	8r	.
.	.	.	.	.	.	.	.	.	.	.	.	.	.	.	.	.	.	.	.	.	(8g/L	.	(8gg\L	.
.	4c/	.	4g/ 4G/	.	4ee/ 4g/ 4c/	.	.	.	.	.	.	.	4r	.	4r	.	4r	.	4r	.	8a/	.	8aa\	.
.	.	.	.	.	.	.	.	.	.	.	.	.	.	.	.	.	.	.	.	.	8g/J)	.	8gg\J)	.
.	4r	.	4r	.	4r	.	.	.	.	.	.	.	4G/	.	4g/	.	4g/	.	4dd\	.	8r	.	8r	.
.	.	.	.	.	.	.	.	.	.	.	.	.	.	.	.	.	.	.	.	.	(8g/L	.	(8gg\L	.
.	4G/	.	4f/ 4G/	.	4dd/ 4g/ 4B/	.	.	.	.	.	.	.	4r	.	4r	.	4r	.	4r	.	8a/	.	8aa\	.
.	.	.	.	.	.	.	.	.	.	.	.	.	.	.	.	.	.	.	.	.	8g/J)	.	8gg\J)	.
!	!LO:LB:g=original	!	!	!	!	!	!	!	!	!	!	!	!	!	!	!	!	!	!	!	!	!	!	!
=96	=96	=96	=96	=96	=96	=96	=96	=96	=96	=96	=96	=96	=96	=96	=96	=96	=96	=96	=96	=96	=96	=96	=96	=96
*	*tremolo	*	*tremolo	*	*	*	*	*	*	*	*	*	*	*	*	*	*	*	*	*	*	*	*	*
1ryy	8c/ 8C/L	.	16e/ 16G/LL	.	8cc/L 8e/ 8G/	.	.	1ryy	1ryy	1ryy	1ryy	1ryy	4c/	.	4cc\	.	4e/	.	4cc\	.	2e/	.	1cc\	.
.	.	.	16e/ 16G/	.	.	.	.	.	.	.	.	.	.	.	.	.	.	.	.	.	.	.	.	.
.	8c/ 8C/	.	16e/ 16G/	.	16c/L	.	.	.	.	.	.	.	.	.	.	.	.	.	.	.	.	.	.	.
.	.	.	16e/ 16G/	.	16c/JJ	.	.	.	.	.	.	.	.	.	.	.	.	.	.	.	.	.	.	.
.	8c/ 8C/	.	16e/ 16G/	.	16e/LL	.	.	.	.	.	.	.	8.c/L	.	8.cc\L	.	8.e/L	.	8.cc\L	.	.	.	.	.
.	.	.	16e/ 16G/	.	16e/	.	.	.	.	.	.	.	.	.	.	.	.	.	.	.	.	.	.	.
.	8c/ 8C/J	.	16e/ 16G/	.	16g/	.	.	.	.	.	.	.	.	.	.	.	.	.	.	.	.	.	.	.
.	.	.	16e/ 16G/JJ	.	16g/JJ	.	.	.	.	.	.	.	16c/Jk	.	16cc\Jk	.	16e/Jk	.	16cc\Jk	.	.	.	.	.
!	!	!	!	!	!LO:LB:g=original	!	!	!	!	!	!	!	!	!	!	!	!	!	!	!	!	!	!	!
!	!	!	!	!	!LO:TX:t=P:problem:mixed beam	!	!	!	!	!	!	!	!	!	!	!	!	!	!	!	!	!	!	!
.	8c/ 8C/L	.	16e/ 16G/LL	.	16cc\LL	.	.	.	.	.	.	.	4c/	.	4cc\	.	4e/	.	4cc\	.	2g/	.	.	.
.	.	.	16e/ 16G/	.	16cc\	.	.	.	.	.	.	.	.	.	.	.	.	.	.	.	.	.	.	.
.	8c/ 8C/	.	16e/ 16G/	.	16e/	.	.	.	.	.	.	.	.	.	.	.	.	.	.	.	.	.	.	.
.	.	.	16e/ 16G/	.	16e/JJ	.	.	.	.	.	.	.	.	.	.	.	.	.	.	.	.	.	.	.
.	8c/ 8C/	.	16e/ 16G/	.	16g/LL	.	.	.	.	.	.	.	4c/	.	4cc\	.	4e/	.	4cc\	.	.	.	.	.
.	.	.	16e/ 16G/	.	16g/	.	.	.	.	.	.	.	.	.	.	.	.	.	.	.	.	.	.	.
.	8c/ 8C/J	.	16e/ 16G/	.	16cc/	.	.	.	.	.	.	.	.	.	.	.	.	.	.	.	.	.	.	.
.	.	.	16e/ 16G/JJ	.	16cc/JJ	.	.	.	.	.	.	.	.	.	.	.	.	.	.	.	.	.	.	.
=97	=97	=97	=97	=97	=97	=97	=97	=97	=97	=97	=97	=97	=97	=97	=97	=97	=97	=97	=97	=97	=97	=97	=97	=97
1ryy	8c/ 8C/L	.	16e/ 16G/LL	.	16ee\LL	.	.	1ryy	1ryy	1ryy	1ryy	1ryy	4c/	.	4cc\	.	4e/	.	4cc\	.	2cc\	.	2ee\	.
.	.	.	16e/ 16G/	.	16ee\	.	.	.	.	.	.	.	.	.	.	.	.	.	.	.	.	.	.	.
.	8c/ 8C/	.	16e/ 16G/	.	16g\	.	.	.	.	.	.	.	.	.	.	.	.	.	.	.	.	.	.	.
.	.	.	16e/ 16G/	.	16g\JJ	.	.	.	.	.	.	.	.	.	.	.	.	.	.	.	.	.	.	.
.	8c/ 8C/	.	16e/ 16G/	.	16cc\LL	.	.	.	.	.	.	.	8.c/L	.	8.cc\L	.	8.e/L	.	8.cc\L	.	.	.	.	.
.	.	.	16e/ 16G/	.	16cc\	.	.	.	.	.	.	.	.	.	.	.	.	.	.	.	.	.	.	.
.	8c/ 8C/J	.	16e/ 16G/	.	16ee\	.	.	.	.	.	.	.	.	.	.	.	.	.	.	.	.	.	.	.
.	.	.	16e/ 16G/JJ	.	16ee\JJ	.	.	.	.	.	.	.	16c/Jk	.	16cc\Jk	.	16e/Jk	.	16cc\Jk	.	.	.	.	.
.	8c/ 8C/L	.	16cc/ 16e/LL	.	16gg\LL	.	.	.	.	.	.	.	4c/	.	4cc\	.	4e/	.	4cc\	.	2ee\	.	2gg\	.
.	.	.	16cc/ 16e/	.	16gg\	.	.	.	.	.	.	.	.	.	.	.	.	.	.	.	.	.	.	.
.	8c/ 8C/	.	16cc/ 16e/	.	16cc\	.	.	.	.	.	.	.	.	.	.	.	.	.	.	.	.	.	.	.
.	.	.	16cc/ 16e/	.	16cc\JJ	.	.	.	.	.	.	.	.	.	.	.	.	.	.	.	.	.	.	.
.	8c/ 8C/	.	16cc/ 16e/	.	16ee\LL	.	.	.	.	.	.	.	4c/	.	4cc\	.	4e/	.	4cc\	.	.	.	.	.
.	.	.	16cc/ 16e/	.	16ee\	.	.	.	.	.	.	.	.	.	.	.	.	.	.	.	.	.	.	.
.	8c/ 8C/J	.	16cc/ 16e/	.	16gg\	.	.	.	.	.	.	.	.	.	.	.	.	.	.	.	.	.	.	.
.	.	.	16cc/ 16e/JJ	.	16gg\JJ	.	.	.	.	.	.	.	.	.	.	.	.	.	.	.	.	.	.	.
*	*	*	*Xtremolo	*	*	*	*	*	*	*	*	*	*	*	*	*	*	*	*	*	*	*	*	*
*	*Xtremolo	*	*	*	*	*	*	*	*	*	*	*	*	*	*	*	*	*	*	*	*	*	*	*
=98	=98	=98	=98	=98	=98	=98	=98	=98	=98	=98	=98	=98	=98	=98	=98	=98	=98	=98	=98	=98	=98	=98	=98	=98
1ryy	4c/ 4C/	.	4ee/ 4cc/ 4e/ 4G/	.	4ccc\	.	.	1ryy	1ryy	1ryy	1ryy	1ryy	4c/	.	4cc\	.	4e/	.	4cc\	.	4gg\	.	4ccc\	.
.	4r	.	4r	.	4r	.	.	.	.	.	.	.	4r	.	4r	.	4r	.	4r	.	4r	.	4r	.
.	4.c/	.	4.c/	.	4.c/	.	.	.	.	.	.	.	4.c/	.	4.c/	.	4.c/	.	4.c/	.	4.c/	.	4.c/	.
.	8c/	.	8c/	.	8c/	.	.	.	.	.	.	.	8c/	.	8c/	.	8c/	.	8c/	.	8c/	.	8c/	.
!	!	!	!LO:LB:g=original	!	!	!	!	!	!	!	!	!	!	!	!	!	!	!	!	!	!	!	!LO:LB:g=original	!
=99	=99	=99	=99	=99	=99	=99	=99	=99	=99	=99	=99	=99	=99	=99	=99	=99	=99	=99	=99	=99	=99	=99	=99	=99
1ryy	2c/	.	2c/	.	2c/	.	.	1ryy	1ryy	1ryy	1ryy	1ryy	2c/	.	2c/	.	2c/	.	2c/	.	2c/	.	2c/	.
!	!	!	!	!	!	!	!	!	!	!	!	!	!LO:TX:b:i:t=Volti No 2.	!	!LO:TX:b:t=Volti No 2.	!	!LO:TX:b:t=Volti No 2.	!	!LO:TX:b:t=Volti No 2.	!	!LO:TX:b:t=Volti No 2.	!	!LO:TX:b:t=Volti No 2.	!
.	2r	.	2r	.	2r	.	.	.	.	.	.	.	2r	.	2r	.	2r	.	2r	.	2r	.	2r	.
==	==	==	==	==	==	==	==	==	==	==	==	==	==	==	==	==	==	==	==	==	==	==	==	==
*-	*-	*-	*-	*-	*-	*-	*-	*-	*-	*-	*-	*-	*-	*-	*-	*-	*-	*-	*-	*-	*-	*-	*-	*-
!!!system-decoration: [(s1,s2)][(s3,s4,s5,s6)][(s7)][(s8,s9,s10,s11)][(s12,s13,s14)]s15
!!!ENC:Andrzej Borzym
!!!END:2020-10-14
!!!RDF**dynam: ff = ff.
!!!RDF**dynam: mf = mfr:
!!!RDF**dynam: f = fr:
!!!RDF**kern: | = vertical stroke
!!!EED: Andrzej Borzym
!!!EST: 2022-01-18
!!!RDF**kern: > = above
!!!RDF**kern: < = below
